/* XPM */
static char *east[] = {
/* columns rows colors chars-per-pixel */
"256 256 177 2 ",
"   c gray30",
".  c #4E4E4E",
"X  c gray31",
"o  c #505050",
"O  c #515151",
"+  c gray32",
"@  c #535353",
"#  c gray33",
"$  c #555555",
"%  c #565656",
"&  c gray34",
"*  c #585858",
"=  c gray35",
"-  c #5A5A5A",
";  c #5B5B5B",
":  c gray36",
">  c #5D5D5D",
",  c gray37",
"<  c #5F5F5F",
"1  c #606060",
"2  c gray38",
"3  c #626262",
"4  c gray39",
"5  c #646464",
"6  c #656565",
"7  c gray40",
"8  c #676767",
"9  c #686868",
"0  c DimGray",
"q  c #6A6A6A",
"w  c gray42",
"e  c #6C6C6C",
"r  c #6D6D6D",
"t  c gray43",
"y  c #6F6F6F",
"u  c gray44",
"i  c #717171",
"p  c #727272",
"a  c gray45",
"s  c #747474",
"d  c gray46",
"f  c #767676",
"g  c #777777",
"h  c gray47",
"j  c #797979",
"k  c gray48",
"l  c #7B7B7B",
"z  c #7C7C7C",
"x  c gray49",
"c  c #7E7E7E",
"v  c gray50",
"b  c #808080",
"n  c #818181",
"m  c gray51",
"M  c #838383",
"N  c #848484",
"B  c gray52",
"V  c #868686",
"C  c gray53",
"Z  c #888888",
"A  c #898989",
"S  c gray54",
"D  c #8B8B8B",
"F  c gray55",
"G  c #8D8D8D",
"H  c #8E8E8E",
"J  c gray56",
"K  c #909090",
"L  c gray57",
"P  c #929292",
"I  c #939393",
"U  c gray58",
"Y  c #959595",
"T  c gray59",
"R  c #979797",
"E  c #989898",
"W  c gray60",
"Q  c #9A9A9A",
"!  c #9B9B9B",
"~  c gray61",
"^  c #9D9D9D",
"/  c gray62",
"(  c #9F9F9F",
")  c #A0A0A0",
"_  c gray63",
"`  c #A2A2A2",
"'  c gray64",
"]  c #A4A4A4",
"[  c #A5A5A5",
"{  c gray65",
"}  c #A7A7A7",
"|  c gray66",
" . c #A9A9A9",
".. c #AAAAAA",
"X. c gray67",
"o. c #ACACAC",
"O. c gray68",
"+. c #AEAEAE",
"@. c #AFAFAF",
"#. c gray69",
"$. c #B1B1B1",
"%. c #B2B2B2",
"&. c gray70",
"*. c #B4B4B4",
"=. c gray71",
"-. c #B6B6B6",
";. c #B7B7B7",
":. c gray72",
">. c #B9B9B9",
",. c gray73",
"<. c #BBBBBB",
"1. c #BCBCBC",
"2. c gray74",
"3. c gray",
"4. c gray75",
"5. c #C0C0C0",
"6. c #C1C1C1",
"7. c gray76",
"8. c #C3C3C3",
"9. c gray77",
"0. c #C5C5C5",
"q. c #C6C6C6",
"w. c gray78",
"e. c #C8C8C8",
"r. c gray79",
"t. c #CACACA",
"y. c #CBCBCB",
"u. c gray80",
"i. c #CDCDCD",
"p. c #CECECE",
"a. c gray81",
"s. c #D0D0D0",
"d. c gray82",
"f. c #D2D2D2",
"g. c LightGray",
"h. c gray83",
"j. c #D5D5D5",
"k. c gray84",
"l. c #D7D7D7",
"z. c #D8D8D8",
"x. c gray85",
"c. c #DADADA",
"v. c gray86",
"b. c gainsboro",
"n. c #DDDDDD",
"m. c gray87",
"M. c #DFDFDF",
"N. c gray88",
"B. c #E1E1E1",
"V. c #E2E2E2",
"C. c gray89",
"Z. c #E4E4E4",
"A. c gray90",
"S. c #E6E6E6",
"D. c #E7E7E7",
"F. c gray91",
"G. c #E9E9E9",
"H. c #EAEAEA",
"J. c gray92",
"K. c #ECECEC",
"L. c gray93",
"P. c #EEEEEE",
"I. c #EFEFEF",
"U. c gray94",
"Y. c #F1F1F1",
"T. c gray95",
"R. c #F3F3F3",
"E. c #F4F4F4",
"W. c gray96",
"Q. c #F6F6F6",
"!. c gray97",
"~. c #F8F8F8",
"^. c #F9F9F9",
"/. c gray98",
"(. c #FBFBFB",
"). c gray99",
"_. c #FDFDFD",
/* pixels */
"G.G.L.L.U.U.L.L.L.G.G.G.A.C.C.C.C.M.M.c.c.k.k.k.d.d.d.a.a.a.y.y.q.q.6.6.6.4.4.4.4.>.=.>.=.=.&.&.@.@.X.X.X.{ { { ` ` ( ( ( ( E E Y Y Y P P P H H S S S C C M M M v v l l l g g g g g l l v v M M M C C C S S H H P P P P Y Y E Y P P P P H H H S S C C M M M v v v l l g g u g l l l l v v M M C C C S S H H P H P Y Y Y Y E ( E ( ( ( ` ` { { X.X.X.@.@.&.&.&.&.=.=.>.>.4.4.4.4.6.6.q.q.y.y.y.a.a.a.d.d.d.k.k.c.c.c.M.M.M.C.C.A.A.G.G.L.L.L.U.U.L.L.L.G.G.A.A.A.C.C.C.M.c.c.c.k.k.k.d.d.a.a.a.d.d.d.k.k.k.k.c.c.M.M.C.C.C.A.A.A.",
"U.U.U.W.W.~.W.W.W.U.U.L.L.L.G.A.A.A.C.C.M.C.M.M.M.c.c.k.k.d.d.d.d.a.a.a.y.y.q.q.q.q.6.6.4.4.4.>.>.>.=.=.&.&.@.@.@.@.X.X.{ { { { ` ` ` ( ( E ( E Y Y Y P P P H S S S C C C M M M M C C C S S S H H H P P Y Y Y E ( E ( ` ` ` ` ` ( ( ( E E E E Y Y P P H P H S S S C C C M M M C C S S S S H H H P P P Y E E E ( ( ( ` ` { ` { X.X.X.X.@.@.&.&.&.&.=.=.=.>.>.4.4.6.6.6.q.q.q.q.y.y.y.a.a.a.d.k.k.d.c.c.c.c.M.C.M.C.C.C.A.A.G.G.G.L.U.U.U.U.W.W.~.W.W.U.U.U.L.L.G.G.A.A.A.A.C.C.C.M.M.M.c.c.k.k.k.c.c.c.M.M.M.C.C.C.A.A.G.G.G.L.L.",
"L.L.U.U.U.W.U.U.L.L.L.G.G.G.G.A.C.C.C.M.M.M.c.c.c.k.k.k.d.k.d.a.a.a.y.y.q.y.q.q.6.6.6.6.4.4.4.>.>.=.=.=.&.&.@.&.X.@.X.X.X.{ { ` ` ` ` ` ( ( E E E Y Y Y P P H H H S S S C C C M C C S S S S H H P P Y Y Y E E E E ( ( ` ` ` { ` ` ( ( ( ( E E E Y Y Y P H H H S S S C C C C C C C S S S H P P P P Y Y E E E ( ( ( ` ` ` ` { { { X.X.X.X.@.@.&.&.&.&.=.>.>.4.4.6.4.4.6.6.q.q.q.y.y.y.y.a.a.a.d.d.d.k.k.c.c.M.M.M.M.M.C.C.A.A.G.G.G.L.L.L.U.U.U.W.U.U.U.L.L.L.G.G.A.A.A.C.M.C.M.c.c.c.c.c.k.k.k.k.k.c.c.c.M.M.M.C.C.C.C.A.A.G.L.L.",
"L.L.L.U.U.W.U.U.L.L.L.G.G.A.A.A.C.M.M.M.M.c.c.k.k.k.k.d.d.a.a.a.y.y.q.q.q.q.6.6.4.4.4.>.>.=.=.=.&.&.&.&.@.@.X.X.X.{ { ` ` ` ` ( ( ( E E Y Y Y Y P P H H H S S S C C C M M v v v v v M M C C S S S S H H P P Y P Y E E E E ( ( E ( E E Y Y Y P P P H S H S C C C M M M v v l v v v M C C C C S S H H P P P P Y Y Y E E ( ( ` ` ` ` { { X.{ X.X.@.@.&.&.&.=.=.=.>.>.4.4.4.6.6.6.6.q.y.q.y.y.a.a.a.d.d.k.k.k.k.c.c.M.M.M.C.A.A.A.A.G.G.G.L.U.U.U.U.U.L.L.L.G.G.G.A.A.A.C.M.M.M.c.c.c.k.k.k.d.d.d.d.k.k.k.k.c.c.c.M.M.C.C.C.A.A.G.G.",
"G.G.L.U.U.U.U.L.L.L.G.A.A.A.C.C.C.M.c.c.c.c.c.k.k.d.d.d.a.a.y.y.y.q.q.q.6.6.4.4.4.>.>.>.>.=.=.&.&.@.@.X.@.X.{ { { ` ` ` ` ( ( E ( E E Y Y P P P P H S S S S C M M M v v v l l g l l v v v M M C C S S S H H P P P Y Y E E ( E E E Y Y Y P P H H S S S C C C M M v v v l l l l l v v M M M C C S S S H H H P P Y E Y E E E ( ( ( ` ` ` ` { { X.X.@.@.@.&.&.&.=.=.=.>.>.4.4.4.6.6.q.q.q.q.y.y.y.a.d.d.d.k.k.k.k.c.c.c.M.M.C.C.C.A.A.G.G.L.L.L.U.L.U.L.L.G.G.G.A.A.C.C.M.M.M.c.c.c.k.k.d.d.d.d.a.d.d.d.k.k.k.c.c.c.M.M.C.C.A.A.A.G.",
"L.U.U.U.U.W.U.W.L.L.L.L.G.G.A.A.C.C.C.M.M.c.c.c.c.k.k.d.d.a.a.y.y.y.y.q.q.q.6.6.4.4.4.>.>.=.=.&.&.&.@.@.X.X.X.X.{ { ` ` ( ( E ( E Y Y Y Y P P H H S S S C C M M M v v l l l g g l l l v v M M M C C S S S H H H P Y Y Y E E E E E Y Y P P H H H H S C C M M M v v v l l g g g l l v v v M M C C S S S H H P P P Y E E E E ( ( ( ( ` { { { { X.X.X.@.@.&.&.=.=.=.>.4.>.4.4.6.6.q.q.q.y.y.y.a.a.d.d.k.k.k.c.c.c.M.M.M.C.C.A.A.G.G.G.L.L.U.U.U.W.W.W.U.U.L.L.G.G.G.A.A.C.C.M.M.M.c.c.c.c.k.k.d.d.d.k.k.k.c.c.M.M.M.M.C.C.A.A.G.G.L.",
"L.L.U.U.W.W.W.U.U.U.L.L.L.G.G.A.C.C.C.M.M.M.c.c.c.c.k.k.k.d.a.a.a.y.y.q.y.q.q.6.6.4.4.4.4.>.>.>.=.=.&.&.@.@.@.X.X.X.X.{ { ` ` ` ` ( ( E E E Y Y Y P H H H S S S C C C M M v v v v M M M C C S S S H H H P P Y Y Y E E ( ( ( ` ( ( E E E Y Y P P P H H H S S C C C M M v v v v M M M C C C S S S H H P P P Y Y E E ( ( ( ` ` ` ` { { { X.X.@.@.@.&.&.&.&.=.>.>.4.4.4.6.6.6.q.q.q.q.y.y.y.a.a.a.d.k.k.k.k.c.M.c.M.C.M.C.C.A.G.A.G.L.L.L.U.U.W.W.W.W.U.U.U.L.L.L.G.A.A.A.C.C.M.M.M.M.c.c.c.k.k.k.k.k.c.c.c.M.M.M.M.C.C.A.A.G.G.L.L.",
"L.L.U.U.U.W.L.U.L.L.G.G.G.A.C.A.C.M.M.M.c.c.c.k.k.d.d.d.a.a.a.y.y.q.y.q.6.6.6.6.4.4.>.>.>.>.=.&.&.@.@.@.X.X.X.{ { { ` ` ( ( ( ( E E E Y Y P P H H H H S S C C M M M v v l l l l l l v v v M M M C C S S S H P P P Y Y Y Y ( E E E E Y P P H H H S S S C C M M M v v v l l g l l l v v M M M C C S S S H H P P Y Y Y E E E E ( ( ` ` { { { { X.X.X.@.@.&.&.&.=.=.>.>.>.4.4.6.6.6.q.q.q.y.y.y.a.a.a.d.k.k.k.k.c.c.c.M.M.C.C.A.A.A.G.G.L.L.L.U.U.U.U.L.L.L.G.G.A.A.A.A.M.M.M.M.c.c.k.k.k.d.d.d.d.d.k.d.k.c.k.c.M.M.M.M.C.C.A.A.G.G.",
"L.U.U.U.U.W.U.U.U.L.L.G.G.G.G.A.C.C.M.M.M.c.c.c.k.k.d.a.d.a.a.y.y.y.y.q.q.6.6.6.4.4.>.>.=.>.=.&.&.&.@.@.@.X.X.X.{ { ` ` ` ( ( E ( E E E Y Y P P H H H S C C C M M M v v v l l l l l v v M M M C C C S H S H H P P Y Y E E ( ( E E Y Y Y Y P H H H S S S C C M M v v v l l l l l v v M M M C C C S S H H H P P P Y E E E ( ( ( ` ` ` ` { X.X.X.@.@.@.@.&.&.=.=.=.>.>.4.4.6.6.6.q.q.q.y.y.a.y.a.a.d.d.k.k.k.c.c.c.M.M.C.C.C.A.G.G.G.L.L.L.U.U.W.W.W.U.L.L.L.G.G.G.A.A.C.C.C.M.M.c.c.c.c.k.d.d.d.d.d.k.k.c.c.c.M.C.C.C.A.A.A.G.G.L.",
"W.W.~.~.~._.~.~.~.W.W.W.U.U.U.U.L.L.L.G.G.A.G.A.A.A.A.C.C.M.M.M.c.c.c.k.c.k.k.k.k.d.d.d.a.a.a.a.y.y.q.y.q.q.6.6.6.6.6.4.4.4.4.>.>.=.=.=.=.=.=.&.@.@.@.@.X.X.X.X.{ { { { { ` ` ( ` ` ` { { { { X.X.X.@.@.@.@.&.&.&.=.=.=.>.>.>.=.>.=.=.=.&.&.&.&.@.@.X.X.X.{ X.{ { { ` ` ` ( ` ` ` { { { X.{ X.X.X.@.@.&.&.&.&.&.=.=.>.>.>.>.>.4.4.4.6.6.6.6.q.q.q.y.q.y.y.a.a.a.d.d.d.d.d.k.k.k.c.c.c.c.c.M.M.M.C.C.C.A.A.A.G.G.G.G.L.L.L.L.U.U.W.W.W.W.~.~.~._.~.~.W.W.W.W.U.U.U.L.L.L.G.G.G.A.A.A.A.C.C.C.C.C.A.C.A.A.G.G.G.G.L.G.L.U.U.U.U.W.",
"U.W.W.~.~.~.~.~.W.W.U.U.L.L.L.G.G.G.A.A.A.C.M.M.M.M.M.c.k.k.k.k.d.a.d.a.y.y.y.y.y.q.q.q.6.6.4.4.>.>.>.>.=.=.=.&.&.@.@.X.X.X.{ { { { ` ` ` ( E E E E E Y Y P P P H H S S C C C C C S S S H H H P P Y Y Y E E E ( ( ( ` ` ` { { { ` ` ( ( ( E E Y Y Y Y Y P H H H H S S S C C C C S S S H P P P Y Y Y Y E E ( ( ( ` ` ` { { { X.X.X.X.@.@.&.&.&.=.=.=.>.4.>.4.6.6.6.q.q.q.q.y.y.a.a.a.a.d.k.k.k.c.c.c.c.M.C.M.C.C.A.A.A.A.G.L.L.L.U.U.U.W.W.~.~.~.~.W.W.W.U.U.L.L.L.G.G.G.A.A.C.C.C.M.M.M.c.c.c.c.M.c.M.M.C.C.C.A.A.A.G.L.L.L.U.U.",
"L.L.U.U.U.W.U.U.L.L.L.L.G.G.G.A.A.C.C.C.C.M.M.c.c.k.k.k.k.k.d.d.d.a.a.a.y.y.q.q.q.6.q.6.4.4.4.4.4.>.>.>.=.=.=.&.&.@.@.@.X.X.X.X.{ { { ` ` ` ` ( ( ( ( E E Y Y P P P P H H H H S S H H P P P Y Y Y Y E E ( ( ( ( ` ` ` ` { { X.{ { ` ` ` ( ( ` ( ( E E Y Y Y P P P H H H S S H H H H P P Y Y Y Y E E ( E ( ( ` ` ` { { { { X.X.X.@.@.@.&.&.&.=.=.=.>.>.4.>.4.4.4.6.6.q.q.q.y.q.y.y.a.a.a.d.d.d.d.k.k.k.c.c.M.M.M.C.C.C.C.A.A.G.G.G.G.L.L.U.U.U.U.U.U.L.L.L.L.G.G.A.A.A.C.C.M.M.M.M.c.c.k.c.k.d.k.k.c.c.M.c.M.M.M.C.A.A.A.A.G.G.L.",
"L.L.L.U.U.W.U.U.L.L.L.G.G.A.A.A.M.C.M.c.M.c.k.k.k.k.d.a.a.y.y.y.y.q.q.q.6.6.4.4.>.>.=.>.=.=.&.@.&.@.@.X.X.X.{ { ` ` ` ( ( E E E Y Y Y P P H H S S C C C C M M v v v l l g g g u g g l l l l v v M C C C S S S H H H P P Y Y Y Y P P P P H S S S S C M M M v v v l l l g u g g g l l l v v v M C C C S S S H H H P P Y Y Y E E ( ( ( ( ` ` X.{ X.X.X.@.@.@.&.&.=.=.>.>.>.>.4.4.6.6.q.q.y.q.y.y.a.a.d.d.k.k.k.c.c.c.M.M.C.C.C.A.A.G.G.L.L.U.U.W.U.U.L.L.L.G.G.G.A.A.A.C.M.M.c.c.c.k.k.k.d.d.d.a.a.d.k.k.k.k.c.M.M.M.M.C.C.A.A.G.G.",
"G.L.U.U.U.W.U.U.L.L.G.G.G.A.C.C.C.M.c.c.k.k.k.d.d.a.a.a.y.y.q.q.6.4.4.4.4.>.>.=.=.&.&.@.@.X.X.{ { ` ` ( ( E E E Y Y P P H H H H C C C M M v v l l g g g u y y y w w w 6 6 2 2 2 2 2 6 w w w y y u u u g g l v l v M M M C C S S C M M v v l l g g g u u y y w w 6 6 6 6 2 < 2 2 6 6 w w w y u u u g g g l l v v M M C C S S H P P P Y Y E E E ( ` ` ` ` { X.X.X.@.&.&.&.=.=.>.>.>.4.6.6.6.q.q.y.y.y.a.a.d.d.k.k.c.c.c.M.C.C.A.A.G.G.L.L.U.U.U.U.W.U.L.L.G.G.G.A.C.C.M.M.M.c.k.k.k.d.a.a.a.a.y.a.a.d.d.d.k.k.c.c.c.M.C.A.A.A.G.L.",
"U.U.U.W.W.W.W.W.W.U.U.L.L.L.G.G.G.G.A.C.A.C.C.C.M.M.c.c.c.c.c.k.k.k.d.d.a.a.a.y.a.y.y.y.q.q.q.q.6.6.4.4.4.4.4.>.>.>.=.=.&.&.&.&.@.@.@.X.X.X.{ X.{ { ` ` ` ` ` ( ( ( E E E Y Y Y E E E E E ( ( ( ` { ` { ` { { X.X.X.X.@.@.@.@.@.@.X.X.X.X.{ { { { ` ` ` ` ( ( ( E E E E Y Y Y Y E E ( E ( ( ` ` ` { { { { X.X.X.X.@.@.@.@.&.&.&.&.=.>.>.>.4.>.4.4.6.6.6.6.q.q.y.q.y.y.a.a.a.a.a.d.d.k.k.k.k.c.c.c.M.M.M.M.C.C.C.A.A.G.G.G.G.L.L.L.U.U.U.U.W.W.W.W.W.U.U.U.L.L.L.G.G.G.G.A.A.C.C.C.M.M.M.c.c.c.c.M.M.C.M.C.C.A.A.A.G.G.G.G.L.L.L.",
"U.U.U.W.W.W.W.U.U.U.U.L.L.L.G.G.A.A.A.C.C.C.M.M.c.M.c.c.k.k.k.d.k.d.d.a.a.y.a.y.y.q.q.6.q.6.6.4.4.4.4.>.>.>.=.=.=.=.&.&.@.@.@.X.X.X.{ { { ` ` ` ` ` ( E ( E E Y Y P Y P P H P H P H P Y Y Y Y E E E E ( ( ( ` ` { ` { { { X.X.X.X.{ { { ` ` ( ( ( ( ( E E Y Y P Y P P P H H P P P P Y Y Y Y E E ( E ( ( ` ` ` ` { { { X.X.X.@.@.@.&.&.&.=.=.>.>.>.>.4.4.4.6.6.6.6.q.q.q.y.y.y.a.a.d.d.d.k.k.k.k.k.c.c.c.M.M.M.C.C.A.A.A.G.G.G.L.L.U.U.U.U.W.W.W.W.U.W.U.L.L.L.G.G.G.A.A.A.C.C.C.M.M.M.c.c.c.c.c.c.c.M.M.M.C.C.A.A.A.G.G.G.L.L.L.",
"U.U.W.W.~.~.~.W.W.U.U.L.L.L.G.G.A.A.C.M.M.M.c.c.k.k.k.d.d.d.a.a.y.q.q.q.6.4.4.4.4.>.>.=.=.=.&.&.@.X.X.X.{ { { ` ( ( ( E E E Y Y P P H H S S S C C M M v v v l g g g u u y y w w y y u u u g l l l v v v M C C C S H H H H P P P H H H S S S C M M v v v l g g g u u y y w w y y u u u g g l l v v v M M C C C S H H H P P Y Y E E E ( ( ` ` ` { { X.X.@.&.&.&.=.=.>.>.>.4.4.4.6.q.q.q.y.y.y.a.a.d.d.k.k.c.c.M.M.M.M.C.C.A.A.G.L.L.U.U.W.W.W.~.~.~.W.W.U.U.U.L.G.G.A.A.C.C.M.M.M.c.c.c.k.k.d.d.k.d.k.c.c.M.M.M.M.C.C.A.G.G.G.L.U.",
"L.L.L.U.U.W.U.U.U.L.L.G.G.G.A.A.C.C.M.M.M.c.c.c.c.k.k.d.d.d.a.a.a.y.y.q.y.q.q.6.6.6.6.4.4.>.=.=.=.=.&.&.@.@.@.X.X.X.{ { { { ` ` ( ( ( E E E Y Y P P P H H H S S S C S M M M v M v M C C S C S S S H P P P P Y Y E E E ( ( ( ( ( E ( E E Y Y Y P P H H H S S S C C C M M M v v M C C S C S S S H H H P P Y Y Y E E ( ( ( ( ` ` { { { X.X.X.X.@.&.&.&.&.&.=.=.=.>.4.4.4.4.6.6.6.q.q.q.y.y.a.a.a.d.d.k.k.k.k.c.c.c.M.M.C.C.A.A.A.G.G.G.L.L.L.U.U.W.U.U.L.L.L.G.G.A.A.C.C.C.M.M.c.c.c.c.k.k.k.d.d.d.k.k.c.c.c.c.M.M.M.C.C.A.A.G.G.G.",
"L.U.U.U.U.W.W.U.U.L.L.G.G.G.G.G.A.A.C.C.M.M.M.c.c.c.k.c.k.k.d.d.a.a.a.y.y.y.y.q.q.6.6.6.4.4.4.4.>.4.=.>.=.=.&.&.&.&.@.@.X.X.X.{ { { { ` ` ` ` ` ( ( E E E Y Y P P P H P H H S S S H H P P P P Y Y E E E ( ( ( ( ` ` ` ` { { X.{ { ` ` ` ` ` ( E E ( E Y Y Y Y P P H S H S S S H H H P P P Y Y E E E E ( ( ( ` ` ` ` { { { X.X.X.@.@.@.&.&.&.&.=.=.>.>.>.4.4.4.4.6.6.q.q.q.y.y.y.a.y.a.a.a.d.k.k.k.k.c.c.c.M.M.M.M.C.C.C.A.A.G.G.G.L.L.L.U.U.W.U.W.U.U.L.L.G.G.G.G.A.A.C.C.M.M.M.c.M.c.k.k.k.k.k.c.c.c.c.M.M.M.M.C.C.A.A.G.G.G.L.",
"L.L.U.U.W.W.U.U.U.L.L.L.G.G.A.A.C.C.C.M.M.M.M.c.c.k.c.k.k.d.d.d.a.a.y.y.y.q.q.q.q.6.4.4.4.4.4.>.>.=.=.=.&.&.@.@.X.X.X.{ X.{ { { ` ( ( ( ( E E E Y Y Y Y P H P H S S C C C C C M M C C S S S H H H P P Y Y Y Y E E E ( ( ( ` ` ` ` ( ( E E E E Y Y P P P H H H S S S C C C M M C C C S S H H H H Y P Y Y E E E ( ( ( ( ` ` ` { { { X.X.X.@.@.@.&.=.=.=.>.>.>.>.4.4.6.6.6.6.q.q.q.y.y.y.a.a.d.d.d.k.k.k.c.c.c.c.M.M.C.C.C.A.A.G.G.L.L.L.L.U.U.W.W.U.U.U.L.L.G.L.G.G.A.C.C.C.M.M.M.c.c.c.c.k.k.k.k.k.c.c.c.c.M.M.C.C.C.A.A.G.G.G.L.",
"L.L.L.U.U.U.U.U.L.L.L.G.G.A.A.C.C.C.C.M.c.c.c.c.k.k.d.d.d.d.a.a.y.a.y.q.q.q.q.6.6.4.4.4.4.>.>.=.=.=.&.&.@.&.@.@.X.X.{ { { ` ` ` ( ( ( ( ( E E E Y Y P P P H H H S S C C C M M M C C C C S S S H H P P P P P Y E E E ( ( ( ` ` ` ( ( ( E E Y Y Y P P P H H H S S C C C M M M M M C C C S S H H P P P Y Y Y E E E E ( ( ` ` ` { { { { X.X.@.@.@.@.&.&.&.=.=.>.>.4.>.4.4.4.6.6.q.q.q.y.y.y.y.a.a.d.d.d.k.k.c.k.c.M.M.M.M.C.C.A.A.G.G.G.L.L.L.U.U.U.U.L.L.L.G.G.G.A.A.A.C.C.C.M.c.c.c.c.k.k.k.d.d.d.k.k.k.c.c.M.M.M.C.C.C.A.A.G.G.G.",
"U.U.W.W.W.~.~.W.W.U.U.U.L.L.L.L.G.A.A.A.A.C.C.C.M.M.M.c.c.k.k.k.d.d.d.d.a.a.y.y.y.y.q.6.q.6.6.6.4.4.4.>.>.=.=.=.&.&.&.&.@.@.@.X.X.{ { { ` ` ` ` ( ( ( E E E Y Y Y P P H P H S S S H P H P P Y Y E E E E ( ( ` ` ` { { { { { X.{ { { ` ` ` ` ( ( ( E E E Y Y P P P P H H S S H H H P P Y Y Y Y E E E E ( ` ` ` { { { { X.X.X.X.@.@.&.&.&.=.=.=.>.>.4.4.4.4.4.6.6.q.q.q.y.y.y.a.a.a.d.d.d.k.k.k.c.c.c.M.M.M.C.C.C.A.A.G.G.G.L.L.L.U.U.U.U.W.W.~.~.~.W.W.U.U.U.U.L.G.G.G.A.A.G.A.C.C.M.M.M.c.c.c.M.c.M.M.C.C.C.A.A.A.A.G.L.L.L.U.L.",
"W.W.~.~.~.~.~.~.W.W.W.W.U.U.U.L.L.L.L.G.G.A.A.A.A.C.C.C.C.M.M.M.M.c.c.c.c.k.k.k.k.d.d.d.d.d.a.a.a.a.y.y.y.q.q.q.q.6.6.6.6.4.4.4.>.4.>.>.>.>.=.=.&.=.&.&.&.@.@.@.X.X.X.X.{ { { { { { X.X.X.X.@.@.@.&.&.&.&.=.=.=.>.>.>.>.>.4.4.>.>.>.>.>.>.=.=.=.&.&.@.@.@.@.X.@.X.X.{ X.{ { { { X.X.X.X.@.@.@.@.&.&.&.=.=.=.>.>.>.>.>.>.4.4.4.4.4.6.6.6.q.q.q.q.y.y.y.a.a.a.a.d.d.d.d.k.k.k.c.k.c.c.M.M.M.C.M.C.C.A.A.A.A.A.A.G.G.L.L.L.L.U.U.U.U.W.W.W.W.~.~.~.~.W.W.W.W.W.U.U.U.L.L.L.G.G.G.A.A.A.C.C.C.C.C.C.C.C.A.A.A.G.G.G.G.L.L.U.U.U.U.W.",
"U.W.W.~.~.~.~.~.W.W.U.U.U.U.L.G.G.G.A.A.A.C.C.M.M.M.c.c.k.k.k.d.d.a.a.a.y.y.y.q.q.q.q.6.4.4.>.>.>.=.=.=.&.&.&.@.@.@.X.X.{ { ` ` ` ` ` E ( E Y Y Y P P H H H S S S C C M M M v v M M M M C C S S H H P P P Y Y Y E E E ( ( ( ` ( ( ( ( E E Y Y P P P H H H S S C C M M M M v v M M M C S S S S H P P P P Y Y E E E ( ( ( ` ` { { X.X.X.X.@.@.&.&.&.=.=.=.>.4.>.4.6.6.6.q.q.q.y.y.y.a.a.a.d.d.d.k.k.c.c.c.M.M.C.C.A.A.A.G.G.L.L.L.U.U.W.W.W.~.~._.~.~.W.W.U.U.U.L.L.G.G.G.A.A.C.C.C.M.c.M.c.c.k.k.c.M.M.M.M.C.A.A.A.G.G.L.L.L.U.U.",
"U.U.W.W.W.~.W.W.W.U.U.L.L.L.G.G.G.A.A.A.C.C.M.M.M.c.c.c.k.k.k.d.d.d.a.a.a.y.y.q.q.q.6.6.6.6.4.4.4.>.>.=.=.=.&.&.@.@.@.@.X.X.X.{ { ` ` ` ` ( ( ( E E E Y Y P P P H H S S S S C C C S S S H H H P P Y Y E E E ( ( ( ( ` ` { { { { ` ` ` ( ( ( E E E Y Y P P P H H S S S S S C S S S H H H H P P P Y Y E E E ( ( ( ` ` ` { { X.X.X.X.@.@.@.&.&.=.=.=.=.>.>.>.4.4.6.6.q.q.q.q.y.y.y.a.a.a.d.d.k.k.k.c.c.c.M.M.M.M.C.C.C.A.A.G.G.G.L.U.U.U.U.W.W.W.W.W.W.W.U.U.L.L.L.G.G.G.A.A.A.C.M.M.M.c.c.c.c.c.c.c.M.c.M.M.C.C.C.A.G.G.G.G.L.L.L.",
"L.L.L.U.U.W.U.U.U.L.L.L.G.A.A.A.C.M.M.M.c.c.k.k.k.d.d.a.a.y.y.y.y.q.q.6.6.4.4.4.4.>.>.=.=.=.@.&.@.X.@.X.{ { ` ` ` ( ( E E E Y Y Y P P H H S S S C C C M M v v l l l g g u g y y u u g g l l l v v v M M C C C S S H H H P P Y P P H H S S S S C C M M v v l l l g g u y y y u u u g g l l v v v M M C C S S S H H P P P P Y E Y ( E ( ( ` ` ` { X.X.@.@.@.@.&.&.=.=.=.>.4.>.4.4.6.6.q.q.q.y.y.y.a.a.d.d.k.k.c.c.c.M.M.C.C.A.A.G.G.G.L.U.U.U.U.W.U.U.U.L.L.G.G.A.A.A.C.C.M.c.c.c.k.k.k.d.d.d.a.a.d.d.k.k.k.c.c.M.M.C.C.A.A.G.G.G.",
"U.W.W.W.~.~.W.W.W.W.L.U.L.L.G.G.G.A.C.C.C.C.M.M.M.c.c.c.k.k.k.d.a.d.a.a.y.y.q.q.q.6.6.6.4.4.4.>.=.>.=.=.=.&.&.@.@.@.X.X.{ X.{ { ` ` ` ( ( ( E E E Y P Y P H P H S S S C C C C M C C C C S S H H H P P Y Y E E E ( ( ( ( ` ` ` ` ` ` ( ( E E E Y Y P P P P H H S S S C C M M C C C S S S S H H P P Y Y E E E E ( ( ` ` ` { { { X.X.X.X.@.@.&.&.&.=.=.=.>.>.4.4.4.6.6.q.q.q.q.y.y.a.a.a.d.d.d.k.k.k.c.c.M.M.M.M.C.A.A.A.A.G.G.G.L.U.U.U.U.W.W.W.~.W.W.W.U.U.U.L.L.G.G.G.A.A.A.C.C.M.M.M.c.c.k.k.c.c.c.M.M.M.C.A.A.C.G.G.G.L.L.L.U.",
"W.W.W.~.~.~.~.W.W.W.U.W.W.U.U.L.L.L.L.G.G.G.A.A.A.A.C.C.C.C.M.M.M.c.c.c.c.c.c.k.k.k.k.k.d.d.a.a.a.a.y.y.y.y.y.q.q.6.q.6.6.4.6.4.4.4.>.4.>.>.>.=.=.=.&.&.&.&.@.@.@.X.@.X.X.X.{ { { X.X.X.X.@.@.@.@.&.&.&.=.=.=.>.=.>.>.>.>.4.4.4.>.>.>.>.>.>.=.=.&.&.&.&.@.@.@.X.X.X.X.X.{ { X.{ X.X.X.@.@.@.&.&.&.&.=.=.=.=.>.>.>.>.>.4.4.4.4.6.6.q.6.q.q.q.q.y.y.y.y.a.a.a.d.d.d.d.k.k.k.k.c.k.c.c.c.M.M.M.C.C.C.C.C.A.A.A.G.G.G.G.L.L.L.U.U.U.U.U.W.~.W.~.~.~.~.~.W.W.W.U.U.U.U.L.L.L.L.G.G.A.G.A.A.A.C.C.C.C.A.A.A.G.A.G.G.G.G.L.L.L.U.U.U.W.",
"A.G.G.L.L.U.L.L.L.G.G.A.A.A.A.C.C.M.M.c.c.c.k.k.d.k.d.d.a.a.y.y.y.q.q.q.6.6.6.4.4.4.>.>.>.=.=.&.&.&.&.@.@.X.X.{ { { ` { ` ( ` ( ( E E Y Y Y Y P P P H H S S S C C M M M v v v v v v M M M C C C S S H H P P P Y Y Y Y E E ( ( E E E E Y Y P P P H H H S S C C C M M v v v v v v v M M M C C S S H H H P P Y Y Y E E E E E ( ( ` ` ` { { { X.X.@.@.@.&.&.=.=.=.=.>.>.4.4.4.6.6.6.q.q.q.q.y.y.a.a.a.d.d.d.k.k.k.c.c.M.M.M.M.C.A.A.G.G.G.G.L.L.U.U.L.L.L.G.G.G.A.A.C.C.M.M.M.c.c.c.k.k.d.k.d.d.d.d.d.k.k.k.k.c.c.c.M.C.M.C.C.A.A.G.",
"U.W.W.W.W.~.W.W.U.U.U.L.L.L.G.G.A.A.C.C.C.M.M.M.M.c.c.c.k.d.k.d.d.a.a.y.y.y.y.q.q.6.6.6.4.4.4.4.=.>.=.&.&.&.@.@.@.@.X.X.X.{ { ` ` ( ` ( ( ( E E Y Y Y P P H H H S S C C M M M M M C C C S S H H H P P P P Y Y E E ( ( ( ` ` ` ( ` ( ( E E E E Y Y P P H H H S S C C C C M M M M C C S S S H H P P P P Y Y E E ( ( ( ` ( ` { { { { X.X.@.@.@.@.&.&.=.=.=.>.>.4.4.6.6.6.6.q.q.y.y.y.y.a.a.d.d.d.k.k.k.c.c.M.M.M.M.C.C.A.A.G.A.G.L.L.L.U.U.W.W.W.~.W.W.U.U.U.L.L.L.G.G.A.A.C.C.C.M.M.M.c.c.c.k.k.c.c.c.M.c.M.M.C.C.C.A.A.G.G.L.L.L.",
"G.G.L.L.U.U.U.L.L.L.G.G.A.A.A.C.C.C.M.M.c.c.c.k.k.k.d.d.d.d.a.y.y.y.q.q.q.q.6.6.6.4.4.4.>.>.>.=.=.=.&.&.&.@.@.X.X.{ { { { ` ` ( ` ( ( E E E E Y Y P P P P H H S S C C C M M v M M M C C C S S H H H P P P Y Y Y E E ( E ( ( ( ( ( E E E E Y Y Y P P P H S S S S C C M M M M M M C C S S S H H H P P P Y Y Y E E E ( ( ( ` ` ` { { { { X.X.X.@.@.@.&.=.=.=.>.>.>.>.4.4.6.6.6.6.q.q.q.y.y.y.a.a.a.d.d.k.k.k.c.c.c.c.M.M.C.C.C.A.A.G.G.G.L.L.L.U.U.L.L.L.L.G.G.A.A.C.C.C.C.M.c.c.c.k.k.k.d.d.d.d.d.k.k.k.k.c.c.c.M.M.M.C.C.A.A.A.G.",
"U.U.U.W.W.W.W.W.U.U.U.U.L.G.G.G.A.A.C.C.C.M.M.M.c.c.c.c.k.k.d.k.d.a.a.a.y.y.q.y.q.q.6.6.6.4.4.>.4.>.>.=.=.&.&.&.&.@.@.X.X.X.X.{ { { ` ` ` ( ( ( E E E Y Y Y P P H H H H S C C C C S S S H H H P P Y Y Y E E ( ( ( ( ` ` ` { { { ` ` ` ` ` ( E E E Y Y Y P P P H H S S C C C C S S S H H H P P Y Y Y E E ( E ( ( ` ` { ` { { { X.X.@.@.@.&.&.=.=.=.>.>.>.>.4.4.6.6.6.6.q.y.q.y.y.y.a.a.d.d.d.k.k.c.c.c.c.c.M.M.C.C.A.C.A.A.G.G.L.L.L.U.U.U.W.W.W.W.U.U.U.U.L.L.G.G.A.A.A.C.C.C.M.M.M.M.c.c.c.k.k.c.c.c.M.M.M.C.C.C.A.A.G.G.L.L.L.",
"W.~.~.~._._._._.~.W.W.W.U.U.U.L.L.G.G.A.A.A.C.C.C.C.M.M.M.c.c.k.k.d.d.d.d.a.a.y.y.y.q.q.q.6.6.6.4.4.>.>.>.>.=.&.&.&.@.@.X.X.X.{ { { { ` ` ` ( ( ( E E E Y Y P P P H H S S S C C S S S S H P P P Y Y Y E E ( ( ( ` ` ` ` { { X.{ { { ` ` ` ( E ( E Y Y Y Y P P H H H S S C C C S S S H H P P Y Y Y E E E ( ( ` ` ` ` { { X.X.X.X.@.@.&.&.&.=.=.=.>.>.4.4.4.6.6.q.q.q.y.y.y.y.a.a.d.d.k.k.k.k.c.c.c.M.M.M.C.C.A.A.A.G.G.G.L.L.U.U.U.W.W.~.~.~._._.~._.~.W.W.W.W.U.U.L.L.G.G.G.A.A.C.C.C.M.M.M.M.M.M.M.C.C.C.A.G.G.G.L.L.L.U.U.W.W.",
"L.L.U.U.U.U.U.U.L.L.L.G.G.G.A.A.A.C.C.M.M.M.c.c.k.k.d.k.d.d.a.a.a.a.y.q.q.q.q.6.6.6.4.4.4.>.>.>.=.=.=.&.@.@.@.@.X.X.X.{ { { ` ` ( ( ( E E E E Y P Y P P H H H S S S C C M M v M M M C C C S S H H H P P P P Y E E E E ( ( ( ( ( ( E ( E Y Y Y Y P P P H H S S S C C M M M v M M M C C C S S H H P P P Y Y Y E E E ( ( ( ` ` ` { { { { X.X.@.@.&.&.=.=.=.=.=.>.>.>.4.4.4.6.6.6.q.y.q.y.y.a.a.a.d.d.k.k.k.k.c.M.M.M.C.C.C.A.A.G.G.G.L.L.U.U.U.U.U.U.U.L.L.L.G.G.A.A.A.A.C.C.M.M.M.c.c.k.k.k.d.d.k.k.k.k.c.c.M.M.M.C.C.A.A.A.G.G.G.",
"L.U.U.W.W.W.U.U.U.U.U.L.L.G.G.A.A.A.C.C.C.M.M.M.c.c.k.k.d.d.a.a.a.a.y.y.y.q.q.6.6.6.6.6.4.4.>.>.>.=.=.=.&.&.@.@.@.X.X.X.{ { { { ` ` ` ( ( E ( E Y Y Y P P H H H S S S C C C M M M C C C S S S H H P P P Y Y E E E ( ( ` ` ` ` ` ( ( ( E E E Y Y Y Y P H H H S S S C C C C M M C C C S S S H P H P P Y Y E E E ( ( ( ( ` ` ` { { { X.X.X.@.@.@.&.&.=.=.=.>.>.4.4.6.6.6.6.q.q.q.y.y.y.a.a.d.d.d.d.k.k.c.c.c.M.M.M.C.C.C.A.A.G.G.G.L.L.L.U.U.W.W.W.W.U.U.U.L.G.G.G.G.A.A.A.C.C.M.M.M.c.c.c.k.k.k.k.c.c.c.c.M.M.M.C.C.A.A.G.G.G.G.L.",
"~.~.~.~._._._._._.~.~.W.W.W.W.U.U.L.L.L.L.G.G.G.G.A.A.A.A.A.C.C.M.M.c.M.c.c.c.c.k.k.k.d.d.d.a.a.a.y.a.y.y.q.q.q.6.q.6.6.6.4.4.4.4.>.>.>.>.=.=.=.&.&.&.&.@.@.@.X.X.X.{ X.{ { ` { { { { X.X.X.X.X.@.@.@.&.&.=.&.=.=.>.>.>.>.>.4.>.>.=.>.>.>.=.&.&.&.&.@.@.@.X.@.X.X.{ { { ` { ` { { X.X.X.X.X.@.@.@.@.&.&.=.=.>.=.>.>.>.>.4.4.4.6.6.6.q.6.q.q.q.y.y.y.y.a.a.a.d.d.d.k.k.k.k.c.c.c.c.M.M.c.M.C.C.C.A.A.A.G.A.G.G.L.G.L.U.U.U.W.U.W.W.W.~.~.~._._._._._.~.~.~.W.W.W.W.U.U.U.L.L.G.G.G.G.G.A.A.A.C.A.A.A.G.G.G.L.G.L.L.L.U.U.W.W.W.~.",
"G.G.L.L.U.U.L.L.L.G.G.A.A.A.C.M.M.M.c.c.c.k.k.d.d.d.a.y.y.q.q.q.6.6.6.4.4.>.>.>.=.=.=.&.@.@.@.X.X.{ { ` ` ` ( ( ( E E Y Y P P P H H H S S C C M M v v l l l g g g u u y y w w w w y y y u u g g l l l v v M M M C C S S H P H H H S S C C M M M v v l l l g u u u u y y w w w w y y u u g g g l l v v M M C C C S S H H P P P Y Y E E E ( ( ` ` ` { { { X.X.@.@.&.&.&.=.>.>.>.>.4.4.6.6.q.q.q.y.y.a.a.a.d.d.k.k.c.c.c.M.M.M.C.C.A.A.G.G.L.L.U.U.L.L.L.G.G.A.A.A.M.M.M.c.M.c.k.k.k.d.d.d.a.y.y.y.a.d.d.d.k.k.c.c.c.M.M.C.C.A.A.A.",
"G.L.L.L.U.U.U.L.L.G.G.G.A.A.A.C.C.M.M.c.c.c.k.k.k.d.d.d.a.a.a.y.y.y.q.q.6.q.6.6.4.>.4.>.>.=.=.&.&.&.@.@.X.@.X.X.{ { { ` ` ` ( ( ( E E Y Y P P P P H H S S C C C C M M M v l l l l v v v C M C C C S S H H H P P Y Y Y E E E ( E E E Y Y P P H H H S S S C S C M M M v v l l v v v M C M C C C S S H H H H P P P Y Y E E ( ( ( ` ` { ` { { X.X.@.@.@.&.&.&.=.=.=.=.>.>.4.4.6.6.q.6.q.q.y.y.a.y.a.d.d.d.d.k.k.c.c.c.M.M.C.C.C.C.A.G.G.G.L.L.L.U.U.L.L.L.G.G.G.A.A.C.C.C.C.M.c.c.c.k.k.k.d.d.d.a.d.k.d.k.k.c.c.c.M.M.M.M.C.C.A.A.G.",
"U.U.W.W.W.~.W.W.W.U.U.U.U.L.L.L.L.G.A.G.A.A.C.C.C.C.C.M.M.c.M.c.c.c.k.k.k.k.k.d.a.a.a.a.a.y.y.q.q.q.q.q.6.q.6.4.4.4.4.4.>.>.=.=.=.=.&.&.&.@.@.@.@.X.X.X.X.X.{ { ` ` ` ` ( ( ( ( ( ` ` ` ` { { { X.{ X.X.@.X.@.@.@.&.&.=.=.=.=.=.&.&.&.&.@.@.@.X.X.X.X.{ { { { { ` ` ( ( ( E ( ( ` ` ` { { { { { X.X.X.@.@.@.@.&.&.&.=.=.=.>.>.>.>.4.>.4.4.6.6.6.6.q.q.q.q.y.y.a.a.a.a.d.d.d.k.d.k.k.c.k.c.c.c.M.M.M.C.C.C.A.A.A.G.G.A.G.L.L.L.L.U.U.U.W.W.W.W.W.W.W.W.U.U.U.U.L.L.G.G.G.G.A.A.A.C.C.C.C.M.M.M.M.M.M.C.C.C.A.A.G.A.G.G.L.L.L.U.U.",
"W.W.W.W.~.~.~.W.W.W.U.W.U.U.L.L.L.G.G.G.G.A.C.C.C.C.M.M.M.M.c.c.c.k.c.k.d.k.d.d.a.a.a.y.y.y.y.y.y.q.6.q.6.6.6.6.4.4.>.4.>.>.>.>.=.&.&.&.@.&.@.@.X.X.X.X.{ { ` { ` ` ( ( ( ( ( E E ( ( ` ` ` ` { { { { X.X.X.X.@.@.@.&.&.=.=.=.=.&.&.&.@.@.@.X.X.X.X.{ { { ` ` ` ( ( ( ( E ( ( ( ( ( ` ` ` { { { { { X.X.X.@.@.&.&.&.&.=.=.=.>.>.>.4.4.4.4.6.6.6.6.q.q.q.y.q.y.y.y.a.a.d.d.d.d.d.k.k.k.c.c.c.c.M.M.M.M.C.A.A.A.A.G.G.G.G.L.L.U.L.U.U.W.W.~.W.~.~.~.W.W.W.W.U.U.L.L.L.L.G.G.G.G.A.C.C.C.C.M.M.M.M.C.C.C.C.A.A.G.G.G.L.L.L.U.U.U.U.",
"U.W.W.W.W.~.W.W.W.U.U.L.L.L.L.G.G.G.C.A.C.C.C.M.M.M.M.M.c.k.k.k.k.k.d.d.a.a.a.a.y.y.y.q.6.q.6.6.6.6.4.4.4.>.>.=.=.=.&.&.&.@.&.@.@.X.X.{ { { { { ` ` ( ( ( ( ( E E E Y Y P P P P P P P Y Y E E ( E ( ( ( ` ` { { { { X.{ X.X.@.X.X.X.X.{ { { ` ` ` ` ( ( E E E E Y Y P P P P P P P Y Y E E E ( ( ( ( ` ` { { X.{ { X.X.X.@.@.@.@.&.=.=.=.=.>.>.>.4.4.4.6.6.6.q.q.q.q.y.y.y.y.a.a.d.d.d.d.k.k.k.c.c.c.c.M.C.C.C.C.A.A.A.G.G.G.L.L.U.U.U.W.W.W.W.W.W.W.U.U.U.U.L.L.L.L.G.G.A.A.C.C.M.C.M.M.c.c.c.c.M.M.M.M.C.C.A.A.A.G.G.G.L.L.L.U.",
"L.L.U.U.U.W.U.U.U.L.L.L.G.G.A.G.C.C.C.C.M.M.c.c.k.c.k.d.k.d.d.d.a.y.y.y.y.q.q.6.6.6.4.4.4.4.4.>.=.=.&.=.&.&.&.@.X.@.X.X.{ { ` ` ` ( ( ( E ( E Y Y Y Y P H H H H H S S S C M M M M C C S S S H H H P P Y P Y Y E E ( ( ( ( ` ` ` ( E ( E E E Y Y Y P P H P H H S S S C C M M M C C S S S H H H H P P P Y Y Y E E ( ( ( ` ` ` { { { { X.X.@.@.&.&.&.&.=.=.>.>.4.>.4.4.6.6.6.q.q.q.y.y.a.a.a.d.d.d.d.k.k.c.c.c.c.c.M.M.C.A.A.A.G.G.G.L.L.U.U.U.U.W.W.U.U.L.L.L.G.G.A.A.A.C.C.M.M.M.c.c.c.k.k.k.k.k.k.k.c.c.c.M.M.M.C.A.A.A.A.G.G.L.",
"U.U.W.W.W.W.W.W.W.U.U.L.U.L.G.G.G.A.A.C.C.C.C.M.M.c.M.c.c.k.k.d.d.d.d.a.a.y.y.y.y.q.q.q.q.6.6.6.4.4.>.>.=.>.=.&.&.&.&.@.@.@.X.X.X.{ X.{ { ` ` ` ` ( E ( E E Y Y P P P P H H H S H H H P P Y Y Y Y E E E ( ( ` ` ` ` { { X.X.X.X.{ { { { ` ` ` ( ( E E E Y Y Y P P P H H H S H H H H P P Y Y E E E ( ( ( ` ` ` ` ` { X.X.X.X.@.@.@.&.&.&.=.=.=.>.>.>.4.4.6.6.6.6.q.q.q.y.y.y.a.a.a.a.d.d.k.k.k.c.c.c.M.M.M.C.C.C.C.A.A.G.G.G.L.L.L.U.U.U.U.W.~.W.W.W.W.U.U.L.L.L.G.G.A.G.A.C.C.M.M.M.M.c.M.c.c.c.c.M.M.M.M.C.C.A.A.A.A.G.G.L.L.U.",
"L.L.U.U.U.W.W.U.U.L.L.L.G.G.A.A.C.C.C.M.c.M.c.k.c.k.d.d.a.d.a.a.a.y.y.q.q.q.6.6.4.4.4.>.>.>.=.=.&.&.&.@.@.X.X.X.X.{ ` ` ( ( ( ( ( E E Y Y Y P P H H H S S S C C C M v v v v l v l v v v M M C C S S H H H H P P Y Y Y Y E E E E E E Y Y P P P H H H S S S C M M M v v l l l l v v M M M C C C S S S S H P P P Y Y E E E E ( ( ` ` ` { { X.X.X.X.@.@.@.&.=.=.=.>.>.>.4.4.6.6.6.q.q.q.q.y.y.a.d.d.d.k.d.k.k.c.c.c.M.M.C.C.A.A.A.G.G.L.L.L.U.U.W.W.U.U.L.L.L.G.G.G.A.C.C.C.M.M.M.M.c.c.k.k.d.d.d.d.k.k.c.c.c.c.M.M.C.C.A.A.G.G.G.L.",
"U.W.U.W.W.W.W.W.W.U.U.U.L.L.L.L.G.G.G.A.A.C.C.C.M.M.M.c.c.c.c.c.k.k.k.d.d.d.d.a.a.a.a.y.y.q.q.q.q.q.6.6.6.6.4.4.4.>.>.=.=.=.=.=.&.&.&.@.@.@.@.X.X.{ X.{ { { { ` ` ( ( ( E ( E E E ( ( ( ( ` ` ` { { { X.{ X.X.X.@.@.@.&.&.&.&.&.&.@.@.@.@.X.X.X.X.X.{ { { ` ` ` ( ( ( E E E ( E ( ( ( ` ` ` { { { X.X.X.X.X.@.@.&.&.&.&.&.=.=.=.>.>.>.4.4.4.4.6.6.6.6.q.q.q.y.q.y.a.y.a.a.a.d.d.d.k.k.k.c.c.c.c.c.M.M.M.C.M.C.C.A.A.G.G.G.L.L.L.U.U.U.U.W.W.W.W.W.W.U.W.U.U.L.L.L.G.G.G.A.A.A.C.C.C.M.M.M.M.M.M.M.M.C.C.C.C.A.A.G.G.G.L.L.L.L.L.",
"U.U.U.W.W.~.W.W.U.U.U.L.L.L.G.G.G.A.A.A.C.C.M.M.M.c.c.c.c.k.k.d.k.d.a.a.a.a.y.y.q.q.q.6.q.6.4.4.4.>.4.>.>.=.=.=.&.&.&.@.@.@.X.X.X.{ { ` ` ` ( ( ( ( ( E E E Y Y P P P P H H H S H H H P P P Y Y Y E E E ( ( ( ( ` ` ` { { { X.X.{ { ` ` ( ( ( ( E E Y E Y Y P P P H H H H S H H H P P P P Y E Y E E E ( ( ( ` ` ` { { { X.X.@.X.@.@.&.&.=.=.=.=.>.>.4.4.4.4.6.6.6.6.q.q.y.y.y.a.a.a.d.d.d.d.k.k.c.c.c.c.M.M.M.C.C.A.A.A.G.G.G.L.L.U.U.U.U.W.~.W.W.W.U.U.U.L.L.L.G.G.G.A.A.A.C.C.M.M.M.c.c.k.k.c.c.c.M.M.M.C.C.C.A.A.G.G.G.L.L.U.",
"U.W.W.~.~.W.~.W.W.W.U.U.U.L.L.L.L.G.G.G.A.C.C.A.C.C.M.C.M.M.c.M.c.c.k.c.k.k.k.d.d.d.a.y.a.y.y.y.y.y.q.q.6.q.6.6.4.4.4.4.4.>.>.>.=.=.=.&.&.&.&.@.@.@.X.X.X.{ X.{ { { ` { ` ` ( ` ( ` ` ` ` { { { X.X.X.X.@.@.@.@.&.&.&.=.=.=.=.=.=.&.&.&.&.@.@.@.@.X.X.X.X.{ { { ` ` ` ` ` ( ` ` ` ` ` { { { X.X.X.@.@.@.@.@.@.&.&.&.=.=.>.>.>.>.>.4.4.4.6.6.6.q.q.q.y.q.y.y.a.y.a.a.a.d.d.d.k.k.k.k.c.c.c.M.M.M.M.M.C.C.C.C.A.A.G.G.G.G.L.L.L.U.U.U.W.W.W.W.~.~.W.W.W.W.U.U.U.L.U.L.G.G.G.G.A.A.C.C.C.C.C.M.M.M.C.C.C.C.A.A.G.G.G.G.L.L.L.U.U.U.",
"U.U.U.U.W.W.W.W.W.U.U.U.L.L.G.G.G.G.A.A.A.C.C.C.M.M.M.c.c.c.c.c.k.k.k.d.d.d.a.a.a.y.a.y.q.y.q.q.6.6.6.6.4.4.4.4.>.>.>.>.=.=.=.&.&.&.@.@.@.X.X.X.{ X.{ { { ` ` ` ` ( ( E E E E E E ( E ( ( ( ` ` ` ` { { { { X.X.X.@.@.@.&.&.&.&.@.@.@.X.X.X.{ { { { { ` ` ` ` ( ( ( ( E E E E E E ( ( ( ` ` ` ` ` { { { X.X.X.@.@.@.&.&.&.=.=.=.>.=.>.>.>.4.4.4.4.6.6.6.q.q.q.q.y.y.y.a.a.a.d.d.d.d.k.k.k.k.c.c.c.M.M.M.M.C.C.A.A.A.G.G.G.G.L.L.U.U.U.U.U.W.W.W.W.U.U.U.U.U.L.L.L.G.G.G.G.A.A.C.C.M.M.M.c.M.c.M.M.M.M.M.C.A.C.A.G.G.G.G.L.L.L.U.",
"U.U.W.W.~.W.W.W.W.U.U.U.U.L.L.L.G.G.G.A.A.A.C.M.C.M.M.M.M.c.c.c.c.k.k.d.d.d.d.d.a.y.y.y.y.y.q.q.q.q.6.6.6.6.4.4.>.>.>.=.>.=.=.=.&.&.&.@.@.@.X.X.X.X.{ { { { ` ` ` ( ( ( ( E E E ( E E ( ( ` ` ` { { { { X.{ X.@.X.@.@.@.&.&.&.&.&.@.@.@.X.X.X.X.{ X.{ { ` ` ` ` ( ( E E ( E E ( ( ( ( ( ` ` { { { { X.{ X.X.@.@.@.@.&.&.&.&.=.=.>.>.>.>.4.4.4.4.6.6.q.q.q.q.y.q.y.y.a.a.a.a.d.d.d.k.k.k.c.c.c.c.c.M.M.M.M.C.C.A.A.A.G.G.G.G.L.L.L.U.U.W.U.W.W.W.W.W.U.W.U.U.U.L.L.G.G.G.A.A.A.A.C.C.M.M.M.M.c.M.M.C.M.C.C.C.A.A.A.G.G.L.L.L.U.U.",
"U.U.U.U.U.W.W.U.U.U.L.L.L.G.G.G.A.A.A.C.M.C.M.M.c.c.c.k.k.k.d.d.a.d.a.a.a.y.y.q.q.q.q.6.6.6.4.4.4.>.>.>.=.=.=.&.&.&.&.@.@.X.X.X.{ { { ` ` ` ( ( ( E ( E E Y Y Y P P H H H H H H S H P P P P Y Y Y E E ( E ( ( ( ` ` ` { { { X.{ { { ` ` ` ( ( E E E E Y Y Y P P P H H H S S H H H H P P Y Y Y E E E E ( ( ( ( ` ` { { { X.X.@.X.@.@.&.&.&.&.=.=.>.>.>.4.4.4.4.6.6.q.6.q.q.y.y.y.a.a.a.a.d.d.k.k.k.c.c.c.c.M.M.M.C.A.A.A.A.G.G.G.L.L.L.U.U.U.W.W.W.U.U.L.L.L.L.G.G.A.A.A.C.C.C.M.M.M.c.c.k.c.k.k.k.c.c.M.M.M.C.C.A.A.A.G.G.G.L.L.",
"U.U.W.W.W.W.W.W.U.W.U.L.L.L.G.G.G.G.G.A.A.C.C.M.M.M.M.c.c.c.k.c.k.k.k.k.d.d.a.a.a.a.a.y.q.y.q.q.6.q.6.q.4.4.4.4.4.>.>.>.=.=.&.&.&.&.@.@.@.X.X.X.X.{ { { { ` ` ` ` ( ( ( ( E E E E ( ( ( ( ( ` ` { ` { { X.X.X.X.X.X.@.@.@.&.&.&.@.@.@.@.X.X.X.X.X.{ { { ` ` ` ` ( ` ( ( E E E ( ( ( ( ( ` ( ` ` { { X.X.X.X.X.@.@.@.&.&.&.&.=.=.=.>.>.>.4.4.4.6.6.6.6.6.6.q.y.q.y.y.y.a.a.a.d.d.d.k.k.k.c.c.c.c.c.M.M.C.C.C.C.A.A.A.A.G.G.L.L.L.L.U.U.W.W.W.W.W.W.U.U.U.U.L.L.L.L.G.G.G.A.A.C.C.M.C.M.M.M.c.c.M.M.M.M.C.C.C.A.G.A.G.G.G.L.L.L.L.",
"U.U.W.U.W.W.U.W.U.U.U.L.L.L.L.G.G.A.A.A.C.C.M.C.M.M.c.M.c.c.c.k.k.k.d.d.d.a.a.a.y.y.y.q.q.q.q.q.q.6.6.4.4.4.>.>.=.>.>.=.=.&.&.&.@.@.@.@.X.X.X.{ { { { ` ` ( ( ( ( E ( E E Y Y Y Y E E E E ( E ( ( ` ` { ` { { X.X.X.X.@.@.@.@.@.@.X.X.X.X.{ { { ` ` ` ` ( ( ( E E E Y Y E Y Y Y E E E ( ( ( ( ` ` { ` { { X.{ X.X.X.@.@.@.&.&.&.=.=.>.>.>.>.>.4.4.6.6.6.6.q.q.q.q.y.y.y.y.a.a.d.d.d.d.k.k.k.k.c.c.c.c.M.M.M.C.C.C.A.A.G.G.G.G.L.L.U.U.U.W.W.U.W.W.W.W.U.U.L.L.L.G.G.G.A.A.A.C.C.M.M.M.M.M.c.c.c.c.M.M.M.C.C.A.A.A.G.G.G.G.L.L.L.",
"W.W.W.W.~.~.W.W.W.W.W.W.U.U.U.L.L.L.L.G.G.A.A.A.A.A.C.M.C.M.M.M.M.M.c.c.c.c.k.k.d.d.k.d.a.a.d.a.a.y.y.y.y.q.q.q.q.q.q.6.6.6.6.4.4.>.>.>.>.=.=.=.=.&.&.&.&.@.@.@.@.@.X.X.X.{ X.X.X.X.X.{ X.@.@.@.@.&.&.&.&.=.=.=.>.=.>.>.>.4.>.4.>.>.>.>.>.=.=.&.&.&.&.@.@.@.@.X.X.{ X.X.X.{ X.X.X.X.X.X.@.@.@.&.&.&.&.&.=.=.=.>.>.>.4.>.4.4.6.6.6.6.q.6.q.q.q.q.y.y.y.a.a.a.a.a.d.d.d.k.k.k.c.k.c.c.c.M.M.M.M.C.C.C.C.C.A.A.A.G.L.G.G.L.L.U.U.U.U.W.W.W.W.W.~.~.W.W.W.W.W.U.U.U.U.L.L.L.L.G.G.G.A.A.A.A.C.M.C.C.C.C.C.A.A.G.G.G.L.L.L.L.U.U.U.U.",
"U.U.U.W.W.W.W.W.W.U.U.U.L.L.L.L.G.G.G.A.A.A.A.C.C.M.M.M.c.c.c.c.k.k.k.d.d.d.d.d.d.a.a.y.y.y.q.q.q.6.6.6.6.6.4.4.4.>.>.=.=.=.=.&.=.&.&.&.@.@.@.X.X.X.X.{ { ` { ` ` ( ( ( ( E E E E ( ( ( ( ` ` ` ` { { { { X.X.X.@.@.&.&.&.&.&.&.&.&.@.@.@.X.X.X.X.{ { { ` ` ` ` ( ( ( E E E E E E ( ` ( ` ` ` ` { { X.X.X.X.@.@.@.&.&.&.&.=.=.=.>.>.>.4.4.4.4.6.6.6.6.q.q.q.y.y.y.y.a.a.a.a.d.d.d.k.k.k.k.c.c.c.M.M.M.M.C.C.C.A.A.A.G.G.G.L.L.L.U.U.U.U.W.W.W.W.W.W.W.U.U.U.L.L.L.G.G.G.A.A.A.A.C.C.M.C.M.M.c.M.M.C.C.C.C.A.A.A.A.G.L.G.L.L.U.U.",
"U.U.W.W.~.~.W.W.W.U.U.U.U.L.L.L.L.G.G.G.G.A.C.A.C.C.M.M.M.M.c.c.c.c.c.k.d.k.d.d.d.d.a.a.a.y.y.y.y.q.y.y.q.6.q.q.6.4.4.4.4.>.>.>.>.=.=.=.=.=.&.&.@.@.@.@.@.@.X.X.X.{ ` { { ` ` ` ` ` ` { { X.X.X.X.@.@.@.@.@.&.&.&.=.=.>.>.>.=.>.>.=.=.&.&.&.&.@.@.@.@.X.X.X.X.{ { { ` { ` ` { { { { { { X.X.X.@.X.@.&.@.&.&.&.=.=.=.>.=.>.>.>.4.4.4.4.6.6.q.q.q.q.y.q.q.y.y.a.a.a.d.a.d.d.d.k.k.k.c.c.c.c.c.M.M.M.C.C.C.C.C.A.A.G.G.G.L.L.L.L.U.U.U.W.U.W.W.~.~.W.W.W.U.U.U.U.L.L.L.L.G.G.G.A.A.A.C.C.C.C.M.M.M.M.C.C.C.A.A.A.G.G.G.L.L.L.L.U.U.",
"U.W.W.W.W.~.W.W.W.U.U.U.L.L.G.G.G.A.A.A.A.C.C.M.M.c.M.c.c.c.k.k.k.d.d.d.a.a.a.y.y.y.q.6.q.6.6.6.4.4.>.>.>.>.=.=.=.&.&.@.@.@.@.@.X.{ X.{ { ` ` ` ( ( ( E E E Y Y Y P P P H H H H H H P P P P Y Y Y E E ( ( ( ( ` ` ` { { { { X.X.{ { { ` ` ( ( ( E ( E E E Y P Y P P P H H S H H P P Y Y Y Y E E E E E ( ( ` ` ` { { { X.X.@.X.@.@.&.&.&.=.=.=.=.>.>.4.4.4.4.6.q.6.q.q.y.y.y.a.a.a.d.d.d.k.k.k.c.k.c.c.M.M.M.C.C.A.A.A.G.G.G.L.L.L.L.U.W.U.W.W.~.W.W.W.U.U.U.U.L.L.G.G.A.A.A.A.C.M.M.M.c.c.c.c.c.c.M.M.M.C.C.C.A.A.G.G.G.L.L.U.U.",
"U.W.W.~.~.~.~.W.W.W.U.U.U.L.L.G.A.A.A.C.C.M.M.c.c.c.k.k.k.d.d.a.a.y.y.q.q.q.q.6.4.4.4.>.>.>.=.=.&.&.&.@.X.X.X.{ { ` ` ` ( E ( E Y Y Y Y P P H H S S S C C M v M v l l l g g u u g g g l l v v M M M C C S S S H P P Y Y Y E E E Y P P P H H H S C C C M M v v v l g g g u g g g g l l l v v M C C C S S S H P P P P Y E E E ( ( ( ` ` { { { X.X.@.@.@.&.=.=.=.>.>.>.4.4.6.6.q.q.q.y.y.y.a.a.d.d.k.k.k.c.c.M.M.M.C.C.A.A.G.G.L.L.U.U.W.W.W.~._.~.~.W.W.U.U.U.L.L.G.G.A.A.A.C.M.M.M.M.c.c.k.k.k.k.k.c.c.M.M.M.C.C.A.G.G.G.L.L.U.U.",
"L.L.L.U.U.W.U.U.L.L.L.G.G.A.A.A.C.C.C.M.M.c.c.c.k.k.k.d.d.a.a.a.y.y.q.y.q.q.q.6.6.4.4.>.4.>.>.=.=.&.&.&.&.@.X.X.X.X.{ { { { ` ` ( ( ( E E Y Y Y P P P H H H S S S C C C M M M M M M M C C C S S S H H H P P Y Y E E E E ( ( ` ( ( E E E E Y Y P P H H H S S C C C C M M M M v M M C C C S S S H P H P P Y Y Y E E ( ( ( ( ` ` { { { { X.X.X.@.@.@.&.&.&.=.=.>.>.4.4.4.6.6.6.q.q.q.y.y.y.y.a.a.d.d.d.k.k.k.c.c.M.M.M.C.C.C.A.A.A.G.L.L.L.L.U.U.U.U.U.U.L.L.G.G.A.A.A.C.C.C.M.M.c.c.k.k.k.k.d.d.d.k.k.k.c.c.c.M.M.M.C.C.A.A.A.G.G.",
"W.W.W.~.~.~.~.~.W.W.U.W.U.U.L.L.L.G.G.A.A.A.A.A.C.C.M.M.M.c.c.c.c.k.k.k.k.d.a.d.a.a.a.y.y.q.y.q.q.6.6.6.4.4.4.4.>.>.>.>.=.=.=.&.&.&.@.@.@.@.X.{ X.{ { ` ` ` ( ( ( ( E E E E Y Y Y E E E E ( ( ( ` ` ` { { X.{ X.X.@.@.@.@.&.&.&.&.@.@.X.X.X.{ { { { ` ` ` ( ( ( ( E E E E Y E E E ( E ( ( ( ` ` ` { { { { X.X.@.@.@.@.&.&.&.&.=.=.>.>.>.4.4.4.4.4.6.6.6.q.q.q.y.y.y.a.a.a.a.d.k.d.k.k.k.c.c.c.c.M.M.M.C.C.A.A.G.A.G.G.G.L.L.U.U.W.U.W.W.W.~.~.~.~.W.W.W.W.U.U.U.L.L.L.G.G.G.A.A.A.C.C.M.M.M.M.M.M.C.C.A.A.A.G.G.G.G.L.L.L.U.U.U.",
"W.U.W.~.~.~.~.W.W.W.W.U.U.U.L.L.L.L.G.G.A.G.A.A.C.C.C.C.M.M.M.c.c.c.c.k.k.k.k.d.d.d.a.d.a.a.y.y.y.y.q.y.q.6.q.6.6.6.4.4.4.>.4.>.>.>.=.=.=.=.&.&.@.@.@.@.X.X.X.X.{ { { { { ` ` ` ` { { { { X.{ X.X.@.@.@.@.@.&.&.=.&.=.=.=.>.>.=.=.=.=.=.&.&.&.@.@.@.X.X.X.X.{ { { { ` { ` ` ` ` { { { { { X.X.@.@.@.@.&.@.&.&.=.&.=.>.=.>.>.4.4.4.4.6.6.6.q.6.q.q.y.q.y.y.y.a.a.a.a.d.a.k.d.k.k.c.c.c.c.c.M.M.M.M.C.C.C.C.A.A.A.G.G.G.L.L.L.U.U.U.U.U.W.W.W.~.~.~.W.W.U.W.U.U.L.L.L.L.L.G.G.G.A.A.A.C.C.C.M.M.C.C.C.A.A.A.A.A.G.G.L.L.L.L.U.U.W.",
"L.U.U.W.W.W.W.U.U.U.L.L.G.G.A.A.A.C.C.M.M.M.c.k.k.d.k.d.d.d.a.a.y.q.q.q.q.6.6.6.4.>.>.>.>.=.=.&.@.&.@.X.X.X.{ { { { ` ` ( ( E E Y Y Y P P H H S S S S C C M M v v l l l l g g u g g l l l v v M M M C C S S S H H P P Y Y Y Y Y P Y P H H H S S C C M M M v v v v l l g u g g g l l l v v v M M M C C S S H H H P P P Y E E E ( ( ` ` ` { { { X.@.X.@.&.&.&.&.=.=.>.>.4.4.4.6.6.q.q.q.y.y.a.a.a.d.d.k.k.k.c.c.c.M.C.C.C.A.A.G.G.L.L.L.U.U.W.W.W.W.U.U.U.L.L.G.G.A.A.A.C.C.M.M.c.c.k.k.k.k.d.d.d.d.k.k.c.c.c.M.M.C.C.A.A.G.G.L.L.",
"U.U.U.W.W.W.U.W.U.U.U.L.L.L.G.L.G.A.A.A.C.C.C.M.C.M.c.M.c.c.k.k.k.k.k.d.d.a.a.a.y.a.y.y.y.q.q.6.q.6.4.4.4.4.4.>.>.>.=.=.=.=.=.&.&.&.&.@.@.X.X.X.X.{ { ` { ` ` ( ( ( ( E E E E E E E E ( ( ( ( ` ` ` { { { { X.X.X.X.@.@.&.&.&.&.&.@.@.X.X.X.X.X.{ { { ` ` ` ( ( ( E ( E E Y E E E E ( ( ( ( ` { ` { { X.{ X.X.X.@.@.@.&.&.=.&.=.=.=.>.>.>.4.4.6.4.6.6.6.6.q.q.y.y.y.y.a.a.a.a.a.d.d.k.k.k.k.c.c.c.M.M.M.M.C.C.C.C.A.A.G.G.G.L.L.L.U.U.U.U.U.W.W.W.U.U.U.U.L.L.L.G.G.G.A.A.A.C.C.C.M.M.M.M.c.M.c.M.M.M.M.C.C.C.A.A.G.G.G.G.L.L.L.",
"U.U.W.W.W.~.W.W.W.U.U.U.L.G.L.G.G.A.C.C.C.C.M.M.c.M.c.c.k.k.k.k.d.d.a.a.y.y.y.q.q.q.q.q.6.4.4.4.4.>.>.>.>.=.=.&.&.&.@.@.X.X.X.X.{ { { ` ` ( ( ( ( E E E Y Y Y P P H H H S S S S S S H H H P P Y Y Y Y E E ( ( ( ( ` ` ` { { { { ` ` ` ` ( ( E E ( E Y Y Y Y P H H H S S S S S S H H H P P P Y Y Y E E E ( ( ( ` ` { { { X.{ X.X.@.@.@.&.&.&.=.=.>.>.4.>.4.4.4.6.6.6.q.q.q.y.y.y.a.a.a.d.d.k.k.k.c.c.c.c.M.M.M.C.C.C.A.G.G.G.L.L.L.U.U.W.W.W.~.~.W.W.W.U.U.L.L.L.G.G.A.G.C.C.C.C.M.M.c.M.c.c.c.c.c.c.M.M.M.C.C.C.A.A.G.G.L.L.L.L.",
"L.L.U.U.W.U.W.U.U.U.L.L.G.G.G.G.A.C.C.C.M.M.M.M.c.c.c.k.k.k.k.d.d.d.a.a.y.y.y.y.y.q.6.6.6.6.4.4.4.4.>.>.>.=.=.&.&.@.@.@.X.X.X.X.{ { { { ` ` ` ( ( ( ( E E E Y Y Y P P P H H H H H H H P P Y Y Y Y E E ( E ( ( ( ` ` { { { { X.{ { { ` ` ` ( ( ( ( E E E Y Y Y P P P H H H H S H H P P P Y Y Y E E ( ( ( ( ( ` ` ` { { { X.X.X.X.@.@.@.&.&.&.=.=.=.>.>.4.4.4.4.4.6.q.q.q.q.y.y.y.a.a.a.a.d.d.k.k.k.k.c.c.c.M.M.M.M.C.A.A.A.A.G.G.G.L.L.U.U.U.U.W.U.U.U.U.L.L.G.G.G.A.A.C.C.C.M.M.M.M.c.c.k.k.k.k.c.c.M.c.M.M.C.C.A.A.A.A.G.G.G.L.",
"U.U.U.W.W.W.W.W.U.U.U.L.L.L.L.G.G.G.A.A.A.C.C.C.M.M.M.c.M.c.c.k.k.k.k.k.d.d.a.a.a.a.y.y.y.y.q.q.q.q.6.6.6.4.4.4.4.>.>.=.>.=.&.&.&.&.@.@.@.@.X.X.X.X.{ { { ` { ` ` ` ( ( E ( E E ( E ( ( ( ` ` ` ` { { { { X.X.@.X.@.@.@.&.&.&.&.@.@.@.@.X.X.X.X.{ { { { ` ` ` ` ( ( ( E ( E E E E ( ( ( ` ` ` { { { { X.X.X.X.@.@.@.&.&.&.&.=.=.>.>.>.>.4.4.4.4.4.6.q.6.q.q.q.y.y.y.y.a.a.a.a.d.d.k.k.k.k.c.c.c.c.M.M.M.C.C.C.C.C.A.A.G.G.L.L.L.L.U.U.U.W.W.W.W.W.U.U.U.U.U.L.L.L.G.G.G.A.A.A.C.C.M.M.M.M.c.c.M.M.M.M.C.C.C.A.A.A.G.G.G.L.L.L.L.",
"U.W.W.W.W.W.W.W.W.U.W.U.L.L.L.G.G.G.A.G.A.C.C.M.M.M.M.c.c.k.c.k.k.d.d.d.a.a.y.a.y.y.q.q.q.6.6.6.4.4.4.4.4.>.>.=.=.=.=.&.&.&.@.@.X.X.X.X.{ { ` ` ` ` ` ( ( E E E Y Y Y Y P P P H P P Y Y P E E E ( ( ( ( ( ` ` { { { { X.X.X.X.X.X.X.{ { { ` ` ` ` ( ( E ( E E Y Y P P P H H P P Y Y Y Y Y E ( E ( ( ( ` ` { ` { { { X.X.@.@.&.@.&.&.=.=.=.=.>.>.>.4.4.4.6.6.6.q.q.q.q.y.y.y.a.a.d.d.d.d.k.k.k.c.c.M.M.c.M.C.C.C.A.A.G.G.G.L.L.L.U.U.U.U.W.W.W.~.W.W.W.W.U.U.L.L.L.G.G.G.A.A.A.C.C.M.M.M.M.c.c.M.c.M.M.M.C.C.C.A.A.G.L.G.L.L.L.U.",
"~.~.~.~.~._.~.~.~.~.~.W.W.W.U.U.U.U.L.L.G.G.G.A.A.A.A.A.A.A.C.C.C.C.M.M.M.c.c.c.c.c.k.k.k.k.d.d.d.a.a.a.a.a.y.y.y.q.q.6.6.6.6.6.6.4.4.4.4.4.4.>.>.=.=.=.=.=.=.&.&.@.&.@.@.@.X.X.@.@.@.@.&.&.&.&.=.=.=.=.>.>.>.>.4.>.4.4.6.6.6.6.4.4.4.4.4.>.>.=.>.=.=.=.=.&.&.&.&.@.@.@.@.X.@.@.@.@.&.&.&.&.=.=.=.=.=.>.>.>.4.4.4.4.6.6.6.6.6.q.q.q.q.y.y.y.y.a.a.a.a.a.d.d.k.k.k.k.k.c.c.c.c.M.M.M.M.C.C.C.C.C.A.A.A.A.A.G.G.G.G.L.L.U.U.U.U.W.W.W.~.~.~.~.~._.~.~.~.W.W.W.W.W.U.U.U.U.L.G.G.L.G.G.G.A.A.A.A.A.A.A.A.G.G.L.G.L.L.L.U.U.W.U.W.W.",
"U.U.U.W.W.W.W.W.U.U.U.L.L.L.G.G.G.A.A.A.C.C.C.M.M.c.M.c.k.k.k.d.d.d.a.a.a.y.y.y.y.q.q.q.q.6.6.6.4.4.>.>.=.>.=.=.=.&.&.&.&.@.@.@.X.X.{ { { ` ` ` ` ( ( ( ( E Y E Y Y P P P H H H H H P P P Y Y E E E E ( ( ( ` ` ` { { { { X.X.X.{ { { ` ` ` ` ( ( E ( E Y E Y Y P P P H H H H H P P Y Y Y E E E E ( ( ( ` ` ` ` { { { X.X.X.@.@.@.&.&.&.=.=.>.=.>.>.4.4.4.6.6.6.6.q.q.q.y.y.y.a.a.a.d.d.k.d.k.c.c.c.c.M.M.M.C.C.A.A.A.A.G.G.G.L.L.L.U.U.U.W.W.W.W.W.U.U.U.L.G.G.G.G.G.A.A.C.C.C.M.M.M.M.c.c.k.c.M.c.M.C.M.C.C.C.A.G.G.G.G.L.L.L.",
"U.U.W.W.W.~.W.W.U.U.U.L.L.G.G.G.A.A.C.C.M.M.c.M.c.k.k.k.k.d.d.a.a.y.y.y.y.q.q.6.4.4.4.4.>.>.>.=.=.&.&.&.@.@.X.X.X.{ { { ` ` ( ( ( ( E Y Y Y Y P P H H S S S C C C M M v v l v l l v v M M M C C C S S H H P P P Y Y E E E ( ( E E E E Y P P P P H H S S C C M M M v v v l l l l v v M M C C C S H S H P P P P Y Y E E ( ( ( ` ` ` { { { X.X.X.@.&.&.&.&.=.=.>.>.4.4.4.6.4.6.q.q.q.y.y.a.a.a.a.d.d.k.k.c.c.M.M.M.C.C.A.A.A.G.G.L.L.L.U.U.W.W.W.~.W.W.U.U.U.L.L.G.G.G.A.A.A.C.M.M.c.c.c.k.k.k.d.k.k.c.c.c.M.M.M.C.A.A.A.G.G.L.L.L.",
"L.U.U.U.W.W.W.U.U.U.U.L.G.G.G.A.A.C.C.M.M.c.c.c.k.k.k.d.d.a.a.a.y.y.q.q.6.6.6.4.4.4.>.>.>.=.=.=.&.@.@.X.X.X.{ { { ` ` ` ( ( E E Y Y Y P P H H H S S S C M M M v v l l l g g u g g g g l l v v v M C C C S S H H H P P P Y E E Y Y Y P H H H S S C C C M M v v v l l g g g g g g l l l l v v M M C C S S H H H P P Y Y Y E E E ( ( ( ` { { X.{ X.@.X.@.@.&.=.=.>.=.>.>.4.4.4.6.q.q.q.q.y.y.a.a.a.d.k.k.k.k.c.c.M.M.M.C.C.A.A.G.G.L.L.L.U.U.U.W.W.W.U.U.U.L.L.G.G.A.A.A.C.C.M.M.c.c.c.c.k.k.d.d.d.d.k.k.c.c.c.M.C.C.C.A.A.G.G.G.L.",
"U.U.U.W.W.W.W.U.U.U.U.L.L.L.L.G.G.G.A.A.C.A.C.C.C.M.M.c.c.k.k.k.k.d.d.d.d.d.a.a.y.a.y.y.y.q.q.q.6.6.6.4.4.4.4.>.=.>.>.=.=.=.&.&.&.@.@.@.@.X.X.X.X.{ { { ` ` ` ` ( ( E ( E E E Y E E E ( E ( ` ` ` { ` { { { X.X.X.X.@.@.&.&.&.@.&.@.X.X.X.X.X.{ { { { ` ` ( ( ( ( E E E Y E E E ( E ( ( ( ` ` { ` { { { X.X.X.@.@.@.&.&.&.&.&.=.=.>.>.>.>.>.4.4.4.6.6.6.q.q.q.q.q.y.y.a.a.a.d.a.d.d.d.k.k.k.c.c.c.M.c.M.C.C.C.C.C.C.G.G.G.G.G.L.L.L.U.U.U.W.W.W.W.U.U.U.U.U.L.L.G.G.G.A.A.A.C.C.C.M.M.M.M.c.c.M.M.M.C.C.C.A.A.A.A.A.G.G.G.L.L.L.",
"W.W.~.~.~.~.~.~.W.W.W.W.W.U.U.U.L.L.L.L.G.G.G.A.A.A.A.A.A.C.C.C.C.M.M.M.M.c.c.k.k.k.k.k.k.d.d.d.d.d.a.a.y.a.y.y.y.y.q.q.q.q.q.6.6.6.4.4.4.4.>.>.>.>.>.>.=.=.=.=.&.&.&.@.@.@.@.@.@.@.@.&.&.&.&.&.=.=.=.>.>.>.>.>.4.4.4.4.4.6.6.6.4.4.4.4.4.>.>.>.>.>.=.=.=.&.&.&.&.&.@.@.X.@.@.@.@.@.&.@.&.=.=.=.=.>.>.>.>.>.>.>.4.6.4.6.6.q.6.q.q.q.q.y.y.y.y.y.a.a.a.d.d.d.d.k.k.k.k.k.c.c.c.c.M.M.M.M.M.C.C.C.A.A.A.A.A.G.G.G.L.G.L.L.U.U.U.U.W.W.W.W.~.~.~.~.~.~.~.W.W.U.U.W.U.U.L.L.L.L.G.G.G.G.A.A.A.C.A.A.A.A.A.G.G.G.G.L.L.L.U.U.U.W.U.W.",
"U.W.U.W.W.W.W.W.U.W.U.L.L.L.G.G.G.G.A.A.C.C.C.C.M.M.c.M.c.k.c.k.k.d.d.d.d.d.a.a.y.y.q.y.q.q.q.6.6.6.4.4.>.4.>.>.>.>.=.=.&.&.&.@.@.X.X.X.{ { { { ` ` ` ` ( ( E E E E E Y Y Y P P P Y Y Y E E E ( ( ( ( ( ` ` { { { { X.X.X.@.@.@.X.X.X.{ { { ` ` ` ( ( ( ( E E E Y Y Y Y Y P Y Y Y Y E E E ( E ( ` ( ` ` ` { { X.X.X.X.X.@.@.@.&.&.=.=.>.>.>.>.4.4.4.4.6.6.q.q.q.q.y.q.y.y.a.a.a.d.d.k.k.k.k.k.c.c.c.c.M.M.M.C.C.A.A.A.G.G.L.L.L.L.U.U.W.W.W.W.W.W.W.W.U.U.U.L.L.L.G.G.G.A.A.A.C.C.M.M.M.c.c.c.c.c.M.M.C.C.C.C.A.G.G.G.G.L.L.L.U.",
"U.U.U.W.W.W.W.W.U.U.U.L.L.L.L.G.G.G.A.A.A.C.M.M.M.M.M.M.c.c.c.k.k.k.k.d.d.d.a.a.y.a.y.y.q.y.q.6.q.6.6.6.6.4.4.>.>.>.>.>.>.=.&.&.&.&.@.@.@.X.X.X.X.{ { { { ` ` ` ` ( ( E ( E E E E E ( E ( ( ` ` ` ` { { { X.X.X.@.X.@.@.@.@.&.&.@.@.@.@.X.X.X.{ X.{ { ` ` ` ` ( ( ( E E E E E E ( E ( ( ( ` ` ` { { { X.X.X.X.X.@.@.@.&.&.&.=.=.>.=.>.>.>.4.4.4.4.4.6.6.q.q.q.q.q.y.y.a.a.a.a.a.d.d.k.k.k.k.c.c.M.M.M.M.C.C.C.C.A.A.A.A.G.G.G.L.L.L.U.U.U.W.W.W.U.W.U.U.L.L.L.L.L.G.G.G.A.A.A.C.C.M.M.M.M.M.c.M.M.M.M.C.C.C.A.A.A.G.G.G.G.L.L.L.",
"L.L.U.U.W.W.W.U.U.U.L.L.G.G.A.C.A.C.M.M.M.c.c.c.k.k.d.d.a.a.a.y.y.q.q.q.6.6.6.4.4.>.>.>.=.=.&.&.@.X.@.X.X.{ { { ` ` ( ( ( E E E Y Y P P P H H S S C C C M M v v v l l g g g g u g g g l l l v v M M M C C S S S H H P P P Y E Y Y P H H H S S C C C M M v v l v l g g g g u g g g l l v v v v M M M C C S H H H H P P Y Y E E ( ( ` ` ` ` { { { X.X.@.@.&.&.&.=.=.>.>.4.4.4.6.6.q.q.q.y.y.y.a.a.a.d.k.k.k.c.c.c.M.M.C.C.A.A.G.G.G.L.L.U.U.U.W.W.W.U.U.U.L.L.G.G.A.C.C.C.M.M.M.c.c.c.k.k.d.d.a.d.d.k.k.k.c.c.M.M.C.C.C.A.A.G.L.L.",
"G.L.U.U.U.W.U.U.L.L.G.G.G.A.A.C.M.C.M.c.c.c.k.k.k.d.d.d.a.y.y.y.y.q.q.6.6.6.4.4.>.>.>.=.=.&.&.&.@.@.X.X.{ { { { ` ( ( ( E ( E Y Y P P P H H S S C C C M v M v v l l l g g u u u g g u l l l v v v M M C C C S S H H P P P Y Y P P P H H S S S C C M M M v v l l l g g u g u u g g g g l l v v M M C C C S S H H P P P Y Y E E ( E ( ( ( ` { { { X.X.X.@.@.@.&.&.=.>.>.>.>.4.4.6.6.q.6.y.y.y.y.y.a.a.d.d.k.k.k.c.c.M.M.M.C.C.A.A.G.G.L.L.U.U.U.W.U.U.L.L.G.G.A.A.A.C.M.M.M.c.c.k.k.k.d.d.d.a.a.a.d.d.k.k.k.c.c.c.M.M.M.C.A.A.G.G.",
"L.L.U.U.W.W.W.U.U.L.L.L.G.G.A.A.C.C.M.c.c.c.k.k.k.d.a.a.y.y.y.q.q.6.6.6.4.4.>.>.>.=.&.&.&.@.X.X.X.{ { ` ` ` ( ( E E Y Y Y P H H H S S C C M M v v v l l g g g u u y y w w 6 6 6 6 w w y w y u g g g l l l v v M M C C C S H H S S C C M M M v v l l l g g u u y y w w w 6 6 6 w w y y y g u g g l l l v v M M M C C S S H H P P Y Y E E ( ( ( ` ` { { { X.X.@.@.&.&.&.=.=.>.4.4.4.6.6.6.q.q.y.y.a.a.d.d.d.k.c.c.c.M.M.M.C.A.A.G.G.L.L.L.U.U.W.W.W.U.U.L.L.G.G.G.A.C.C.C.M.c.c.c.k.k.d.d.a.a.a.a.d.d.d.k.k.c.c.M.M.C.C.A.A.G.G.G.",
"U.W.W.W.W.~.W.W.U.W.U.U.L.L.L.L.A.G.A.A.A.C.C.M.M.M.c.c.c.k.k.k.k.d.d.d.a.y.a.a.y.y.q.q.q.6.6.4.4.4.4.>.>.=.=.=.=.=.&.@.@.@.@.@.X.X.{ { { { ` ( ( ( ( E E E E Y Y Y P P H H H H H H H P P Y Y Y E E E E ( ( ( ` ` { { { { X.X.X.X.{ { ` ` ( ( ( ( E E E E Y Y P P P H H H S H H H P P P Y Y Y E E E ( ( ( ` ` ` { { { X.X.X.@.@.&.&.&.&.=.=.=.>.>.>.4.4.4.6.6.6.q.q.q.y.y.y.y.a.a.a.d.k.k.k.k.k.c.c.c.M.M.C.C.C.A.A.A.G.G.G.L.L.U.U.U.W.W.W.W.W.W.W.U.W.U.U.L.L.G.G.G.A.A.A.C.C.M.C.M.M.c.c.c.c.M.M.M.C.C.A.A.A.A.G.G.G.L.L.L.U.",
"W.W.W.~.~.~.~.~.~.W.W.U.U.U.L.L.L.G.L.G.G.A.A.A.C.C.C.M.M.M.M.c.c.c.c.k.d.k.d.d.d.a.a.a.y.y.q.y.q.q.q.q.q.6.6.4.4.4.>.4.>.>.>.=.=.&.&.&.@.&.@.@.X.X.{ X.X.{ { ` ` ` ( ( ( ( ( E ( ( ` ` ` ` { { { { X.X.X.X.@.@.@.&.&.&.&.=.=.=.&.&.&.&.@.@.@.X.X.X.{ { { { ` ` ` ( ( ( ( E ( ( ( ` ( ` { { { { X.X.X.X.X.@.@.&.&.&.=.=.=.>.>.>.>.>.4.4.6.6.6.q.q.q.q.q.y.y.y.y.a.a.d.a.d.d.d.k.c.c.c.c.c.M.M.M.C.C.C.C.C.A.A.A.G.G.G.L.L.U.U.U.U.W.W.W.~.~.~.~.~.~.~.W.W.U.U.U.U.L.L.G.G.G.A.A.A.A.C.C.C.M.C.M.C.C.C.A.A.A.G.G.G.L.L.L.U.L.U.W.",
"L.L.U.U.W.W.W.U.U.L.L.G.G.G.A.A.C.C.M.M.c.c.c.k.k.d.d.a.a.y.y.y.q.q.q.6.6.4.4.4.>.>.=.=.&.&.&.@.@.X.X.{ { { ` ` ` ( ( E E E Y Y P P H H S S C C C M M v v l l l g g g u y y y w y y u u g g g l l v v v M M C C S S S H P P P H H H S S C C M M M v v l l l l g g u u u y w y y u u g g g l l v v v M M C C S S S H P P P P Y E E ( E ( ` ` ` { { { X.X.@.@.&.&.&.&.>.>.>.4.4.6.6.6.6.q.q.y.y.a.a.d.d.d.k.c.c.c.M.M.M.C.A.A.A.G.G.L.L.L.U.W.W.W.W.U.U.L.L.G.G.G.A.A.C.C.M.M.M.c.c.k.d.k.d.d.a.a.d.k.k.k.k.c.M.c.M.C.C.A.A.G.G.L.",
"U.W.W.~.~.~.~.~.W.W.W.U.U.U.L.L.G.L.G.G.A.A.A.C.C.C.M.M.M.M.c.c.c.c.k.k.k.d.d.d.d.a.a.y.a.y.q.y.q.6.q.6.6.6.6.4.4.4.>.>.>.=.=.=.&.&.&.@.&.@.@.X.X.X.{ X.{ { ` { ` ` ( ( ( E E E ( ( ( ( ( ` ` { { { { { X.X.@.X.@.@.@.&.&.&.=.&.&.&.@.@.@.@.X.X.{ X.{ X.` { ` ` ( ( ( E E E ( ( ( ( ` ` ` ` { { { X.X.{ X.X.@.@.@.&.&.&.=.=.=.>.>.>.>.4.4.4.6.6.6.q.q.q.q.y.y.y.y.a.a.a.a.d.d.k.k.k.k.c.c.c.c.c.M.M.M.C.C.C.A.A.G.G.G.L.L.L.U.U.U.W.W.W.W.~.~.~.~.W.W.W.W.U.U.U.L.L.L.G.G.G.A.A.A.C.C.C.M.M.M.C.C.C.C.C.A.A.G.G.G.G.L.L.L.U.U.U.",
"U.W.W.~.~.~.W.W.W.W.U.U.L.L.L.L.G.G.G.A.A.C.C.C.M.M.M.c.c.k.c.k.k.d.d.d.a.a.a.y.y.q.y.q.q.6.6.6.6.4.4.4.>.>.>.=.&.=.&.&.&.@.@.@.X.X.{ { ` ` ( ` ( ( ( E E E E Y Y Y P P P H H H H H H P P Y Y Y E E ( ( E ( ( ` ` { { { { X.X.X.{ { { ` ` ` ( ( ( ( E E E Y Y P P P H P H H H H P H P P Y Y E E E ( ( ( ` ` ` ` { { { X.X.X.@.@.&.&.&.&.=.>.>.>.>.4.4.6.6.6.6.6.q.q.q.y.y.y.y.a.a.d.d.k.k.k.c.c.c.c.M.M.M.C.C.C.A.A.G.G.G.L.L.L.U.U.U.W.W.W.~.~.W.W.W.U.U.U.L.L.L.G.G.A.G.A.A.C.C.M.M.M.c.c.c.c.c.M.M.C.C.C.A.A.G.G.G.G.L.L.U.U.",
"L.L.U.U.W.W.W.U.U.L.G.G.G.G.A.A.C.M.M.c.c.k.k.k.d.d.a.a.a.y.q.q.q.6.6.4.4.>.>.>.=.&.&.@.@.@.X.X.X.{ ` ` ` ( ( E E Y Y P P H H S S S C C C M M v l l l g g g u u y y w 6 6 6 2 2 6 6 6 w w y u u u g g l l v v M M M C C C S S S C C M M v v v l l g g u u u y y w w 6 6 6 2 2 6 6 6 w y y y u g g g l l v v M M M C C S H H H P P P Y E E E ( ( ` ` { { X.X.@.@.&.@.&.=.=.>.>.4.4.4.6.q.q.q.y.y.y.a.a.d.k.k.k.c.c.c.M.M.C.A.A.A.G.L.L.L.U.W.W.W.W.U.U.L.L.G.G.A.A.A.M.M.M.c.c.k.k.d.d.d.a.a.a.a.d.d.d.k.k.k.c.c.M.M.C.C.A.A.G.L.",
"L.L.U.U.U.U.U.U.L.L.L.G.G.G.A.A.C.C.M.C.M.M.c.c.c.k.k.d.d.d.d.a.a.y.y.y.q.q.y.6.6.6.4.4.4.>.>.>.=.=.&.&.&.&.@.@.@.@.X.X.{ { { ` ` ( ( ( ( E E Y Y Y Y P P H H H S S S S C C C M C C S S S H H H P H P P Y Y Y E E ( E ( ` ` ` ` ( ( ( ( E Y Y Y Y P P P P H H S S S C S M M C M S S S H H H P P P Y P Y Y E E ( ( ( ( ` ` ` { { X.X.X.@.@.@.@.&.&.&.=.=.=.>.>.>.4.4.6.6.6.q.q.q.q.y.y.a.a.a.a.a.k.k.k.k.c.c.c.M.M.M.C.C.C.A.A.G.G.G.L.L.L.U.U.U.U.U.U.L.L.G.G.G.A.A.C.C.C.M.M.M.c.c.c.k.k.d.d.d.k.k.k.c.c.M.M.C.C.C.C.A.A.G.G.G.",
"G.L.L.L.U.U.L.L.L.G.G.G.A.A.C.C.M.M.M.c.k.k.k.d.d.d.a.a.y.y.q.q.6.6.6.6.4.4.>.>.>.=.=.&.&.@.@.X.@.{ { { ` ` ` ( E E E E Y Y Y P H H H S S S C C M M v v v l g g g g u u u u y w y y u u u g g g l v v v v M C C C S H S H P H H H H S S S C M M v v v l l g g u u u y y w w y y u u u g g g l l v v v v C C C S S S H P P P P Y Y E E ( ( ( ` ` ` { { X.X.@.@.@.&.&.=.=.>.>.4.>.4.4.6.6.q.q.y.y.a.a.a.d.d.k.k.k.c.c.c.M.C.C.C.C.A.G.G.L.L.U.U.U.L.L.L.G.G.A.A.A.C.C.M.M.M.c.k.c.k.d.d.d.a.y.y.a.a.a.d.k.k.k.c.c.M.M.M.C.A.A.A.G.",
"W.~.~.~._._._.~.~.~.W.W.W.U.U.U.L.L.L.L.L.G.G.G.A.A.C.C.C.C.M.C.C.M.M.c.c.c.c.k.k.k.k.d.d.a.a.a.a.y.y.y.y.q.q.q.q.q.6.q.6.4.4.4.4.>.>.>.>.=.=.&.=.&.&.@.@.@.@.X.X.{ { X.{ { ` { ` { X.{ X.X.X.X.@.@.@.@.&.&.&.=.=.=.=.>.>.>.4.>.>.>.=.=.=.=.&.&.&.@.@.@.@.@.X.X.X.X.{ { ` { { { X.{ X.X.X.X.@.@.@.&.&.&.&.=.=.=.=.>.>.>.>.4.4.4.6.6.q.6.q.q.q.y.y.y.a.a.a.a.a.d.d.d.k.k.k.k.k.c.c.c.M.M.M.C.C.C.C.A.A.A.A.G.G.G.L.L.L.U.L.U.U.W.W.W.W.~.~.~._._._.~.~.~.W.W.W.U.U.U.L.L.L.G.G.G.G.G.G.A.A.A.C.A.A.A.A.G.G.G.G.L.L.L.U.U.U.W.W.W.",
"U.U.U.W.W.W.W.W.W.U.U.L.L.L.G.G.G.A.A.C.C.C.M.M.M.M.c.c.c.k.k.k.d.d.d.d.a.a.a.y.y.q.q.q.q.6.6.6.4.>.4.>.>.>.>.=.=.&.=.&.@.@.@.X.X.X.X.{ { { ` ` ` ( ( E E ( E E Y Y Y P P H H H P P P P Y Y E E E E E ( ( ( ` ` { { { X.X.X.X.@.{ X.{ { ` ` ` ( ( ( E E E E Y Y P P P P P H H H P P P Y E Y E E E ( ( ( ` ` ` { { X.X.X.@.@.@.@.&.&.&.=.=.=.>.>.>.>.>.4.6.6.6.q.q.q.q.y.y.y.a.a.a.a.d.d.d.k.k.k.c.c.c.M.M.M.C.C.C.C.A.G.G.G.L.L.L.U.U.U.U.W.W.W.W.U.U.U.U.L.L.L.G.G.G.A.C.C.C.C.M.M.M.M.c.c.c.c.c.M.M.M.C.C.C.C.A.A.G.G.G.L.L.L.",
"U.U.U.W.W.W.W.W.U.U.L.L.L.G.G.G.A.A.C.C.M.M.c.c.c.k.k.k.d.a.a.a.y.y.y.q.q.6.6.6.6.4.4.>.>.=.>.=.&.&.&.@.@.X.X.{ { { { ` ( ( ( ( E E Y Y P P P H H H S S C C C M M v v l l l l g g l l v v M M M C C S S S H H H P P Y Y E E E E Y Y Y P P H H S S S S S M M M M v l l l g g l l l v v M M M C C S S S H H H P P Y Y Y E E ( ( ( ` ` ` { { X.X.X.@.&.&.&.=.=.=.=.>.>.4.4.6.6.6.q.q.y.y.y.a.a.a.d.d.d.k.k.c.c.M.M.M.C.A.A.A.A.G.G.L.L.U.U.W.W.W.W.W.W.W.U.L.L.L.G.G.A.A.A.C.M.M.M.c.c.k.k.k.k.d.d.k.c.k.c.M.M.M.M.C.A.A.G.G.G.L.L.",
"W.W.W.~.~.~.~.~.W.W.W.U.U.U.L.L.L.L.G.G.A.C.A.C.C.C.M.M.M.M.c.c.c.c.k.k.k.d.d.d.d.a.a.a.a.y.y.y.y.q.6.q.6.6.6.4.4.4.>.>.>.>.=.=.=.=.&.&.@.@.@.X.X.X.X.X.{ { { ` ` ` ( ( ( E ( E E ( ( ( ` ` ` { { X.{ X.X.X.@.@.@.@.&.&.&.&.&.=.&.&.&.@.@.@.X.X.X.{ { { ` ` ` ` ( ( ( ( ( E ( E ( ( ( ` ` { ` { X.{ X.X.X.@.@.@.@.&.&.&.=.=.>.=.>.>.>.4.4.6.6.6.6.6.q.q.q.y.y.y.a.a.a.d.d.d.d.k.k.k.k.c.c.c.c.M.C.M.C.C.C.C.A.A.A.G.G.L.L.L.U.U.U.W.W.W.W.~.~.~.~.~.W.W.W.U.U.U.L.L.L.G.G.G.A.A.A.A.C.C.M.C.M.M.C.C.C.C.A.A.A.G.G.L.L.L.L.U.U.U.",
"U.U.W.W.W.W.W.W.W.U.U.L.U.L.G.G.G.A.A.A.A.C.C.C.M.c.M.c.k.c.k.k.d.d.d.d.a.a.a.y.y.q.q.q.6.6.4.4.4.4.4.4.>.>.>.=.=.=.&.@.@.@.@.X.X.X.{ { { ` ` ` ( ` ( E E E E Y Y Y P P P H H S H P P P P Y Y E E E ( E ( ( ` ` ` ` { { X.X.X.X.X.{ { { ` ` ( ( ( ( E ( E E Y Y Y P H H H H H H P P Y P Y E E E E ( ( ( ( ` ` ` { { X.X.X.X.@.@.&.&.&.&.=.=.>.=.>.4.4.4.4.6.6.6.q.q.q.q.y.y.y.a.d.d.d.d.k.k.k.c.c.c.c.M.M.M.C.C.A.A.A.G.G.G.L.L.U.U.U.U.U.W.W.~.W.W.U.U.U.U.L.L.G.G.A.A.G.A.C.C.M.M.M.c.c.c.c.c.c.c.M.C.C.C.A.A.A.A.G.G.G.L.U.U.",
"L.L.L.U.U.U.U.L.L.L.G.G.G.G.A.A.C.C.M.M.M.M.c.c.k.c.k.k.k.d.a.a.a.y.y.y.q.q.q.6.6.6.6.4.4.>.>.>.=.>.=.=.&.&.&.@.X.X.X.X.{ { { { ` ` ( ( ( ( E E E Y Y Y P P P H H S S S S C C C C C S S S H H H P P P Y Y E E E ( E ( ( ` ` ` ` ( ( ( E E E Y Y Y Y P P P H H S S S S C C M C C S S S H H H P P Y Y Y Y E E ( ( ( ( ( ` ` { { { X.X.X.X.@.@.&.&.&.&.=.>.=.>.>.4.4.6.6.6.6.6.q.q.y.y.y.a.a.a.a.d.k.d.k.k.c.c.c.M.M.M.C.C.A.A.A.G.G.G.L.L.U.U.U.U.U.U.L.L.G.G.G.G.A.A.C.C.M.M.M.c.c.c.c.k.k.k.d.k.k.k.k.c.c.M.M.M.C.C.C.C.A.A.G.G.",
"L.U.U.U.W.W.W.U.U.U.L.L.L.G.G.A.A.C.C.C.M.M.M.c.c.c.k.k.k.k.d.d.d.a.a.a.y.y.y.q.q.q.6.6.6.6.4.4.>.>.>.=.&.&.&.&.&.@.@.X.@.X.{ { { { ` ` ( ( ( ( ( E E Y Y Y Y P P P H H S S S S S S S H H P P Y Y Y E E Y E ( ( ( ` ` ` ` { { ` ` ` ` ( ` ( ( E E Y Y Y P P P P H H S S S C S S S H H P P P Y Y Y E E E E ( ( ( ( ` ` { { X.X.X.X.X.@.@.&.&.&.=.=.>.>.>.4.4.4.4.6.6.6.q.q.y.y.y.y.y.a.d.d.d.k.d.k.k.c.c.c.M.M.M.C.C.C.C.A.G.G.G.L.L.L.U.U.U.W.W.W.U.U.U.L.L.G.G.G.G.A.A.C.C.C.M.M.c.c.k.k.k.k.k.c.c.c.M.M.M.M.C.C.A.A.G.G.G.L.L.",
"W.W.W.~.~.~.~.~.W.W.W.W.U.U.L.L.L.L.G.G.A.A.A.A.C.C.M.C.M.M.c.c.c.c.k.k.k.k.d.d.d.a.y.y.y.y.y.y.q.q.q.6.6.6.4.4.4.4.>.>.>.=.=.&.&.&.&.@.@.@.X.X.X.X.{ { { { ` ` ( ( ( ( ( E E E E ( ( ( ( ( ` ` ` { { { { X.X.@.@.X.@.@.&.&.&.&.&.@.@.@.@.@.X.{ { { { { ` ` ( ( ( ( E E E E E ( E ( ( ( ` ` ` ` { { { X.X.X.X.@.@.&.&.&.&.=.=.=.=.>.>.4.4.4.4.4.6.6.q.q.q.q.y.y.y.a.a.a.a.d.k.d.k.k.c.c.c.c.M.M.M.C.M.C.C.A.A.A.A.G.L.L.L.L.U.U.U.W.W.W.~.~.~.~.~.W.W.W.W.U.U.U.L.L.L.G.G.G.A.A.A.C.C.C.M.M.M.C.C.C.C.C.A.A.G.G.G.L.L.L.U.U.U.W.",
"U.U.U.W.W.W.W.W.U.U.U.L.L.L.G.G.A.A.A.A.C.C.C.M.M.M.c.c.c.k.c.k.k.d.d.d.a.a.a.y.a.y.q.y.q.q.6.6.6.6.4.4.4.>.>.>.>.=.=.=.&.&.&.&.@.@.X.@.X.{ X.{ { { ` ` ( ( ( ( E ( E Y Y Y Y Y Y Y Y E E ( ( ( ( ` ` ` ` { { X.X.X.X.X.@.@.@.@.@.X.X.X.{ { { { { ` ` ( ` ( E ( E E E E Y Y Y E E E E ( ( ( ( ( ` ` { { { { X.@.X.X.X.@.@.&.&.&.=.=.=.>.>.>.>.4.4.4.6.6.6.q.6.q.q.y.q.y.y.a.a.d.a.d.d.d.k.k.k.c.c.c.M.c.M.M.C.C.A.A.A.A.G.G.G.L.L.L.U.U.W.U.W.W.W.U.U.U.U.L.L.L.G.G.G.A.A.C.C.C.C.M.M.M.M.c.c.c.c.M.M.M.M.C.C.C.A.A.G.G.G.L.L.L.",
"L.U.U.U.W.W.W.U.U.U.L.L.L.G.A.G.A.C.C.C.C.M.M.c.c.k.c.k.k.d.d.a.a.y.y.y.y.q.q.q.6.4.6.4.4.>.>.>.=.=.&.&.&.@.@.@.X.X.X.{ { { ` ` ( ( ( E ( E Y Y Y P P P H H S S C C C C M M v v M M M M C S C S S H H H P Y Y Y E ( E ( ( ( ( ( E ( E E E Y P P P P H H S S S C C C C M v v v M M C C C S S H H H P P P Y Y E E E E E ` ` ` ` { { { X.X.X.@.@.@.&.&.=.=.>.>.>.4.4.4.6.6.6.q.q.q.q.y.a.a.a.a.d.d.k.k.c.c.c.c.M.M.M.C.C.A.A.A.G.G.L.L.U.U.U.W.W.W.W.U.U.U.L.L.L.G.G.A.C.C.C.C.C.M.c.c.c.c.k.d.k.k.k.c.c.c.M.M.M.C.A.A.A.A.G.G.L.L.",
"G.L.L.U.U.U.U.U.L.L.L.G.G.A.A.C.C.C.M.M.c.c.c.c.k.k.k.d.d.a.a.a.y.y.y.y.q.6.q.6.6.4.4.4.4.>.>.>.>.=.&.&.@.@.@.@.X.X.{ { { { ` ` ( ( ( ( E E E Y Y P P P H H H H S S C C M M M M M C C C S S S H H P P P Y Y Y E E E E ( ( ( ( ( ( ( ( ( E Y Y Y P P H H H H S S C C C M M M M M C C S S S S H H P P Y Y Y E E E ( ( ( ( ` ` ` { { { X.X.X.@.@.&.&.&.=.=.=.>.>.>.>.4.6.6.6.6.q.q.q.y.y.y.a.a.d.d.d.d.k.k.c.c.c.c.M.M.M.M.C.A.A.G.G.G.G.L.L.U.U.U.U.L.U.L.G.G.A.A.A.A.C.M.M.M.c.c.c.c.k.k.k.d.d.d.k.k.k.c.c.c.M.M.M.C.C.A.A.A.G.G.",
"U.U.W.W.W.W.W.W.U.U.U.L.L.L.G.G.A.A.A.C.C.M.M.c.c.c.c.k.k.k.d.a.d.a.a.y.y.q.q.q.6.q.6.4.4.4.>.>.=.>.=.&.&.&.&.@.@.X.X.X.{ { { ` ` ( ( ( E E E Y Y Y P P P H H H H S S S C M M M M M C C S S H H H H P P Y Y Y E E ( E ( ` ( ` ` ( ( ( E ( Y Y Y Y P P H H S S H C C C M M M M C C C S S H H H P P P Y Y Y E E ( ( ( ( ` ` ` { { { X.X.@.@.@.&.&.=.=.=.>.>.>.4.4.4.4.6.6.q.q.q.y.y.y.a.a.d.d.d.k.k.k.c.c.c.M.M.M.C.C.A.A.A.G.G.L.L.U.U.U.U.W.~.W.W.W.U.U.L.L.L.G.G.G.A.A.A.C.M.M.M.c.c.c.c.k.k.k.k.c.c.M.M.M.C.C.C.A.A.G.G.G.L.L.",
"L.U.U.U.U.W.W.U.U.U.L.L.L.G.G.A.A.A.A.C.C.M.C.M.M.c.c.c.k.k.k.k.d.d.d.d.a.a.a.y.y.y.y.q.q.6.q.6.4.4.4.4.>.>.>.>.=.=.&.&.&.&.&.@.@.X.X.X.X.{ X.{ { ` ` ( ( ( ( E E E Y Y Y P P P P Y Y Y Y E E ( ( ( ( ` ` ` { { { X.X.X.X.@.@.X.X.X.{ { { { ` ` ` ` ( ( ( E E E Y Y Y Y P P P P Y E E E E E E ( ( ( ` ` ` { X.{ X.{ X.@.@.@.@.&.&.=.=.=.=.=.>.>.4.>.4.6.4.6.6.q.q.q.y.y.y.y.a.a.a.d.d.d.k.k.k.k.c.c.c.M.M.M.M.C.C.C.A.A.G.G.G.G.L.L.L.U.U.U.W.U.U.U.U.U.L.L.L.G.G.A.A.A.A.C.C.C.M.M.M.c.c.c.c.c.c.M.M.M.M.C.C.C.C.A.A.G.G.L.L.L.",
"L.L.U.U.W.W.U.U.U.L.L.G.G.G.A.A.C.C.M.M.c.c.c.k.k.d.d.d.y.a.y.y.y.q.q.6.6.4.4.>.>.>.=.=.&.&.&.@.@.X.X.{ X.{ { ` ` ( E ( E E Y Y Y P H H H S S C C M M M v v l l l g g u u u u y u u g g g g l v v v M M M C C S S S H P P P P P P H H H S C C C M M v v v l l g g g u u y y u u u g g g v l v v v M C C C S S H H H P Y Y Y Y E E ( ( ( ` ` { { { X.X.@.@.@.&.&.=.=.>.>.>.4.4.4.6.q.q.q.y.y.y.a.a.d.d.d.k.k.c.c.c.M.C.C.C.A.G.G.G.L.L.U.U.W.W.W.W.U.L.L.L.G.G.G.A.A.C.C.M.M.c.c.c.k.k.d.d.a.a.a.d.k.k.k.c.c.c.M.M.C.C.C.A.G.G.G.",
"U.W.W.~.~.~.~.~.W.W.U.W.U.U.L.L.L.G.G.G.G.A.A.C.A.C.M.C.M.M.M.c.c.c.k.c.k.k.k.k.d.d.d.a.a.a.y.y.y.q.y.q.6.q.6.6.6.4.4.4.4.>.>.>.>.=.=.=.&.&.&.&.&.@.X.X.X.X.{ X.{ { { { ` ` ` ` ` ` ` ` { { { { X.X.X.X.@.@.@.&.&.&.=.=.=.>.>.=.=.=.&.=.&.&.@.@.@.X.X.X.X.{ { { { { ` ` ( ` ` ` ` ` ` { { X.{ X.X.X.@.@.@.@.&.=.&.=.=.=.>.>.>.4.>.4.4.4.6.6.6.q.q.q.y.q.y.y.y.a.a.a.a.d.d.k.d.k.k.k.c.c.c.c.M.M.M.M.C.C.A.A.A.A.A.G.G.G.L.L.L.U.U.U.U.W.W.W.W.~.W.W.W.W.W.U.U.L.L.L.L.G.G.G.A.A.A.A.C.C.C.M.M.M.C.C.C.C.A.G.A.G.G.G.L.L.U.U.U.U.",
"L.U.U.W.W.W.W.U.U.U.L.L.G.G.G.A.A.C.C.M.M.M.M.c.c.k.k.k.d.d.a.a.a.y.y.y.q.q.q.6.6.6.4.4.>.>.>.>.=.=.=.&.@.@.@.X.X.X.X.{ ` { ` ` ( ( ( E E E Y Y P P P H H H S S C C C M M M v v M M M M C C C S S H H H P P Y Y E E E ( ( ( ( ( ( E E E Y Y P P P H H H S S S C C M M M M v v v M M C C C S S H H P P P P Y Y E E E ( ` ` ( ` ` { { X.X.X.X.@.@.@.&.=.=.=.>.>.4.4.4.6.6.6.q.q.q.y.y.y.y.a.d.d.d.d.k.c.k.c.c.M.M.C.C.C.C.A.G.G.G.L.L.L.U.W.U.W.W.W.W.U.L.L.L.G.G.G.A.A.C.C.M.M.M.c.c.c.k.k.k.k.k.k.k.c.c.M.M.M.M.C.A.A.A.G.G.L.L.",
"L.U.U.U.U.W.W.U.U.L.L.L.G.G.G.A.C.C.C.M.M.c.c.c.c.k.k.k.d.d.a.a.y.y.q.y.q.q.6.6.6.>.4.4.>.>.>.=.=.=.&.@.@.X.X.X.{ { { ` ` ( ( ( ( E E Y Y Y P P P H H S S C C C M M v v l l l l l v v v M M C C C S S H H P P P Y Y Y E E ( ( E E Y E Y P P P P H S S S C C M M v v v l l l l v v v M M C C S S S S H P P P Y Y E E E E ( ( ( ` ` { { { X.X.X.X.@.@.&.&.=.=.>.=.>.>.4.4.6.6.q.q.q.q.y.y.y.a.d.d.k.d.k.k.k.c.c.M.M.M.M.C.A.A.A.G.G.L.L.L.U.U.W.W.U.U.U.L.L.G.G.G.A.A.C.C.M.M.M.c.c.c.c.k.k.d.d.d.k.k.k.c.c.M.M.M.C.C.A.A.A.G.G.L.",
"G.L.L.L.U.U.U.L.L.L.G.G.G.A.A.A.C.M.M.M.c.c.c.k.k.d.k.d.d.d.d.a.y.y.q.q.q.q.6.6.6.6.4.>.>.>.>.=.=.=.&.&.@.@.@.X.X.X.{ { { { ` ` ` ( ( ( E E E Y Y P P P H H S S S C C C M M M v M M C C C S S S H H H P P Y Y Y E E E ( ( ( ( ( E ( E E E Y Y Y P P P H H S S S C C C M M v M M C C C S S S H H P P P Y Y Y E Y ( ( ( ( ` ` ` { { { { X.X.X.@.@.@.&.&.=.=.>.>.>.4.>.4.6.6.6.6.q.q.q.y.y.y.a.d.d.d.d.k.k.c.c.c.c.c.M.M.C.C.C.A.A.G.G.L.L.L.U.U.U.U.L.L.L.G.G.G.A.A.C.C.M.M.M.c.c.c.k.k.k.d.d.d.k.k.k.k.c.c.c.M.M.M.M.C.C.A.A.G.G.",
"L.U.U.U.W.W.U.U.U.L.L.G.G.G.G.A.C.C.C.C.M.M.M.c.c.c.k.k.k.d.d.d.a.a.a.y.y.q.y.q.q.6.6.6.6.4.4.>.>.=.=.=.&.&.&.&.@.@.X.X.X.{ { ` ` ` ( ( ` ( ( E E E Y Y P P P P H H S S S C C C C C S S S H H P P P Y Y Y E E ( ( ( ( ( ` ` { ` ` ` ` ( E ( E Y Y Y P P P H H H S S C C C C C C S S H H H H P P P Y Y E E ( ( ( ( ( ` ` ` { { { X.X.X.@.@.@.&.&.=.=.=.>.>.4.4.4.4.6.6.q.q.q.q.y.y.y.a.a.a.d.d.d.k.k.c.c.c.c.M.M.M.C.C.C.A.G.G.G.G.L.L.L.U.U.W.W.U.U.U.L.L.L.G.A.A.A.C.C.C.M.M.M.M.c.k.c.c.k.d.k.k.c.c.c.c.M.M.C.C.C.A.A.G.G.G.L.",
"~.~.~._._._._.~.~.~.~.W.W.W.W.U.U.U.L.L.L.G.A.G.G.A.A.A.C.C.C.C.M.M.c.c.c.c.k.k.k.d.k.d.d.d.a.a.y.a.y.y.y.q.q.q.q.6.6.4.4.4.4.>.>.>.>.=.=.=.&.&.&.&.@.@.@.X.X.X.X.X.{ { { { ` ` ` ` { { { X.X.X.X.X.@.@.@.&.&.&.=.=.=.>.>.>.>.>.>.=.>.=.=.&.&.@.&.@.@.X.X.X.X.X.{ { { ` ` ` ` ` { { { X.X.X.@.@.@.@.@.&.&.&.=.=.=.>.>.>.>.>.4.4.4.6.6.6.q.q.q.y.q.y.y.a.a.a.a.d.d.d.k.k.k.k.k.k.c.c.M.M.C.M.C.C.A.A.A.G.G.A.G.L.G.L.L.U.U.U.W.W.W.W.~.~._._._._._.~.~.~.~.W.W.W.W.U.U.U.L.L.G.G.G.A.G.A.A.C.C.C.A.A.A.G.G.G.G.L.L.U.U.U.W.W.W.W.",
"L.U.U.U.U.W.W.W.U.U.L.L.L.G.G.G.A.A.A.C.C.C.M.M.M.c.c.k.c.k.d.d.d.d.d.a.a.y.y.y.y.y.q.q.q.6.6.4.4.4.>.>.>.=.=.=.=.&.&.&.@.@.@.X.X.X.X.{ { { ` ` ` ( ( ( E ( E Y Y Y P P P P P H P P P Y Y Y E E E ( E ( ( ( ` ` { { { { X.X.@.X.X.{ { { ` ` ( ( ( ( E ( E E Y Y Y Y P P P H P P P P Y Y E E E E E ( ( ` ` ` { { { { { X.@.@.@.@.@.&.&.=.=.=.>.>.>.>.4.4.4.6.6.6.q.q.q.q.q.y.a.a.a.a.a.d.d.k.k.k.k.c.c.c.M.M.M.C.C.C.A.A.G.G.G.G.L.L.L.U.U.U.U.W.W.U.U.U.L.L.L.G.G.G.A.A.C.C.C.C.M.M.M.c.c.c.c.c.c.c.M.M.M.C.C.C.A.A.G.G.G.G.L.L.",
"L.L.U.U.U.W.U.U.U.U.L.L.G.L.G.A.A.C.C.C.M.M.M.M.c.c.c.c.k.d.k.d.d.a.a.a.y.y.y.y.q.q.q.6.6.4.4.4.>.4.>.=.>.=.=.=.&.&.&.@.@.X.X.X.X.{ { { { ` ` ( ( ( E E E Y E Y Y Y P P H H S S H H H P P Y Y Y E E E ( ( ( ( ` ` ` ` { { { X.{ { { { ` ` ( ( ( E E E E E Y Y Y P H H H H S H H H P P P Y Y E E E ( E ( ( ( ` ` { { { X.X.X.X.@.@.&.&.&.=.=.=.=.>.>.>.>.4.4.4.6.6.q.q.q.y.y.y.y.a.a.a.a.d.d.d.d.k.c.c.c.c.M.M.M.C.C.C.A.A.G.G.G.L.L.L.L.U.U.U.W.W.U.U.L.L.L.G.G.G.A.A.A.C.M.C.M.M.M.c.c.c.k.k.k.c.c.c.M.M.M.M.C.C.C.A.A.G.G.G.L.",
"U.U.W.W.W.~.W.W.U.U.U.L.L.G.G.A.C.C.M.C.M.c.c.k.k.d.d.d.a.a.y.y.q.q.q.6.6.4.4.>.>.=.=.=.&.@.@.@.X.X.X.{ { ` ` ( ( E E E Y P P P H H S S C C M M v v v l l l g g u y y y w w w 6 w w y y u u g u g l l l v v M M C C S S H H H H S S S C C M M v v v l g g g u y y y y w w 6 6 w y y u u u g g g l l v v M M M C S S S H H P P P Y E E E ( ` ` ` { { { X.X.@.@.&.&.=.=.>.>.>.4.4.6.6.q.q.q.y.a.a.d.d.d.k.k.c.c.c.M.M.C.C.A.A.G.G.L.L.U.U.W.W.~.~.W.W.U.U.L.L.L.G.G.A.A.C.M.M.M.c.c.k.k.k.d.d.a.a.d.k.k.c.c.c.M.C.C.C.A.A.G.G.L.L.",
"W.W.W.W.W.~.W.W.W.U.U.U.U.L.L.L.G.G.G.A.G.A.C.C.A.C.C.M.M.M.M.c.c.c.k.c.k.k.d.d.d.d.d.a.a.a.y.y.y.q.y.q.q.6.6.6.6.4.4.4.4.>.>.>.>.>.=.=.=.=.&.&.@.@.@.@.@.X.X.X.{ { { ` ` ` ( ` ` ` ` { { { { X.X.@.X.@.@.@.&.&.=.=.=.=.=.>.>.>.>.=.=.=.&.&.@.@.@.@.X.X.X.X.{ { { { ` ` ` ` ` ` ` { { { X.X.X.X.X.@.@.@.@.&.&.&.=.=.>.>.>.>.>.4.4.4.4.6.6.6.6.q.q.q.y.y.y.y.y.a.a.a.d.d.k.d.k.k.k.k.c.c.c.c.M.M.M.C.C.C.A.A.A.A.A.G.G.G.L.L.L.L.U.W.U.W.W.W.W.~.W.W.W.W.U.U.U.L.L.L.G.G.G.G.A.A.C.C.A.C.C.M.M.C.C.C.C.C.A.A.G.A.G.G.G.L.L.L.U.U.",
"G.G.L.L.L.L.L.L.L.L.G.G.A.A.A.C.M.C.M.M.c.k.c.k.k.d.d.d.a.a.y.y.y.y.q.q.q.6.6.6.4.4.>.>.>.=.=.&.&.&.@.@.@.@.X.X.X.{ { ` ` ( ` ( ( E E E Y Y Y P P P H H S S S C C C M M M v v v v v M M M C C S S S S H P H P P Y Y E E E ( ( E E E E Y P P P P H H H S S C C C M M v M v v v M M M M C C C S H H H H P P P Y Y E E E E ( ( ( ` ` ` { { X.X.X.@.@.@.@.&.&.=.=.>.>.>.>.4.4.6.6.6.q.q.q.y.y.a.y.a.a.d.d.k.k.k.c.c.c.c.M.C.C.C.A.A.A.G.G.G.L.L.L.L.L.L.G.G.G.G.A.A.C.C.C.M.c.M.c.c.k.k.d.d.d.a.a.d.d.k.k.k.k.c.c.M.M.M.C.C.A.A.A.G.",
"L.U.U.U.W.W.W.W.U.U.L.L.L.G.G.G.A.A.C.C.C.M.M.M.c.c.c.c.k.k.k.d.d.a.a.y.y.y.y.q.q.q.q.6.6.6.4.4.4.>.>.>.=.=.=.&.&.&.@.@.X.X.X.{ { { { ` ` ( ( ( E ( E E E Y P P P P H H S S S S S H H H P P P P Y E E E E ( ( ( ` ` ` { ` { { { { ` ` ` ( ( ( E E E Y Y Y Y P H H H H S S S S S S H H P P P Y Y E E E ( ( ( ( ` { ` { { { X.X.X.X.@.@.@.&.&.=.=.=.>.>.>.>.4.6.6.6.6.q.q.q.q.y.y.a.a.a.a.d.d.k.k.k.c.c.c.c.M.M.C.C.C.A.A.A.A.G.L.L.L.U.U.U.W.W.W.W.U.U.U.L.L.L.G.A.G.A.A.C.C.C.M.M.M.c.c.c.k.k.c.c.c.c.M.M.M.C.C.A.A.G.G.G.G.L.L.",
"U.U.U.U.W.W.U.U.U.U.L.L.G.G.G.A.A.C.C.C.C.M.M.c.M.c.c.k.k.k.d.d.d.a.a.a.y.y.y.y.q.q.q.6.6.4.4.4.>.4.>.>.>.=.=.&.@.@.@.@.@.X.X.X.X.{ { { ` ` ( ` ( E ( E E Y Y Y P P P H H H S S H H H H P P Y Y Y E E E ( E ( ( ( ` ` { { X.{ X.{ ` ` ` ( ( ( ( ( E E E Y Y Y P P H H H S S S H H P P P P Y Y E E E E ( ( ( ` ` ` { { { { X.X.X.@.@.&.&.&.&.=.=.>.>.>.4.4.4.6.6.6.q.q.q.y.y.y.y.y.a.a.a.d.d.k.k.k.k.c.c.c.M.M.M.C.C.A.A.A.G.G.G.L.L.L.U.U.U.W.W.W.U.U.U.L.L.L.G.G.A.A.A.C.C.M.M.M.c.M.c.c.k.c.k.c.c.c.M.M.M.M.C.C.A.A.G.G.G.G.L.",
"L.U.U.U.W.W.W.U.U.L.L.L.G.G.G.A.A.C.C.M.M.M.c.c.c.k.k.k.d.d.d.a.a.y.y.y.q.q.q.6.4.4.4.>.4.>.>.=.=.=.&.@.@.@.X.X.X.{ { { { ` ` ( ( E E E E Y Y Y P P H H S S S C C C M v v v v l v v M M M C C C S H S H P P P P Y Y E E ( ( ` ( E E E Y Y Y P P H H H S C C C M M M v v v l v v v M M C C C S S H H H P P Y Y Y E E ( ( ( ` ` ` ` { { X.X.X.X.@.@.&.&.&.=.=.>.>.4.4.4.6.6.6.6.q.q.y.y.a.a.a.a.d.k.k.k.k.k.c.M.M.M.C.C.C.A.A.A.G.G.L.L.U.U.W.W.U.W.W.U.L.L.L.G.G.A.A.C.C.C.M.M.c.M.c.c.k.k.k.d.k.k.c.c.c.M.M.M.C.C.C.A.A.G.G.G.L.",
"G.L.L.L.U.U.U.U.L.L.G.G.A.A.A.A.C.M.M.c.c.c.k.k.k.d.d.d.a.a.y.y.y.q.q.6.6.6.6.4.4.4.>.>.=.=.&.&.@.&.@.@.X.X.{ { { ` ` ` ( ( E ( E E Y Y Y P H P H H S S C C M M M v v v l l l g g l l v v v M C C C C S S H H P P P Y Y Y E E E E Y Y P P H H H S S S C M C M M v v l l g g l l l v v v M M C C S S S S H P P P Y Y Y E Y E E ( ( ( { ` { { { X.X.@.@.@.&.=.=.=.=.>.>.>.4.4.6.6.6.6.q.q.y.y.a.a.a.d.d.k.k.k.k.c.c.c.M.M.C.C.A.A.A.G.G.L.L.L.U.U.L.L.L.G.G.G.A.A.A.C.C.M.M.M.c.c.k.k.d.d.d.d.a.d.d.d.k.k.k.k.c.c.M.M.C.C.C.A.A.G.",
"L.L.U.U.W.W.U.U.U.L.L.L.L.G.G.A.C.C.C.M.M.M.M.c.c.k.k.k.k.d.d.a.a.a.y.y.y.y.q.q.6.6.6.4.4.4.4.>.>.=.=.=.&.&.&.@.@.X.X.X.{ { { { { ` ` ( ( ( E ( E Y Y Y P P H H S S S C C C M M C C C S S S H H P P P Y Y E E E E ( ( ` ` { ` ` ` ( ( E ( E Y Y Y P P P H H H S S S C C C M C C C S S H H H H P P P Y E E E ( E ( ` ( ` { { { X.X.X.X.@.@.@.&.&.&.=.=.>.>.>.>.4.4.6.6.q.q.q.y.y.y.y.y.a.a.a.d.k.k.k.k.c.c.M.c.M.C.M.C.C.A.G.G.G.G.L.L.U.U.U.W.W.W.U.U.L.L.G.G.G.A.A.A.C.M.M.M.M.M.c.c.c.k.k.d.k.k.c.c.c.M.M.M.C.C.C.A.A.G.G.G.L.",
"L.U.U.W.W.W.W.W.U.U.L.L.G.G.A.A.A.C.C.M.M.c.c.c.k.k.k.d.d.a.a.a.y.q.y.q.q.6.6.4.4.4.>.>.>.=.&.&.&.@.@.@.X.X.{ { { ` ` ` ( ( E E E Y Y Y P H H H S S S C C M M M v v v l g g g g g g l l v v v M M M C S S S H H H P P P Y E E Y Y Y P P H H H S S C C C M M v v l l g g g g g l l l l v v M M C C C S H S H H P P Y Y E E E E ( ( ( ` { { { X.X.X.@.@.&.&.=.=.=.>.>.>.4.4.4.6.6.q.q.q.y.y.a.a.d.d.d.k.k.k.c.c.M.M.M.C.C.A.A.G.G.L.L.U.U.U.W.W.W.W.U.U.U.L.L.G.G.G.A.C.C.M.M.M.c.c.k.k.k.k.d.d.d.k.k.k.c.c.c.M.C.M.C.C.A.G.G.G.L.",
"U.U.W.W.W.W.W.W.W.U.U.L.L.L.L.G.G.A.A.A.A.A.C.C.C.M.M.M.M.c.c.c.k.k.k.d.d.d.d.a.a.a.y.y.y.q.y.q.q.q.6.6.4.4.4.4.>.>.>.=.=.=.=.=.&.&.&.@.@.@.X.X.X.X.{ { { ` ` ` ` ( ( ( E E E E Y E ( ( ( ( ` ` ` { { { X.X.X.X.X.@.@.@.&.&.&.&.&.@.@.@.@.X.X.X.{ { { ` ` ` ( ( ( ( E E E E E E E ( ( ( ( ` ` ` { { { X.X.X.X.@.@.@.&.&.=.=.=.=.>.>.>.>.4.>.4.4.6.6.6.q.q.q.q.y.y.y.y.a.a.a.a.d.d.k.k.k.k.c.c.c.M.M.M.M.C.C.C.C.A.A.A.G.G.G.L.L.U.U.U.U.W.W.W.W.W.W.U.U.U.U.L.L.L.G.G.G.A.A.A.C.C.C.M.M.M.M.c.M.M.M.M.C.C.C.A.A.A.G.G.G.L.L.L.L.",
"L.L.L.U.U.U.U.U.U.L.L.G.G.G.A.A.C.C.C.M.M.c.c.c.c.k.d.k.d.d.a.a.a.y.y.y.q.q.q.q.6.6.6.4.4.4.>.>.>.=.=.=.&.&.@.@.X.@.@.X.X.{ { ` ( ` ( ( E ( E Y E Y Y P P P H H H S C S S C C C C C S S S H H H P P P P Y Y E E ( E ( ( ( ` ` ` ( ` E ( E E Y Y Y Y P P P H H S S C S C C M C C S S S S H H P P P Y Y Y E E ( E ( ( ( ` ` { { { { X.X.@.@.@.@.&.&.=.=.=.>.>.>.4.4.4.4.6.6.q.q.y.y.y.y.y.a.a.d.d.d.d.k.c.c.k.M.c.M.M.C.C.A.A.A.G.G.G.L.L.L.U.U.W.U.L.L.L.L.G.G.A.A.A.C.C.M.M.M.M.c.c.k.k.k.d.d.k.k.k.c.c.c.M.M.M.C.C.A.A.A.G.G.G.",
"L.U.W.U.W.W.W.U.U.U.U.L.G.G.G.A.A.A.C.C.M.M.c.c.c.k.k.d.d.d.d.a.a.y.y.y.q.q.6.q.6.6.4.4.>.>.>.=.=.&.@.@.&.@.X.X.X.{ { ` ` ` ( ( ( E E Y Y Y Y P P H H H S S S C M M M v v v l l v v v M M C C C S S H H H P P P Y Y E Y E ( ( E E E Y Y Y P P P S S S H C C C C M M v v l l v v v M M M C C S S S S H P P P P Y Y E E E E ( ` ` ` { { X.X.X.X.@.&.&.&.&.=.=.>.>.4.>.4.4.6.6.q.q.q.y.y.y.a.a.d.d.k.k.k.k.c.c.M.M.C.M.C.A.A.G.G.G.L.L.L.U.U.W.W.W.W.W.U.U.L.L.L.L.G.G.A.C.C.C.M.M.c.c.c.k.k.k.d.k.k.k.c.c.c.M.M.C.C.C.A.G.G.G.L.L.",
"W.W.W.~.~.~.~.~.W.W.U.U.U.L.L.L.G.G.A.A.A.C.C.C.M.M.M.M.c.c.k.k.k.k.d.d.d.a.a.y.y.q.q.q.q.q.6.6.6.4.4.4.>.>.=.=.=.&.&.&.&.@.@.X.X.X.X.X.{ { ` ` ( ( ( E ( E E Y Y Y P P P H H H H P P P P Y Y E E E E ( ( ( ` { { { { X.{ X.X.X.X.X.{ { ` ` ` ( ( ( ( E E Y Y Y P P P H H H H H P P Y Y Y E E E ( ( ( ( ` ` { { { X.X.X.@.@.@.@.@.&.&.=.=.=.>.>.>.4.4.4.6.6.q.q.q.q.y.y.y.a.a.a.d.d.d.k.k.c.c.c.c.M.M.M.M.C.C.C.A.A.G.G.L.L.L.L.U.U.W.W.W.~.~.~.W.W.W.W.U.U.U.L.L.G.G.G.A.A.A.C.C.M.C.M.c.M.c.M.M.M.M.C.C.A.A.A.G.G.L.L.L.U.U.U.",
"L.L.L.U.W.U.W.U.L.L.L.G.G.G.A.A.A.C.C.M.c.M.c.c.c.k.k.k.k.d.a.a.a.y.y.y.q.q.6.6.6.4.4.4.4.>.>.>.=.=.=.&.&.@.@.@.X.{ X.{ ` { ` ` ( ` ( E E E E Y Y Y P P P H H H S S C C C M M M M M C C C S S S H H P P Y Y Y E E E ( ( ( ` ` ( ( ( E E Y Y Y Y P P P H H H S S C C C M M M M M C C C S S H H P P P P Y Y Y E E E ( ( ( ` ` ` { { { X.X.X.@.@.&.&.&.=.=.>.>.>.4.4.4.6.6.6.q.q.q.q.y.y.y.a.a.d.d.d.k.k.k.c.c.c.M.C.M.C.C.C.A.G.G.G.L.L.L.U.U.U.W.U.U.L.L.L.L.G.G.A.A.C.C.C.M.M.c.c.c.c.k.k.d.d.k.k.k.k.c.c.c.M.M.C.C.A.A.A.G.G.G.",
"L.L.U.U.U.W.U.U.L.L.L.L.G.G.G.A.A.C.M.M.M.M.c.c.c.k.k.k.d.d.d.d.a.y.y.y.y.y.y.q.q.q.6.4.4.4.4.>.>.>.=.=.&.&.&.@.@.@.@.X.X.X.X.{ { ` ` ` ` ( ( ( E E E Y Y P P H P H H S S S C C C S S S H H P P P Y Y Y E E E ( ( ( ( ` ` ` ` { ` ( ` ( ( ( ( E E Y Y Y P H H H H S S S C C C S S S H H H P P P Y Y E E E ( ( ( ( ` ` ` { { { X.X.@.@.@.@.@.&.=.=.=.>.=.>.>.4.4.4.4.6.6.q.q.y.q.y.a.y.a.a.a.d.d.k.k.c.c.c.c.M.M.M.M.C.A.C.A.G.A.G.G.L.L.U.U.U.W.U.U.L.L.L.G.G.G.A.A.A.C.M.M.M.M.M.c.c.k.k.k.d.k.k.c.c.M.M.M.M.C.C.C.A.A.A.G.G.L.",
"W.W.W.~.~.~.~.~.~.W.W.U.U.U.U.L.L.L.G.L.G.G.G.A.A.A.A.C.C.C.M.C.M.M.c.c.c.k.c.k.k.k.k.d.d.a.a.a.y.a.a.y.y.y.q.q.q.6.6.6.6.4.4.4.>.4.>.>.=.>.=.=.=.=.&.&.&.&.@.@.X.X.X.X.{ { { { { { X.X.X.@.@.@.&.&.&.&.&.&.=.=.=.=.>.>.>.4.4.>.>.>.=.>.=.=.=.=.&.&.&.@.@.@.@.@.X.X.{ { { ` { X.X.X.X.@.@.@.@.&.&.&.&.&.=.>.=.>.>.>.>.4.>.4.4.6.6.6.q.6.q.q.y.q.y.y.a.a.a.a.d.d.d.d.k.k.k.k.k.c.c.c.c.M.M.M.M.C.C.C.A.A.A.G.A.G.G.G.L.L.U.U.U.U.W.W.W.~.W.~.~.~.~.~.W.~.U.W.U.U.U.L.L.L.L.G.G.G.A.A.A.A.A.C.C.C.A.A.A.A.A.G.G.G.G.L.L.U.U.U.U.W.",
"U.U.W.U.W.W.W.U.U.U.U.L.L.L.G.G.G.A.A.C.C.C.M.M.M.c.c.c.k.k.k.d.d.d.d.a.a.y.y.y.q.q.q.q.q.6.6.4.4.4.>.>.>.>.=.=.&.&.&.&.@.@.X.X.X.{ X.{ { ` ` ` ( ( E ( E E Y Y Y P P P P H H H H P H P P Y Y E Y E E ( ( ( ` ` { { { { { X.X.{ X.{ { { ` ` ( ( ( ( E E E Y Y Y P P P H H H H H H P P Y Y Y E E ( E ( ( ` ` ` ` { { X.{ X.X.@.@.@.@.&.&.=.=.=.>.>.>.>.4.4.4.6.6.6.q.q.y.q.y.y.a.a.a.d.d.d.k.k.k.k.c.c.c.M.M.M.M.C.A.A.A.G.G.G.L.L.L.U.U.U.W.W.W.W.W.U.U.L.L.L.G.G.G.G.A.A.C.C.M.M.M.M.M.c.c.k.c.c.c.c.M.C.C.C.A.A.A.A.G.L.L.L.L.",
"U.U.W.U.W.W.W.W.W.U.L.L.L.L.G.G.A.A.A.C.C.C.M.M.M.c.c.c.k.k.k.k.d.d.a.a.a.a.y.q.y.q.q.q.6.6.6.6.4.4.4.>.>.>.>.=.=.&.&.@.@.@.@.X.X.X.{ { { { ` ` ` ( ( ( E E E E Y Y Y P P H H H P P P P Y Y Y E E ( ( ( ( ( ` { { { { { X.X.X.X.{ { { ` ` ` ` ( ( E ( E E E Y Y Y P P P H H H P P Y Y Y Y E E E E ( ( ` ` ` { { { { { X.X.X.@.@.&.&.&.&.=.=.=.>.>.4.>.4.4.6.6.6.6.q.q.q.y.y.y.a.a.a.d.d.k.k.k.c.c.c.c.M.M.M.M.C.C.A.A.G.G.G.G.L.L.L.U.U.U.W.W.W.W.U.U.U.U.L.L.G.G.G.A.A.C.C.C.C.M.M.c.c.c.c.k.c.M.M.M.M.C.M.C.C.A.A.A.G.G.L.L.L.",
"U.U.U.W.W.~.W.W.W.U.U.U.L.L.G.G.G.A.A.A.C.M.M.M.c.M.c.c.c.k.k.k.d.d.a.a.y.y.y.y.q.q.q.6.6.6.4.4.>.>.>.>.=.=.=.=.@.&.@.@.X.X.{ X.{ { ` ` ` ` ( ( E E E Y Y Y P P P H H S S S C C C S H H H P H P P Y Y E E E E ( ( ( ` ` ` { { { { ` ` ( ( ( ( E E Y Y Y Y P H H H H S S S C C S S H H H P Y Y Y Y E E E E ( ( ( ` ` { { { X.X.X.X.@.@.@.&.&.=.=.>.>.>.>.4.4.4.6.6.q.q.q.q.y.y.y.y.a.d.d.d.d.k.k.k.c.c.c.M.M.M.C.C.A.A.A.A.G.G.L.L.U.U.U.W.W.W.~.W.W.W.U.U.L.L.L.G.G.G.A.A.A.C.M.M.M.M.c.c.c.c.k.c.c.M.c.M.C.C.C.G.A.G.G.G.L.L.U.",
"G.G.L.U.U.U.U.L.L.G.G.A.A.C.C.C.M.M.c.k.k.d.k.d.a.a.y.y.y.q.6.6.6.4.4.>.>.=.=.=.&.@.@.@.@.X.{ { { ` ` ( ( E E Y Y Y P H H S S S C C M M v v l l l g g g u u y y w w 6 6 2 2 < < < 2 6 6 6 w w y y u u g g l l l v v M M M C C C M M M v l v l g g g u u y y w w 6 6 2 2 < < 2 2 6 6 6 w w y y y u g g g g l v v v M M C C S S S H H P Y Y E E ( ( ( ` ` ` { { X.@.@.@.&.&.&.=.=.>.4.4.4.6.6.q.q.y.y.a.a.a.d.d.k.k.c.c.c.M.C.C.A.A.A.G.G.L.L.U.U.U.L.L.G.A.A.A.C.C.M.M.c.c.k.k.d.d.a.a.a.y.y.y.y.a.a.a.a.d.d.k.k.c.M.M.C.C.A.A.G.",
"L.U.U.U.U.W.W.U.U.L.L.L.G.G.A.A.A.A.C.M.M.M.M.c.c.c.k.k.d.k.d.d.d.a.a.y.y.y.y.q.q.q.6.6.4.4.4.>.>.>.>.=.=.&.=.&.@.@.@.X.X.X.{ { { ` ` ` ( ( ( E E ( Y Y E Y P P H H H H H S S C S S S H P H P P Y Y Y E E E E ( ( ( ( ` { { { ` ` ` ( ( ( E E E E E Y Y P P H H H H S S S C S S S H H H P P Y Y Y E E E ( E ( ( ` ` ` { { { X.X.X.@.@.@.&.&.=.=.=.>.>.>.4.>.4.4.6.6.6.q.q.q.y.y.y.y.a.a.d.d.d.d.k.k.k.c.c.M.M.M.M.C.C.A.A.A.G.G.L.L.L.U.U.U.W.W.U.U.U.L.L.L.G.G.G.A.A.C.C.C.M.M.M.c.c.c.k.k.k.k.k.c.c.c.M.M.C.C.C.C.A.A.A.G.G.L.",
"G.L.L.L.L.U.U.L.L.G.G.G.A.A.C.C.M.M.M.c.c.k.k.k.k.d.d.d.a.y.y.y.q.q.q.6.6.4.4.4.4.>.>.=.=.&.&.&.@.@.X.X.X.{ { ` ` ` ( ( ( ( E E Y Y Y P P P H H H S S C C C M v v v l l l g u g g l l l v M v M M C C S S H H H H P P Y Y Y Y Y Y P P P P H H S S C C C M M M v v l l g g g g g l l v v v M M C C S S S H H H P P P Y Y E E E ( ( ( ` ` ` { { X.X.X.@.@.@.&.&.=.=.>.>.4.>.4.4.6.4.6.q.q.y.y.a.a.a.a.d.d.d.k.k.c.c.c.M.M.M.C.C.A.A.G.G.L.L.L.U.U.L.L.L.G.G.G.A.A.C.C.M.M.c.c.c.c.k.k.d.d.d.a.a.a.d.d.k.k.k.k.c.c.M.M.C.C.C.A.A.G.",
"U.U.U.W.W.~.W.W.U.U.L.L.L.G.G.G.A.A.C.C.C.M.M.M.c.c.c.k.k.k.d.d.a.a.a.y.y.y.q.q.6.q.6.6.4.4.4.>.>.>.=.=.&.&.&.@.@.X.X.X.{ { { ` ` ` ( ( E ( E E Y Y P P H H H H S S C C C C M M M M C S C S S H H H P P P Y E E E E ( ( ` ` ` ` ` ( E E E E Y Y P P H H H H S S C C C M M M M M C C C S H S H H H P P Y E E E ( ( ( ( ` ` { { { { X.X.X.@.@.@.&.&.&.=.=.>.4.>.4.4.6.6.6.q.q.q.y.y.y.a.a.a.d.d.k.k.k.c.c.M.M.M.C.C.C.C.A.A.G.G.G.L.L.U.U.U.W.W.~.W.W.U.U.U.L.L.G.G.A.A.A.A.C.C.M.M.M.c.c.c.k.k.k.c.c.c.M.M.C.C.C.C.A.A.G.G.G.L.L.",
"L.L.U.U.W.U.U.U.U.U.L.L.G.G.A.A.A.C.M.M.M.M.c.c.c.c.k.k.d.d.d.a.a.a.y.y.q.q.q.q.6.6.4.4.4.>.>.>.>.=.=.=.&.&.@.@.@.X.X.X.X.{ { { { ` ` ( ( ( E E E Y Y Y P P P H H S C S C C M C C C C S S S H H P P P P Y Y E E ( ( ` ( ` ` ` ` ( ( ( ( E E Y Y Y Y P P H H S S S C C C M C M C C S S H H H H P P Y Y Y E E E ( ( ( ` { ` ` { X.X.X.X.@.@.@.@.&.&.=.=.>.>.>.>.4.4.6.6.6.6.q.q.q.y.y.y.a.a.a.d.d.k.k.k.c.c.c.c.M.M.M.C.C.A.A.G.G.G.L.L.L.U.U.W.U.U.U.U.L.L.G.G.G.A.A.A.C.C.M.M.c.c.c.c.k.k.k.k.k.k.k.c.c.M.c.M.M.C.C.C.A.A.G.G.L.",
"G.L.L.U.U.U.U.U.L.L.G.G.A.A.C.C.C.C.M.M.c.c.c.c.k.d.d.d.d.d.a.y.y.q.y.q.q.6.6.4.4.4.4.>.>.>.=.=.=.&.@.@.@.X.X.X.{ { { ` ` ( ( ` ( E E E Y P P P P H H S S S C C C M M M v l l l l v v M M C C C C S H H H P P P P Y E E E E ( ( E E Y Y Y Y P P H H S S C C C M M M v v v l l v v M M M C C C S S H H P P P Y Y Y Y E E ( ( ( ` ` ` { { { X.@.X.@.@.&.&.=.=.=.>.>.>.4.4.6.6.6.q.q.q.q.y.y.y.a.a.d.d.d.k.k.k.c.c.c.M.M.C.C.A.A.A.G.G.L.L.L.U.U.U.U.L.L.L.G.G.A.A.A.C.C.M.M.M.c.c.c.k.k.k.d.d.a.d.k.k.k.k.c.c.c.M.M.M.C.C.A.A.G.G.",
"G.G.L.L.U.U.L.L.L.G.G.A.A.A.A.C.M.M.c.c.c.k.k.k.k.d.d.a.a.a.y.y.q.q.q.6.6.6.6.4.4.>.>.>.=.=.=.&.@.@.@.X.X.{ { { { ` ` ` ( E ( E E E Y Y P P P H H S S S C C M M M v v l l l g g l l l v v v M M C C C S H H H P P P Y Y E E E E Y Y Y P P H H S S S C C M M M v v l l l g g g l l v v v M M C C S S S H H H P P Y Y Y E E ( E ( ( ( ` ` { { { X.X.X.@.@.&.&.=.=.=.>.>.>.4.4.4.6.6.q.q.q.q.y.y.a.a.d.d.k.k.k.c.c.c.c.c.M.M.C.C.C.A.G.G.G.L.L.L.U.U.L.L.G.G.A.A.A.C.M.M.M.c.c.c.k.k.k.d.d.d.a.a.d.d.d.k.k.k.c.c.c.c.M.M.C.C.A.A.A.",
"L.L.U.U.U.W.W.U.U.L.L.L.G.G.A.A.C.C.M.M.M.c.c.k.k.k.k.d.a.a.y.y.y.y.q.q.q.6.6.4.4.>.>.>.>.=.=.=.&.@.@.X.X.X.X.{ { ` ` ( ( ( E E Y Y Y Y P P H H H S S C C M M v v v l l g g g g g g l l v v v M M M C S S S S H H P P Y Y E E E Y Y P P H H H S S C C M M M v v l l l g g g g g l l l v v v M M C C S S H H H P P Y Y E E E ( ( ( ` ` { { { { X.X.@.@.@.&.&.=.=.>.>.4.4.4.4.6.6.6.q.q.y.y.y.a.d.d.d.d.k.k.c.c.c.M.M.C.C.A.A.A.G.G.L.L.L.U.U.W.W.U.U.U.L.L.L.G.G.A.C.C.C.M.M.M.c.c.k.k.k.d.d.a.d.k.k.k.c.c.c.M.M.C.C.A.A.A.G.G.L.",
"L.L.U.W.W.W.W.U.U.L.L.L.G.G.A.A.A.C.C.M.M.M.c.c.k.c.k.d.d.a.a.a.a.y.y.y.q.q.q.6.6.6.4.4.>.>.=.=.&.&.&.@.@.X.X.X.X.{ { { ` ` ` ( ( ( E E Y Y P P P H H H S S C C C M M v v v l l l v v M M M C C C S S H H P P P Y Y E E ( E ( ( E E Y Y Y P P H H H S S C C C M M M v v l l v v v M M M C C S S S H H H P P Y Y E E E ( ( ( ` ` ` { { X.X.X.@.@.@.&.&.&.&.=.>.>.>.4.4.4.6.6.q.q.y.y.y.a.a.a.a.d.d.d.k.c.c.c.M.M.M.M.C.C.A.A.G.G.G.L.L.U.U.W.W.W.W.U.U.U.L.G.G.G.A.A.C.C.C.M.M.c.M.c.c.k.k.k.d.k.k.c.c.c.M.M.M.M.C.C.C.A.G.G.G.L.",
"G.L.L.L.U.U.U.L.L.L.G.A.A.A.A.C.M.M.M.c.c.c.k.k.k.d.d.d.a.y.y.y.q.q.q.6.6.6.4.4.>.>.>.=.=.=.&.&.@.@.@.X.X.X.{ { ` ` ` ( ( ( E E Y Y Y Y P P H H H S C C C M M M v v v l l l g g g l l l v v v M M C C C S S H H P P P Y Y E Y Y Y Y P P H H H S C C C M M M v v v l l g g g g g l l l v v M M M C S S S H H H P P Y Y Y E E ( E ( ( ` ` ` { { { X.X.X.@.@.&.&.=.=.>.>.>.4.4.6.6.6.6.q.q.q.y.y.y.d.d.d.k.d.k.k.c.c.c.M.M.C.C.A.A.G.G.G.L.L.L.U.U.U.L.L.G.G.G.A.A.C.C.M.M.M.c.c.c.k.k.d.d.d.a.a.a.d.d.d.k.k.c.c.c.M.M.C.C.A.A.A.G.",
"L.L.L.U.W.W.U.U.U.L.L.G.G.A.A.A.C.C.C.M.c.c.c.k.k.k.d.d.d.a.y.y.y.q.q.q.6.6.6.4.4.>.>.>.=.=.&.&.&.@.@.@.X.X.X.{ ` ` ` ( ( E ( E E Y Y Y P H H H S S S C C M M M v v v l l l g g g l l l v v v M C M C C S S H H H P P P Y E E Y Y Y P P H H S S S C C C M M v v l l l g g g g g l l v v M M M C C C S S H H P H Y Y Y Y E E ( ( ( ( ` ` { { X.X.X.@.@.@.&.&.&.=.>.=.>.4.4.6.6.6.6.q.q.y.y.y.a.a.d.d.d.k.k.c.c.M.M.M.M.C.C.A.A.A.G.G.L.L.L.U.U.W.U.U.L.L.G.G.G.A.A.A.C.M.M.M.c.c.c.k.k.k.d.a.a.d.d.k.k.k.c.c.c.M.M.M.C.A.A.A.G.G.",
"W.W.W.~.~.~.~.~.W.W.W.U.W.U.U.L.L.G.G.G.G.A.A.A.A.C.C.M.M.M.M.M.c.c.c.k.k.k.k.d.d.d.d.a.a.a.y.y.y.q.q.q.6.6.6.4.4.4.4.4.4.>.>.=.=.=.&.&.&.@.@.@.@.@.X.X.X.{ { { ` ` ` ( ( E ( E ( ( ( ` ` ` { { { { X.X.X.@.@.@.@.&.&.&.=.=.=.=.=.=.&.&.&.@.@.@.X.X.X.{ { { { ` ` ` ( ( ( E ( ( ( ( ` ` ` { { { X.X.X.@.@.@.@.&.&.&.=.=.=.>.>.>.4.>.4.4.4.6.6.6.6.q.q.y.q.y.y.y.a.a.a.d.d.d.k.k.k.c.c.c.c.M.M.M.M.C.C.C.C.A.A.A.G.G.L.G.L.L.U.U.U.W.W.W.W.~.~._.~.~.W.W.W.W.U.U.U.L.L.L.G.G.A.G.A.A.C.C.C.C.C.M.C.C.A.A.A.G.G.G.G.G.L.L.U.U.U.W.",
"U.U.W.W.~.~.~.~.W.U.U.U.L.L.L.G.G.A.A.C.C.C.C.M.M.c.c.c.k.k.k.d.d.a.a.y.y.y.q.q.q.q.6.6.4.4.4.4.>.>.=.=.&.&.&.@.X.X.X.X.{ { { ` { ` ( ( ( E E E Y Y Y P H H H S S S C C C M M v M M C S C S S H H P P P Y Y Y E E ( ( ( ` ` ` ` ( ( ( E E E Y P Y P P H H H S S C C C M v M M C C C C S S H H H H P Y Y Y Y E ( ( ( ( ` ` { { X.{ X.X.X.@.@.&.&.=.=.>.>.>.4.4.4.6.6.6.q.q.q.y.y.y.y.a.a.d.d.k.k.c.c.c.c.M.M.M.C.C.A.A.A.G.G.L.L.L.U.U.W.W.W.~.~.~.W.W.U.U.U.L.L.G.G.A.G.A.C.C.M.M.M.c.c.c.k.c.c.c.c.M.M.C.C.C.A.A.A.G.G.L.L.U.U.",
"L.L.U.U.U.U.U.U.L.L.L.G.G.A.A.A.C.C.C.M.M.c.c.c.k.k.k.d.d.d.a.a.a.a.y.y.y.q.q.q.6.6.6.4.4.>.>.>.>.=.=.=.&.&.@.@.@.@.@.X.X.{ { { { ` ( ( ( ( ( E E E Y P P P P P H H H S C C C C C C S S H H H P P Y P Y E Y ( E E ( ( ( ` ` { ` ` ( ( E ( E E E Y Y P P H H H H S S S C C C C C S S H H H P P P Y Y E E E E E ( ( ( ( ` ` { { { X.X.X.@.@.@.&.&.=.=.=.=.>.>.>.4.4.6.6.6.q.6.q.q.y.y.y.a.a.a.a.d.k.d.k.k.c.c.c.M.M.M.C.C.A.A.A.G.G.G.L.L.L.U.U.U.U.L.L.L.L.G.G.A.A.C.C.C.M.M.M.M.c.c.c.k.k.k.d.d.k.c.k.c.c.c.M.M.C.C.C.A.A.G.G.G.",
"G.G.L.U.U.U.U.U.L.G.G.G.A.C.C.C.M.M.M.c.c.k.k.k.d.d.a.a.y.a.y.q.q.6.6.6.4.4.4.>.=.>.=.&.&.@.@.@.X.X.X.{ { { ` ` ( ( E E E Y Y P P H H H S S S C C M M M v v l l l g g g u u y y y u u g g l l l v v M M M C C C S S H H H P P H H H H S S S C M C M v v v l l l g g u u u y y u u g g l l l l v M M M M C C S S S H H P P Y Y E E ( ( ( ` ` { { { X.X.X.@.@.@.&.&.=.=.=.>.4.4.4.4.6.6.q.q.q.y.y.a.a.a.d.d.k.k.k.c.c.M.M.C.C.C.A.A.G.G.L.L.U.U.U.U.L.L.L.G.G.A.C.C.C.M.M.c.c.c.k.k.k.d.d.a.a.y.a.a.d.d.k.k.k.c.c.M.M.M.C.C.A.A.G.",
"G.L.L.U.U.W.U.U.L.L.G.G.A.C.C.M.M.c.c.k.k.k.d.d.a.a.y.y.q.q.6.6.6.4.4.>.=.=.=.&.&.@.@.X.X.X.{ ` ` ( ( ( E E Y Y P P P H H S C C C M M v v l g g g g u y y w w w 6 2 2 < < < ; ; ; < 2 2 2 6 6 w w w y u u g g g l v v v M M C M M v v l l g g u u y y w w 6 6 6 2 < < < ; ; ; < < 2 2 6 6 6 w w y y u u g g l l v v M M C C S S S H H P P Y E E E ( ( ( ` { { { X.X.@.@.&.&.=.=.>.>.4.4.6.6.q.q.q.y.y.a.d.d.k.k.k.c.c.M.M.M.C.A.A.G.G.L.L.U.W.U.U.U.L.G.G.G.A.A.C.M.M.M.c.k.k.d.d.a.a.a.y.y.y.y.a.y.d.d.d.k.k.c.c.c.M.M.C.A.A.A.",
"U.U.U.U.W.W.W.U.U.U.L.L.L.G.G.G.A.A.C.A.C.M.C.M.M.c.c.k.c.k.k.k.d.d.a.a.a.a.y.y.y.q.q.q.6.6.6.4.4.4.4.>.>.>.>.=.&.&.&.&.&.@.@.@.X.X.{ { { ` ` ` ` ` ` ( E E E E Y Y Y Y P P H H P P P Y Y Y E E E E ( ( ` ` ` ` ` { { X.X.X.X.X.{ { { { { ` ` ` ( ( ( ( E E E Y Y P P P P H P P P P Y Y E E E ( ( ( ` ` ` ` ` { { { X.X.X.@.@.@.@.&.&.=.=.>.=.>.>.4.4.4.6.6.6.6.q.q.q.y.y.y.y.y.a.a.d.d.k.k.k.k.c.c.c.M.M.M.M.C.C.C.A.A.G.G.G.G.L.L.U.U.U.W.U.W.W.U.U.U.L.L.L.G.G.G.G.A.A.C.C.M.C.M.c.c.c.c.k.c.c.M.M.M.M.C.C.C.A.A.G.G.G.G.L.L.",
"L.U.U.W.U.W.W.U.U.U.L.L.L.G.G.G.A.A.C.M.M.M.M.c.c.c.c.k.k.k.d.d.d.d.y.y.y.q.y.q.q.q.6.6.6.4.4.4.>.=.>.=.=.&.&.&.@.@.X.X.X.X.{ { { ` ` ` ( ( ( ( E E Y Y Y Y P P P H H S S C S C S S S H H P P P Y Y Y Y Y E ( E ( ( ( ` ` ` { { ` ` ( ( ( ( E E E Y P P P P H H H H S S C C C S S H H H P P Y Y Y E E E ( E ( ( ` ` ` { { { { X.X.X.@.@.@.&.&.=.=.=.>.=.>.4.4.4.4.6.6.q.q.q.y.y.y.a.a.a.d.d.d.k.k.k.k.c.c.c.M.M.M.C.C.A.A.G.G.G.L.L.U.U.U.U.W.W.W.U.U.L.L.L.G.G.A.A.A.A.C.C.M.M.M.c.c.c.k.k.k.k.k.c.c.c.M.M.M.C.C.C.A.G.G.G.L.L.",
"U.U.W.W.~.~.W.W.W.U.L.L.L.G.G.A.C.C.M.M.M.c.c.k.k.k.d.d.a.y.y.q.q.q.q.6.6.4.4.>.=.=.=.=.&.&.@.X.X.{ { { ` ` ( ( E E E Y P P H P S H S C C C M M v l l l g u g u y y w w 6 6 2 6 6 w w w y y y u g g g l v v v M M C C S S H H S S S C C M v v v l l g g u u u y y w w 6 6 2 6 6 6 w w y u u u g g l l l v M M M C C S H H H P P Y Y E E ( ( ( ` { ` { X.X.X.@.&.&.=.=.=.>.>.4.6.6.6.6.q.q.y.y.y.a.d.k.k.k.k.c.M.M.M.C.C.A.A.G.G.L.L.U.U.W.W.~.~.W.W.U.U.L.L.L.G.A.A.C.C.C.M.M.c.c.k.k.k.d.a.a.d.d.d.k.c.c.c.M.M.C.C.C.A.G.G.L.L.",
"G.L.L.L.U.U.U.L.L.L.G.G.A.A.A.C.M.M.M.c.c.c.k.k.k.d.d.a.a.a.a.y.y.q.q.6.6.6.4.4.4.4.>.>.=.=.&.&.&.@.@.X.X.X.{ { { { ` ` ( ( ( E E E Y Y P P H H H S S S C C C M M v v v v l l g l l l v v M M M M C C S S H H H H P Y Y Y E E E Y Y P P P H H H S C C C C M M M v l l l l g l l v v v M M M C C S S S H H P P P P Y Y E E ( ( ( ( ( { { { { { X.X.@.@.@.&.=.&.=.>.>.>.4.4.4.4.6.6.q.q.y.y.y.a.a.a.d.d.d.k.k.k.c.c.c.M.M.C.C.A.A.G.G.G.G.L.U.U.U.U.L.L.L.G.G.A.A.C.C.M.M.c.c.c.c.k.k.k.d.d.d.a.a.d.k.k.k.c.c.c.c.M.M.M.C.C.A.A.G.",
"G.L.L.L.U.W.U.L.L.G.G.G.G.A.A.C.M.C.M.M.M.M.c.c.k.k.k.d.d.d.a.a.y.y.y.y.q.q.6.6.6.4.4.4.>.4.>.>.=.=.&.&.@.@.@.@.@.X.X.X.{ { ` ` ` ` ( ( ( E E Y Y Y P P P H H S S S C C C M M v M C C C S S S H H H P P P Y E Y E E ( ( ( ` ` ` ( ( ( E Y E Y Y Y P H P H H S C C C C M C M M C C C S S H H H P P P P Y Y E E E ( ( ( ` ` ` ` { { X.X.X.X.@.@.@.&.&.=.=.=.>.>.>.4.4.6.6.6.q.q.q.y.y.y.y.y.a.a.d.d.k.k.k.k.c.c.M.M.M.M.M.C.C.A.A.G.G.L.L.U.U.U.U.U.L.L.G.G.G.G.A.A.C.C.M.M.M.c.c.c.c.k.k.k.d.d.k.d.k.k.c.c.c.M.M.M.C.C.C.A.A.G.G.",
"L.L.L.U.U.U.U.U.L.L.L.G.G.A.A.C.C.C.M.M.c.c.k.c.k.k.k.d.a.a.y.y.y.y.q.q.q.q.6.4.4.4.>.>.>.=.=.&.&.&.&.@.@.X.X.{ { { ` ` ` ( ( ( E E Y Y Y Y P P P H H S S C C C M M M v v l l l l v v v M M M C C S S H H H P P Y Y Y E E E ( E E E Y Y P P P H H S S C C M C M v M v l l l l l v v v M M C C S S H H H P P Y Y Y Y E E E ( ( ( ` ` { { { X.X.X.@.@.@.&.=.=.>.>.>.>.>.4.4.6.6.6.6.q.q.y.y.y.a.a.d.d.d.k.k.k.c.c.c.M.C.C.C.C.A.A.A.G.L.L.L.U.U.U.U.U.L.L.G.G.G.A.A.C.C.M.M.M.M.c.c.k.k.k.k.d.d.d.d.k.k.c.c.c.c.M.M.M.C.C.A.A.G.G.",
"G.G.G.L.L.U.L.L.L.G.G.G.A.A.C.C.M.M.M.c.c.k.k.d.k.d.a.a.a.y.y.y.q.q.6.q.6.6.4.4.4.>.>.=.=.=.=.&.&.@.@.X.X.X.{ { { ` ` ( ( ( E ( ( Y Y Y Y P P P H H S S C C C M M v v v l l l l l l l v v M M C C C C S S H H P P P Y Y Y E E E Y Y P P P P H S S S C C M M M M v v l l l l l l l v v M M M C C C S H H H H P Y Y Y Y E E E ( ( ( ` ` ` { { { X.X.@.@.&.&.&.=.=.=.=.>.4.4.4.4.6.6.6.q.y.y.y.y.a.a.d.d.d.k.k.k.k.c.c.M.M.C.C.C.A.A.G.G.G.L.L.L.L.L.L.G.G.G.A.A.C.C.C.M.M.c.c.c.k.k.k.d.d.d.a.a.d.d.d.k.k.k.k.c.c.c.M.M.C.C.A.A.A.",
"U.U.W.W.W.W.W.W.U.U.U.U.L.G.G.A.G.A.C.C.C.C.M.M.M.c.c.k.k.k.k.d.a.a.a.a.y.y.y.q.q.q.6.4.6.4.4.>.>.=.=.=.&.&.&.@.@.X.X.X.{ { { { ` ` ( ( ( E E Y Y Y P P P H H S S S S C C M M M M C C C S S S H H H P P Y Y E E E E ( ( ` ` { ` ( ( ( E E E Y Y Y P P H H H S S S C C M M M M M C C C S H H H H P P P Y Y E E E ( ( ` ` { { { { X.X.X.@.@.@.&.&.&.&.=.=.>.>.>.4.6.6.6.6.q.q.q.y.y.a.a.a.d.d.d.k.k.k.c.c.M.M.M.C.C.A.C.A.A.G.G.L.L.U.U.U.W.W.W.~.W.W.W.U.U.L.L.L.G.A.A.A.A.C.C.M.M.c.M.c.k.k.k.k.c.M.c.M.M.C.C.A.A.A.G.G.G.L.L.U.",
"U.W.W.W.~.~.~.W.W.W.U.U.U.L.L.L.L.G.G.A.A.A.C.C.C.C.M.M.M.M.c.c.c.c.k.k.d.k.d.d.a.a.a.a.y.y.q.y.q.q.q.6.6.6.4.4.4.>.4.>.>.=.>.=.=.=.&.&.&.@.@.@.@.X.X.{ { { { { ` ` ` ( ( E E E E ( ( ( ` ( ` ` { { { X.X.X.@.@.&.&.&.&.=.=.=.=.&.&.&.@.@.@.@.X.X.X.{ { { ` ` ` ( ( ( ( E ( E ( ( ( ` ` ` ` { { X.{ X.@.@.@.@.@.@.&.=.=.=.=.>.>.>.>.>.4.4.4.4.6.6.q.q.q.y.y.y.y.a.a.a.d.d.d.d.k.d.k.k.c.c.c.c.M.M.M.C.C.C.C.C.A.A.G.G.L.L.L.L.U.U.U.W.W.W.W.~.~.W.W.W.W.U.U.U.L.L.L.G.G.A.G.A.C.A.C.C.C.C.M.M.M.M.C.C.C.C.A.A.A.G.G.L.G.L.L.U.U.",
"U.W.W.W.~.~.~.W.W.U.U.U.L.L.G.G.A.A.A.C.C.M.M.M.c.k.k.k.d.d.d.a.a.y.y.q.q.q.q.6.6.4.4.>.>.>.=.&.&.&.@.@.@.X.X.{ { { ` ` ` ( ( E E E Y Y P P H H S S S C C M M M v v l l l g g g g l l l v v M M C C C S S H S H H P Y Y E E E Y Y Y P P P H H S S C C C M M M v l l l g g g g g l l l v v M M C C C S S H H H P P Y E E E E ( ( ` ` { { { { X.X.@.@.@.&.&.=.=.=.>.>.4.4.6.6.q.q.q.y.y.y.a.d.d.k.d.k.k.c.c.c.M.C.C.C.A.A.A.G.G.L.U.U.U.W.W.W.~.~.~.W.W.U.U.U.L.L.G.G.G.A.C.C.C.M.M.c.c.k.k.k.d.k.k.c.c.c.M.M.C.C.A.A.G.G.L.L.L.U.",
"L.U.U.W.W.W.W.U.U.U.L.L.G.G.G.A.C.C.C.M.M.M.c.c.c.k.k.k.k.d.d.a.a.y.y.q.q.q.q.6.6.4.4.>.>.>.=.>.=.&.&.&.@.@.@.X.{ X.{ { { ` ` ( ( E E E Y Y Y P P P H H S S S C C M M v v v v l v v v M M M C S S S S H H P P P Y Y Y E ( ( ( E E E E Y Y Y P H H H S S S C C M M M M v l v v v v M M C C C S S S H H H P P Y Y E E E ( ( ` ` ` { { { X.X.X.@.@.&.&.&.&.=.=.>.>.>.4.4.4.6.q.q.q.y.y.y.y.a.a.d.d.k.k.k.k.c.c.M.M.C.C.C.C.A.A.G.G.L.L.L.U.U.W.W.W.W.U.U.U.L.L.G.G.G.A.C.C.C.C.M.c.M.c.k.k.k.d.d.k.k.k.c.M.M.M.M.M.C.A.A.A.G.G.G.L.",
"G.G.L.L.U.U.U.L.L.G.G.G.A.A.C.C.M.M.c.c.k.k.k.d.a.a.a.y.y.q.q.6.6.6.4.4.4.>.>.=.=.&.&.@.@.@.X.X.{ { ` ` ( ( ( E E Y Y Y P H H S H S S C C M M v v l l g g u g u y y w w 6 6 6 6 6 w 6 w y y y u g g g l l l v M M M C C S S S S C C C M M v v l l g g g u u y y w w 6 6 6 2 6 6 6 w w y y u g u g l l v v v M M C C S S S H H H P Y Y E E E ( ( ( ` ` { { X.X.@.@.&.&.&.=.=.>.>.>.4.4.6.6.q.q.q.y.y.a.a.d.d.d.k.k.c.c.M.M.C.C.C.A.G.G.L.L.U.U.U.L.L.L.L.G.G.A.C.C.C.M.M.c.k.k.k.k.d.d.a.y.a.y.y.a.a.d.d.d.k.k.c.c.M.M.C.C.C.A.G.",
"U.U.U.W.W.W.W.W.U.U.L.L.L.L.A.A.A.A.C.C.M.M.c.c.c.k.k.d.d.d.a.a.y.y.y.y.q.6.q.6.6.4.4.>.>.=.=.&.=.&.&.@.X.X.X.{ { { ` ` ` ( ( ( E E Y Y P P H H H S S S C C C M M v v v v l l l l l l v v M M M C C C S H H H H P Y Y Y E E E E Y Y P P P H H S S S C C C M M v v v l l g l l l l v v M M C C C C S S S H P P Y P Y E E E ( ( ` ` ` ` { X.X.X.X.@.@.@.&.=.=.=.>.>.>.4.4.6.6.6.q.q.q.y.y.y.a.a.d.d.d.k.k.c.c.M.M.M.C.C.C.A.G.G.G.L.L.L.U.W.U.W.W.W.U.U.L.U.L.G.G.A.A.A.A.C.M.M.M.c.c.k.k.k.d.d.k.k.k.k.c.M.c.M.C.C.A.A.A.G.G.L.L.",
"U.W.W.W.~.~.W.W.W.W.U.U.U.L.L.L.L.G.A.G.A.A.A.C.C.C.C.M.M.c.c.c.c.k.k.k.k.d.d.d.a.a.a.y.a.y.y.q.q.q.6.6.6.6.4.4.4.4.4.>.>.=.=.=.=.=.&.&.@.&.@.@.X.X.X.{ { { ` ` ` ( ( ( ( E E E ( E ( ( ( ` ` { ` { { { X.X.X.@.@.@.@.&.&.=.=.=.&.&.&.&.@.X.@.X.X.{ { { { { ` ( ( ( ( ( E E ( E ( ( ( ( ` ` ` { { { X.X.X.@.@.@.&.@.&.&.=.=.=.=.>.>.>.4.4.4.4.4.6.6.q.q.q.y.q.y.y.y.a.a.d.d.d.k.k.k.k.c.c.c.c.M.M.M.C.C.C.C.A.A.A.G.G.G.L.L.L.L.U.U.U.W.W.W.W.~.W.W.W.W.U.U.L.L.L.L.G.G.G.G.A.C.C.C.C.C.M.M.M.M.M.C.C.A.A.A.A.G.G.G.G.L.L.L.U.U.",
"A.A.G.G.G.L.G.G.G.A.A.C.C.M.M.M.c.c.c.k.k.d.d.d.a.a.y.y.y.q.q.q.6.6.4.4.4.>.>.=.=.=.&.&.&.@.@.X.X.{ { { { ` ` ( ( ( E E Y E Y Y P P P H S S S C C M M M M v v l l g g g g u u u u u g g g l l l v v M M M C C S S S H H P P P P H H H S S C C C M M v v l l l l g g u u u u u g u g l l l l v v M M M C C C S S H H P P Y Y E E E E ( ( ( ` ` { { { X.X.X.X.@.&.&.=.=.=.=.>.>.4.4.4.4.6.6.q.q.y.y.y.y.a.a.d.d.k.k.k.k.c.c.M.C.M.A.C.A.A.G.G.L.L.G.G.G.A.A.C.C.C.M.c.c.c.k.k.k.d.d.d.a.a.y.y.y.y.y.a.a.d.d.d.k.k.k.c.c.M.C.C.C.C.",
"L.L.U.U.W.W.W.U.U.L.L.L.G.G.A.C.A.C.M.M.M.M.c.c.k.k.d.d.d.a.a.y.y.y.q.q.q.6.6.6.4.4.>.>.=.=.=.&.&.@.@.@.X.X.{ { ` ` ` ` ( ( ( E Y Y Y P P P H H S S S C M M M v v v l l l g g g g g l l l v v v M M C C S S S H P P P Y Y E E Y Y Y P H H H S S C C C C M M v v l l l g l u g g g l l v v v M M C C C S H H H P P Y Y Y E E ( ( ( ` ` ` { { { X.@.X.@.@.&.&.&.=.>.>.>.4.4.6.6.6.q.q.q.y.y.y.a.a.d.d.k.k.k.c.c.c.M.M.C.C.A.A.A.A.G.L.L.U.U.U.U.W.U.W.U.U.L.G.G.A.A.A.A.C.C.M.c.M.c.c.k.k.k.d.a.d.d.k.c.c.c.M.M.M.C.C.C.A.A.G.G.G.",
"A.G.G.L.L.L.L.G.G.A.A.A.C.C.M.M.c.c.c.k.k.k.d.d.a.a.a.y.y.q.q.q.6.6.6.6.4.4.4.>.=.>.=.&.&.&.@.@.X.X.X.{ { { { ` ` ( ( E E E Y Y Y Y P P H H H S S C C M M M v v l l l g g u u u u g g l l l v v M M M M C C S S S H P P P Y Y Y P P H H H S S C C M M M v v l l l g g g g u g g g l l l v v v M M C C C S S H H H P Y Y Y Y Y E E ( ( ( ( ` ` { { { X.X.@.@.&.&.&.&.=.=.>.>.4.4.6.6.6.6.q.q.q.y.a.a.a.a.d.d.d.k.k.k.c.c.M.M.M.C.C.A.A.G.L.G.L.L.L.G.G.A.A.A.C.C.M.M.c.c.c.k.k.k.d.d.a.a.y.y.y.a.a.a.a.d.d.k.k.k.k.c.M.M.M.C.C.C.",
"L.L.U.U.U.W.U.U.U.L.G.G.G.G.A.A.C.C.M.M.M.c.c.c.k.k.k.d.d.a.a.a.y.y.y.q.q.6.6.4.4.4.4.>.>.=.=.&.&.&.@.@.@.X.X.{ { { { ` ` ( ( ( E E Y Y Y P P H H H S S C C C M M M v v l v l l l l v v v M M M C C S S H H H P P Y Y Y E E ( E E Y Y Y P H H H S S C C C M M M v v v l l g l l v v v M M M C C S S S H H H P Y Y Y E E E ( ( ` ` ` ` { { X.X.X.@.@.@.&.&.=.=.>.>.>.4.4.6.6.6.6.q.q.q.y.y.a.a.a.d.d.d.k.c.c.c.M.M.M.C.C.C.A.A.G.G.G.L.L.U.U.W.W.U.U.U.L.L.G.G.A.A.C.C.C.M.M.M.c.c.k.k.k.k.d.d.d.d.k.k.c.c.c.M.M.C.C.C.A.A.G.G.G.",
"W.W.~.~._._.~.~.W.W.W.U.U.U.L.G.G.G.A.A.C.C.C.M.M.c.c.k.k.k.d.d.a.a.a.y.y.q.y.q.6.6.6.4.>.4.>.=.>.=.=.&.@.@.X.X.X.{ { { ` ` ` ( ( ( E E Y Y P P H H H S S C C M M v v v v l l l l l l v M M M M C S S S H H H P Y Y E E E ( ( E E E Y Y P P P H S H S C C C M M M v l l v g l l v v v M M C C C S S H H H P Y Y Y E E ( ( ( ` ` { { { X.X.X.@.@.&.&.&.=.=.>.>.4.4.4.6.6.q.q.y.y.y.y.a.a.d.d.k.k.k.c.c.M.M.C.C.C.A.A.G.G.G.L.L.U.W.U.W.W.~.~._._.~.~.~.W.W.U.U.L.L.L.G.A.A.C.C.C.C.M.c.M.c.k.k.c.c.c.M.M.C.C.C.A.A.G.G.G.L.U.U.W.",
"G.G.L.L.L.U.L.L.L.G.G.A.A.A.C.C.M.M.M.c.c.k.d.k.d.d.a.a.a.y.y.q.q.q.6.6.6.4.>.>.>.>.=.&.&.&.@.@.@.X.X.{ { { ` ` ( ( ( E E E E Y P P P H H H S S C C C M M v v v l l g g u g u u g u g l g l l v v v M M C S S S S H H P P Y Y P P P H H S S S C C M M v v l l l g g g g u u u g g g l l l v v v M M C C S S S S H P P P Y Y Y E E ( ( ( ` ` ` { { { X.X.@.@.@.&.=.=.=.>.>.>.>.4.4.6.q.6.q.q.y.y.y.a.d.d.d.d.k.k.c.c.c.M.M.C.C.A.A.G.G.G.L.L.L.L.L.L.G.G.G.A.A.C.M.C.M.M.M.c.k.k.k.d.d.d.a.a.y.a.a.d.d.d.k.k.k.c.c.M.M.C.C.C.A.A.",
"G.L.L.L.U.U.U.L.L.L.G.A.A.A.A.C.C.M.M.c.c.c.k.k.k.d.d.a.a.a.y.y.q.q.q.6.6.6.4.4.>.=.>.=.=.&.&.@.@.@.@.X.X.{ { { ` ` ` ( ( E E E Y P P P H H H S S C C C M M v M v v l g g g g u g g l l l v v v M M M C C S S H H P P P P Y Y Y Y P H H H S S S C C M M M v l l l l g g g u g g g l l v v v M M C C C S S H H H H P Y Y Y E E E ( ( ( ` ` { { X.X.X.@.@.@.&.&.&.=.=.>.>.4.4.4.6.6.q.q.q.q.y.y.a.a.a.d.d.d.k.c.c.c.M.M.M.C.C.A.A.A.G.G.L.L.U.U.U.U.U.L.G.G.G.A.A.C.C.C.M.c.M.c.c.k.k.k.d.a.a.a.a.d.d.k.k.c.c.c.M.M.M.C.C.A.A.A.G.",
"W.~.~.~._._._._.~.~.W.W.W.U.U.U.L.L.L.G.G.G.G.A.C.C.C.M.M.M.c.c.c.c.k.k.k.d.d.d.d.a.a.a.y.y.q.q.q.6.6.6.6.4.4.>.4.>.=.=.=.=.=.&.&.@.@.@.X.X.X.X.{ { ` ` ` ( ( E ( E E Y E Y P P P Y Y E E E ( ( ( ` ` ` ` { X.{ X.X.X.@.@.@.&.@.@.@.@.X.X.X.{ ` ` ` ` ( ( ( E ( E Y Y Y Y P P Y Y E E E E ( ( ( ` ` ` { { { X.X.@.X.@.&.&.&.=.=.=.>.>.>.>.>.4.4.4.6.6.q.q.q.q.y.y.a.a.a.a.d.d.k.k.k.k.c.c.M.c.M.M.C.C.A.A.A.A.G.G.G.L.L.L.L.U.U.W.W.~.~.~.~._._._.~.~.~.W.W.W.U.U.L.L.L.L.G.G.G.A.A.C.C.C.M.M.M.C.C.A.A.A.G.G.G.L.L.L.L.U.U.W.W.",
"A.A.G.G.G.L.G.G.A.A.A.C.M.M.c.c.k.k.k.d.d.a.a.y.y.q.q.6.6.6.4.4.>.>.>.=.&.&.&.@.@.X.X.{ { ` ` ( ( ( E E Y Y Y P P H H H S C C M M M v v l l g u u u u y w w w 6 2 2 2 2 < < ; ; ; < < 2 2 6 6 w w w w y u u u g g l v v v v M M v l l l g g u u u y y w w 6 6 6 2 2 < ; ; ; ; ; < 2 2 6 6 w 6 w w y y u u g g l l l v M M M C C S S H H P P Y Y E E ( ( ( ` ` { { { X.X.@.&.&.&.=.=.=.>.4.4.6.6.6.q.q.q.y.y.a.d.d.k.k.k.c.c.c.M.C.C.C.A.G.G.G.G.G.G.A.A.C.C.M.c.M.c.c.k.d.d.d.a.a.y.y.q.q.q.6.q.q.y.y.y.a.a.d.d.k.k.k.c.M.M.M.C.",
"A.A.A.G.G.L.G.G.G.A.A.C.C.M.M.M.c.c.k.k.k.d.d.a.a.a.y.y.q.q.q.6.6.6.4.4.>.>.=.=.=.&.&.&.@.@.X.X.{ { { { ` ` ( ( E E Y Y P P P H H S S S C C C C M v v v l l g l g g u u y y w w w y u u u g g g l v l v M M M M C C S S S H H S S S C C M M M M v v l l l g g u u u y y w w y y y u g u g g l l v v v v M M C S S S S H H H P P Y Y Y E E ( ( ` ` ` { { { X.X.@.@.&.&.&.&.=.=.>.>.4.4.4.6.6.q.q.y.y.y.a.a.a.d.d.k.k.k.c.c.M.M.M.C.C.A.A.G.G.L.L.L.G.A.A.A.C.M.M.c.c.c.c.c.k.k.d.d.a.a.y.y.q.y.y.y.y.a.d.d.d.d.k.c.c.c.M.M.C.M.C.",
"L.U.U.U.W.W.W.U.U.U.L.L.G.G.A.G.A.A.C.C.C.M.M.c.c.c.k.c.k.k.d.d.d.d.a.a.a.y.y.q.q.q.q.6.6.6.6.4.4.>.>.>.>.=.=.&.&.&.@.@.@.@.X.X.{ { { ` ` ` ( ( ( ( ( E E E Y Y P P P H H H S H H H H P P Y P Y E E E ( ( ( ( ( ` ` ` { { X.X.X.{ { { ` ` ` ( ( ( E E E Y Y P Y Y P H H S H H H H P P Y Y Y Y E E ( ( ( ( ` ` ` ` { { X.X.X.@.@.@.@.&.&.=.=.=.>.>.>.4.>.4.4.4.6.6.q.q.q.q.y.y.y.a.a.a.d.d.k.k.k.k.c.c.c.c.M.M.M.C.C.A.A.G.G.G.G.L.L.L.U.U.W.W.W.U.U.U.L.L.L.G.G.G.A.A.A.C.C.C.M.M.c.c.c.k.c.k.k.c.c.c.c.M.M.C.C.C.A.A.G.G.G.G.L.",
"U.U.U.W.W.W.W.W.U.U.U.L.L.L.G.G.G.A.A.A.C.C.M.M.M.c.c.c.c.k.k.k.d.a.a.a.a.y.y.y.y.q.6.q.6.6.4.4.4.4.>.>.>.=.=.&.&.@.@.@.@.X.X.X.X.{ { { ` ` ( ( ( E ( E E Y Y P P P P H S H S S S S H H P P P Y Y Y E E E ( ( ( ( ` ` { { { { { { ` ` ` ( ( ( E E ( E Y Y Y P P P H H H S S S S H H P P Y Y Y Y E E E E ( ( ` ` ` { { { { X.X.X.@.@.@.&.=.=.=.=.>.>.>.>.4.4.6.6.6.q.q.q.q.y.y.y.a.a.a.d.k.d.k.k.k.c.c.c.M.M.M.C.C.A.A.A.G.G.G.L.L.U.U.U.U.W.W.W.W.W.W.U.U.L.L.L.G.G.A.A.C.C.C.C.M.M.M.c.c.c.c.c.c.M.M.M.M.C.C.C.A.A.G.G.G.L.L.L.",
"L.L.U.U.U.W.U.U.U.L.L.L.G.G.A.A.C.C.C.M.M.M.c.c.k.k.k.d.d.d.a.a.a.y.y.y.q.q.q.6.6.6.4.4.>.>.>.=.=.&.&.&.&.@.@.X.X.{ X.{ { { ` ` ( ( E E E E Y Y P P H H H S S S C C C M M v v v M M M M C C S S S H H H P P P Y Y E ( E ( ( ` ( ( E E E Y Y Y P H H H H S S C C C C M M v v M M M M C C C S S S H H P P P Y Y E E E ( ( ` ` ` { { { { X.X.@.@.@.&.&.&.&.=.=.>.>.4.4.4.6.6.6.q.q.q.y.y.a.a.a.a.d.d.k.k.k.c.c.c.M.M.M.C.C.C.A.A.G.G.L.L.L.U.U.W.W.U.U.U.L.L.G.G.G.G.A.C.C.C.M.M.c.c.c.c.k.k.d.d.d.k.c.c.c.c.M.M.M.C.C.A.A.A.G.G.L.",
"G.G.L.L.U.U.U.L.L.G.G.A.A.C.C.C.M.M.c.c.k.k.k.k.d.d.a.a.a.y.y.q.q.6.6.4.4.4.4.>.>.=.=.=.&.&.&.@.X.X.X.{ { ` ` ` ( ( ( E E Y Y Y P P P H H S S S C C C M v v v l l g g g u u y y u u u g g l l l v v M M M C C S H S H H P P P P H H H H S C C C C M v v v l l l g g u u u y u u u g g g l v v v M M M C C C S S H H P P P Y Y E E E ( ` ( ` ` ` { { X.X.@.@.&.&.=.=.=.=.>.4.4.4.6.6.6.6.q.q.y.y.a.a.a.d.d.k.k.k.c.c.c.M.M.C.C.A.A.G.G.G.L.L.L.U.L.L.L.G.G.A.A.C.C.M.M.M.c.c.k.k.k.d.d.d.a.a.a.a.a.d.d.d.k.k.k.c.c.M.M.M.C.C.A.A.",
"L.L.U.U.U.W.U.U.U.L.L.G.A.G.A.A.C.M.M.M.M.c.c.c.c.k.d.d.d.d.a.y.y.y.y.q.q.6.6.6.4.4.>.>.>.=.=.&.&.&.@.@.X.X.X.X.{ { ` ` ` ( ( E E E E Y P P P H H S S S C C C C M v v v v l l l l l v v M M M C C C S S S H H P P Y Y Y Y E E E E Y Y P P H H H S S S C C C M M v v v l l l l l v v v M M C C C S S S H H H P P Y E E E E ( ( ( ` { { { { X.X.@.@.@.@.&.&.=.=.=.=.>.>.4.4.6.6.q.q.q.y.y.y.a.a.d.d.d.d.k.c.c.c.M.M.M.M.C.C.C.A.A.G.G.L.L.U.U.U.W.W.U.L.L.L.G.G.A.A.C.C.M.M.M.c.c.c.c.k.k.d.d.d.d.d.k.k.c.c.c.M.M.C.C.C.C.A.G.G.G.",
"G.G.G.L.L.U.U.L.G.G.A.A.C.C.C.C.M.c.c.c.k.d.d.d.a.a.a.y.y.q.q.6.6.4.4.>.>.>.>.=.=.&.&.@.@.@.X.X.{ { ` ` ` ( ( E E E Y Y P P P H H S S S C C M v v v l l g g g u u y y w w w 6 6 w w w y y u u u g g l l v v v M M C C S S H H S S C C C M M M v l l g g g u u y y w w w 6 6 6 w y y y y u u g g g l v v M M M C C S S S H H H P Y Y E E E E E ( ` ` { { { X.X.@.@.&.&.=.=.=.>.>.>.4.6.6.6.6.q.q.y.y.a.a.a.d.d.k.k.c.c.c.M.M.C.C.A.A.G.G.L.L.L.U.L.L.G.G.G.A.A.C.C.M.c.c.c.c.k.k.d.d.a.a.y.y.y.y.a.a.d.d.d.k.k.k.c.c.M.M.C.C.A.A.",
"L.L.L.U.U.W.U.U.L.L.G.G.G.G.A.A.C.C.C.M.M.M.c.c.c.k.k.k.d.d.d.a.a.a.y.y.q.y.q.q.6.6.6.4.4.4.>.>.>.=.=.=.=.&.&.@.&.@.X.X.X.{ { { { ` ` ( ( ( E ( E E E Y Y P P H H H S S S C C C C S S S H H H P P P Y Y Y E E ( ( ( ( ` ` { ` { ` ` ( ( E ( E E Y Y P P P P H H S S S S C C C C S S H H P H P P Y Y E E E ( E ( ( ` ` ` { { X.X.X.X.X.@.@.@.&.&.&.=.=.=.>.>.4.4.6.6.6.6.q.q.q.q.y.a.y.a.a.a.d.d.d.k.k.k.c.c.M.M.M.M.C.C.A.A.A.G.G.L.L.L.L.U.U.W.U.U.U.L.L.G.G.G.A.A.C.C.M.M.M.c.M.c.k.c.k.k.k.k.k.c.c.c.c.M.M.M.M.C.A.A.A.G.G.G.",
"L.L.U.U.U.W.W.U.U.L.L.G.G.A.A.A.C.M.M.M.c.c.c.k.k.k.d.d.d.a.a.y.y.q.q.q.q.6.6.4.4.4.>.>.>.=.=.&.&.&.@.X.X.X.{ { { ` ` ` ( ( ( E E Y Y Y P P P H H H S S C C M M M v v v l l g g g l l v v v M M C C S S H H H H H P P Y E Y E E Y Y P P H H H S S S C C M M M v v l l l l g g l l l v v M M C C C S S H H H P P P Y Y E E E E ( ( ` ` ` { { X.X.@.@.&.&.&.=.=.=.=.>.>.4.4.6.6.6.6.q.q.y.y.a.a.a.d.d.k.k.k.k.c.c.c.M.M.C.A.A.A.G.G.G.L.L.L.U.W.U.U.U.L.L.G.G.G.A.A.C.C.C.M.M.M.c.c.k.k.k.d.a.d.d.d.k.k.k.c.c.c.M.M.C.C.A.A.G.G.G.",
"L.U.U.U.W.W.U.U.U.U.L.L.L.G.G.G.A.A.C.C.M.M.M.M.M.c.c.k.k.k.d.d.d.d.a.a.y.y.y.q.q.q.q.6.6.4.4.4.>.4.>.>.=.=.=.&.&.@.@.@.X.X.X.X.X.{ { { ` ` ( ( ( E E E Y Y Y Y P P H H S S S S H H H H P P P P Y E E E E ( ( ( ` ` ` { { { { { { ` ` ` ` ( ( ( E E E Y Y Y P P H H H S S S S S H H P P P P Y Y E E E ( ( ( ` ` ` ` { { X.{ X.@.X.@.&.&.&.&.&.=.=.>.>.4.4.4.4.6.6.6.q.q.q.q.y.y.y.a.a.a.d.d.k.k.k.c.c.M.c.M.M.M.C.C.A.A.A.G.G.G.L.L.L.U.W.U.W.W.W.U.U.U.L.L.G.G.A.A.A.C.C.C.M.M.M.M.c.c.c.c.k.k.c.c.M.c.M.C.C.C.C.A.A.G.G.G.L.L.",
"G.L.L.U.U.U.U.U.L.L.G.L.G.A.A.A.C.M.M.M.M.c.c.c.k.k.k.k.d.d.d.a.y.y.y.y.q.q.q.q.6.4.4.4.4.>.>.>.=.=.=.&.&.@.@.@.X.X.X.{ { { ` ` ` ` ( E E ( Y E Y Y Y P P P H H S S S C C C M M M C C S S S H H H P P P Y Y E E E E ( ( ` ` ` ` ( ( E ( E E Y Y Y Y P P H H H S S C C C M M C C C S S S H H H P P Y Y Y Y Y E E ( ( ( ` ` ` ` { { { X.X.@.@.@.&.&.=.=.=.=.>.>.>.4.4.6.6.6.q.q.q.q.y.y.y.a.a.d.d.d.k.k.k.k.c.c.M.M.M.M.C.C.A.A.A.G.G.L.L.L.L.U.U.U.L.L.L.G.G.G.A.A.A.A.C.M.M.c.c.c.k.k.k.k.d.d.k.k.k.k.c.c.c.c.M.M.C.C.A.A.A.G.G.",
"L.L.L.U.W.U.W.U.L.L.L.L.G.A.A.A.C.C.C.M.M.M.c.c.c.c.k.k.d.d.d.d.a.a.y.y.y.q.q.q.6.q.6.4.4.>.4.>.>.=.&.&.&.&.&.@.@.X.X.X.X.{ { { ` ` ( ( ( E E E E Y Y P P H H H H S S C C C M M M C C S S S H H H P P P Y Y Y E ( ( ( ( ` ` ` ` ` ( E ( E E Y Y Y P P P H H H S S S C C M M C C C S S S H H H P P P Y Y E E E ( ( ( ( ` ` { { { X.X.X.X.@.@.@.&.&.=.=.=.=.>.4.>.4.6.6.6.q.q.q.q.y.y.y.a.a.a.d.d.k.d.k.c.c.c.M.M.M.M.C.C.C.A.A.G.G.L.L.L.L.U.U.W.U.U.L.L.L.G.G.G.A.A.C.C.C.M.M.M.c.c.c.k.k.d.d.k.k.c.c.c.c.M.M.M.C.C.C.A.A.A.G.L.",
"G.G.L.L.L.U.L.L.G.G.G.A.A.A.C.M.M.M.c.c.c.k.k.d.d.d.a.a.a.y.y.q.q.6.6.6.6.4.4.>.>.>.>.=.=.=.&.@.@.@.X.X.X.{ { ` ` ( ( ( E E E E Y Y P P P P H H S S C C C M M M v v l l g g g g g g l l l v v M M M C C S S H H H H P P P Y Y Y P P P P P S H S C C C M M v v v l l g g g u g g g l l v v v M M C C S S S H H P P P P Y Y E E ( E ( ( ` ` { { { { X.@.@.&.&.&.=.=.=.=.>.>.4.4.6.6.6.q.q.q.q.y.y.a.a.d.d.d.k.k.c.c.c.c.M.C.M.C.A.A.G.G.G.L.L.U.U.L.L.L.G.G.A.A.C.C.M.M.c.c.c.k.k.k.k.d.d.d.a.a.a.d.d.d.k.k.k.c.c.c.M.M.M.C.A.A.A.",
"G.L.L.U.U.U.U.L.L.L.G.G.G.A.A.A.C.C.C.M.M.c.c.c.k.k.k.k.d.a.a.a.a.y.y.q.q.q.6.q.6.4.4.4.4.>.>.>.=.=.&.&.@.@.@.X.X.X.X.{ { { ` ` ` ( ( ( ( E E E Y Y Y P P H H S S S S C C M M M M M C C S S S H H P P P Y Y E E E ( E ( ( ` ` ` ( ( ( E E E Y Y P P P H H H S S S C C C M M M C C C S S S H H P P P Y Y E E E E ( ( ( ` ` ` ` { X.{ X.X.X.@.@.&.&.&.=.=.=.>.>.>.4.4.4.4.6.q.q.q.q.y.y.a.a.a.a.a.d.k.k.k.k.c.c.c.M.M.M.C.C.A.A.A.G.G.G.L.L.U.U.U.U.L.L.G.G.G.G.A.C.C.C.C.M.M.c.c.c.k.c.k.k.d.d.k.d.k.k.c.c.M.c.M.M.C.C.C.A.G.G.G.",
"G.L.L.U.U.U.U.U.L.L.G.G.G.A.C.C.C.M.M.c.c.c.c.k.k.k.d.d.d.a.a.y.y.y.q.q.q.q.6.6.4.4.4.>.>.>.=.=.=.=.&.@.@.@.X.X.X.{ { { { ` ( ( ( ( ( E E Y Y Y P P H H H S S S C C M M M M v v v M M M C C C S S S H H H P P Y Y E E E E ( ( E E E E Y Y Y P P P H H S S S S C M M M v v v v v M M C C S S S S S H H P P Y Y E E E E E ( ` ` ` ` { { X.X.X.X.@.@.&.&.&.=.=.>.>.>.4.4.4.6.6.6.6.q.q.q.y.y.a.a.a.d.d.d.k.k.c.c.c.c.M.M.M.C.A.A.A.G.G.G.L.L.L.U.U.U.L.L.L.G.G.A.A.C.C.M.M.M.M.M.c.c.k.k.d.k.d.d.d.k.k.k.c.c.c.c.M.M.M.C.C.A.A.A.G.",
"L.U.U.W.W.W.W.U.U.U.L.L.L.G.G.G.A.A.C.C.C.C.M.M.c.M.c.c.c.k.k.k.d.d.d.a.a.a.y.y.y.q.q.q.q.6.6.6.4.4.4.>.>.>.=.=.=.&.&.&.@.@.@.@.X.X.{ { { { ` ` ` ( ( ( ( E E E Y Y P P P P H H H P P P Y Y Y E E ( ( ( ( ` ` { { { X.{ X.X.X.X.X.{ { { { ` ` ` ( ( E ( E E E Y Y P P H H H H P P Y Y Y E E E ( E ( ( ` ` { { { { X.X.X.X.@.@.@.@.&.&.=.=.=.=.>.>.4.>.4.6.6.6.6.q.q.q.y.y.y.y.a.a.a.d.d.d.k.k.c.c.c.M.c.M.M.C.C.C.C.A.A.A.G.G.G.L.L.L.U.U.W.W.W.W.U.U.U.L.L.L.G.G.G.A.A.A.C.C.M.C.M.M.c.c.c.k.c.c.M.M.M.M.M.M.C.A.A.G.G.G.G.L.L.",
"L.L.L.U.U.U.U.U.L.L.L.G.G.A.G.A.C.C.M.M.M.c.c.c.c.k.k.d.d.d.a.a.a.y.y.y.q.q.q.6.6.6.4.4.>.4.>.>.=.=.=.&.&.@.&.@.X.X.X.{ { { ` ` ( ( ( ( ( E Y E Y Y P P H H H H S S C C M C M M M C C C S S H H H H P P Y Y Y Y E E E ( ( ( ` ` ( ( ( E E Y Y Y P P P H H H S S S C C C M M M C C C C S S H H H P P P P Y E E E E ( ( ( ` ` ` { { { X.X.X.@.@.&.&.=.=.=.=.>.>.4.>.4.4.6.6.q.q.q.q.y.y.y.a.a.a.d.k.d.k.k.c.c.c.c.M.C.M.C.A.A.A.G.G.L.L.L.U.U.U.U.U.U.L.L.G.L.G.G.A.A.C.C.M.M.M.c.c.k.k.k.k.k.d.k.k.k.c.c.c.c.M.M.M.C.A.A.A.G.G.G.",
"L.L.U.U.U.W.W.U.L.L.L.G.G.G.G.A.C.C.C.M.M.M.M.M.c.c.c.k.k.d.d.d.a.a.a.y.y.q.y.q.q.6.6.6.6.4.4.>.>.>.>.=.=.=.&.&.@.@.@.@.X.X.X.X.{ { ` ` ` ( ( ( ( E E E Y Y Y P P H H H S S S S S H H H H P P P Y Y E E E E ( ( ` ( ` ` { { { { { ` ` ( ( ( ( E E Y Y Y P P P H H H S S S S S S S H H H P Y P Y Y E E ( E ( ( ` ` ` { { { { @.X.@.@.@.@.@.&.&.=.=.=.=.>.4.4.4.4.6.6.6.q.q.q.q.y.a.y.a.a.d.d.d.k.k.k.c.c.c.M.M.M.M.C.C.C.A.A.G.G.G.L.L.L.U.U.U.W.U.U.U.L.L.L.G.G.A.A.A.C.M.M.M.M.M.c.c.c.k.k.k.k.k.c.c.c.M.M.M.C.C.C.A.A.A.G.L.L.",
"L.L.L.U.U.W.U.U.L.L.L.G.G.A.A.C.C.M.M.M.c.c.k.k.k.d.d.d.a.a.y.y.y.q.6.q.6.6.6.4.4.>.>.>.=.=.&.&.@.@.@.X.X.{ { { ` ( ( ( ( E E Y Y Y P P H H H S S C C C M M M v v v l l g g g u u g g l l l v M M M C C S S S S H P P P P Y E Y P P H H H S S S S C C M M v v v l l l g u g u g l l l l v M M M C C C S S H H H P P Y Y E E E E E ( ( ` ` { { X.X.X.@.@.@.&.&.=.=.>.>.>.4.4.4.6.6.6.q.q.y.y.y.a.a.d.d.d.k.k.k.c.M.c.M.C.A.A.A.A.G.G.L.L.U.U.W.U.U.U.U.L.G.G.A.A.A.C.M.C.M.M.c.c.c.k.k.d.d.a.a.a.d.k.k.k.c.c.c.M.M.C.C.A.A.A.G.G.",
"L.U.W.W.W.~.W.W.U.U.U.G.G.G.A.A.C.C.M.M.c.c.k.k.d.d.a.a.y.y.q.q.6.6.6.4.4.>.=.=.&.&.@.@.X.X.X.{ { ` ` ( ( E E E Y P P H H S S C C C M v v l l g g u u u y w w 6 6 6 2 < < < ; ; < < < 2 2 6 6 w w w y y u g g g l l v M M M C C M M v l l g g u u u y y w 6 6 6 2 2 < < < ; ; ; < 2 2 6 6 w w w y u u g g g l l v v M M C C S H H P P Y Y E E ( ( ( ` ` { { X.X.@.@.&.&.=.=.>.>.4.4.6.6.q.q.q.y.y.a.d.d.d.k.c.c.c.M.M.C.C.A.A.G.G.L.U.U.U.W.~.~.W.W.U.U.L.G.G.G.A.A.C.M.M.M.c.k.k.d.d.a.a.y.a.a.d.d.d.k.c.c.c.M.M.M.C.C.A.G.G.L.",
"A.A.A.G.G.L.G.G.A.A.A.C.C.M.M.c.c.k.k.d.d.d.a.a.a.y.y.q.q.6.6.6.4.4.>.>.>.=.=.=.&.@.@.X.X.X.{ { { ` ` ` ( E ( E Y Y Y P P P H H S C C C M M M v l v v g g g g u y y y w w 6 6 6 6 w w w y u u u g g l l l v v M M M C C C S S S C C C M v v v v l l g g g u y y y w w 6 6 6 6 w w w y y u u g g g l l l v M v M M C C S S H H H P P Y Y Y E ( ( ( ( ` ` { { { X.X.@.@.@.&.=.=.=.>.>.4.4.4.6.6.q.q.q.y.y.a.a.a.d.d.k.k.c.c.c.M.M.M.C.A.A.G.G.G.G.G.G.A.A.A.C.M.M.M.c.c.k.k.d.d.d.a.a.a.y.q.q.q.q.y.y.y.a.a.d.d.d.k.k.c.M.M.M.M.C.",
"L.U.U.U.W.W.W.U.U.U.L.L.G.G.G.G.A.C.C.M.M.M.c.c.k.k.k.k.d.d.d.a.a.y.y.q.q.q.6.6.6.4.4.4.4.>.>.=.=.=.&.&.@.@.@.X.X.{ { { ` ` ` ( ( ( E E E Y P P P P H H S S S C C M M M v v v l v v M M M C S S S S H H H P Y P Y Y E E ( E ( E E E E Y Y Y P H H H S S S C C C M M v v l l v v v M C M C S S S H H P P P Y Y Y E E E ( ( ( ` ` ` { { X.X.X.@.@.&.&.&.=.=.>.>.>.4.6.4.4.6.6.q.q.q.y.y.a.a.a.d.d.d.k.k.c.c.c.c.M.M.M.C.C.A.A.G.G.L.L.U.U.U.W.W.W.W.U.U.U.L.L.G.G.A.A.A.A.C.M.M.M.M.c.c.k.k.d.k.k.k.k.c.M.M.M.C.M.C.C.A.A.G.G.G.L.",
"L.U.U.W.U.W.W.U.U.U.L.L.G.G.G.A.A.A.C.C.M.M.M.M.c.c.c.k.k.k.d.d.a.a.a.a.y.y.y.q.q.q.6.6.4.4.4.>.>.>.=.=.&.&.&.@.@.@.@.X.X.{ { { ` ` ` ` ( ( ( E E E Y Y Y P P P H H H S S C C C C S S S H H H P P Y P Y Y E E ( ( ( ` ` ` { { ` ` ` ( ( ( ( E E E Y Y Y P P H H S S S S C C C S S S H H H P P P Y Y E Y E E ( ( ` ` ` { { { { X.X.X.@.@.@.&.&.=.&.=.>.>.>.4.4.4.4.6.6.6.q.q.y.y.y.y.a.a.d.d.k.k.k.c.k.c.c.M.M.C.C.C.C.C.G.A.G.G.L.L.L.U.U.U.W.W.W.U.U.L.L.L.G.G.G.A.A.A.C.C.M.M.c.M.c.c.c.k.k.k.c.c.c.c.c.M.M.C.C.A.A.G.G.G.G.L.",
"A.G.G.L.U.U.L.L.G.G.A.A.C.C.M.M.c.c.k.k.k.d.d.a.a.a.y.q.q.6.6.6.4.>.>.>.=.=.&.&.@.@.X.X.X.{ ` ` ( ( E E E Y Y Y P H H H S C C C M M v v l l g g g u y y w w 6 6 6 2 2 < ; ; ; & ; ; < < 2 2 6 w w w y y u u u g l l l v M M M M v v l l g g u u u y y w w 6 6 2 2 2 < ; ; & ; ; < < 2 2 6 w w w y y y u g g l l l v M M M C C S S H H P P P Y Y E E ( ( ( ` { { { X.@.@.@.&.&.=.=.>.>.4.4.4.6.6.q.y.y.y.a.a.a.d.k.k.c.c.M.M.M.C.A.A.G.G.L.L.U.U.L.L.G.G.A.A.A.C.M.M.c.k.k.k.k.d.d.a.a.y.y.q.q.q.y.y.a.a.d.d.k.k.k.c.c.M.C.C.C.A.",
"G.G.L.L.L.U.L.L.L.G.G.A.A.C.C.M.C.M.M.c.c.k.k.k.d.d.d.a.a.a.a.y.y.q.q.q.q.6.4.4.4.>.>.=.=.=.=.=.&.&.&.@.@.X.X.{ { { { ` ( ( ( ( E E E Y Y Y P P H H H H S S S C C C M M M v l v v v v M M C C C C S S H P H P P P Y E Y E E E ( E E Y Y P P P P H S S S S C C M M M v v l v v v v M M M C C C S S H H H H P P Y Y Y E E E ( ( ` ` ` { { { X.X.X.@.&.@.&.&.&.=.=.>.>.>.4.4.4.4.6.6.q.q.y.y.y.y.a.a.a.d.d.k.k.k.c.c.c.M.M.M.C.C.C.A.A.G.G.L.L.L.U.L.L.L.G.G.A.A.A.C.C.M.M.c.c.c.c.k.k.d.d.d.d.a.a.d.d.k.k.c.k.c.c.M.M.M.C.C.C.A.A.",
"G.L.L.U.W.U.U.U.L.L.G.A.A.A.C.C.C.M.M.c.c.c.k.k.d.d.a.a.a.y.y.q.q.q.6.4.4.4.4.>.>.=.=.=.&.&.@.@.X.X.X.{ { ` ` ` ( ( E ( Y Y Y P P P H S S S C C M M v M v l l l g g u u u u y y y y u g u g g l l v v v M M C C S S H H H P P H H H S S C C C M v v v l l l g g u u u y y w y u u u g g g l l v v v M M C C C S H H H H P P Y E E E ( ( ( ` ` { { { X.X.X.@.@.&.&.&.=.>.>.>.4.4.6.6.6.q.q.q.y.y.a.a.d.d.k.k.k.c.c.c.M.M.M.C.C.A.A.G.L.L.L.U.U.U.U.U.L.L.G.A.A.A.C.C.C.M.M.c.c.k.k.k.d.a.a.a.a.a.a.d.d.k.k.c.c.c.M.M.M.C.C.A.G.G.",
"A.A.G.G.L.L.G.G.G.A.A.C.C.C.M.M.c.c.k.k.k.d.d.d.d.a.y.y.q.y.q.6.6.6.6.4.4.>.>.>.=.=.=.&.@.@.X.X.X.{ { { ` ` ` ( ( ( E E E Y Y P P P H H H S C C C M M v v v l l g g g g u u y y y u u g l g l l l v v M M C C C S S S H P P P P H H S S S C C M M v v v l l l g g g g u y y y u u g g g l l l v v M M M C C C S H H H P P Y Y Y E E E ( ( ( ` ` ` { { X.X.X.@.@.&.&.&.=.=.>.>.4.4.4.6.6.6.q.q.y.q.y.a.a.d.d.d.k.k.k.k.c.c.M.M.C.C.A.A.A.G.G.L.L.G.G.A.A.C.C.C.M.M.c.c.c.k.k.k.k.d.d.a.a.y.y.q.y.a.a.d.a.d.k.k.k.k.c.c.M.M.C.C.C.",
"G.G.L.L.U.U.L.L.L.G.G.G.A.A.C.C.M.M.M.c.c.c.k.k.k.d.d.d.a.a.y.y.y.q.q.q.q.6.6.6.4.4.>.>.>.>.=.&.&.&.@.@.@.X.X.X.{ { ` { ` ( ( ( ( E E E Y Y P P P H H H S S C C C M M v v v v l v M M M M C C C S S H H H P P P P Y E E E ( ( E E E E Y Y P P H H H S S S C C M M M v v v l v v v M M C C C C S S H H H P P Y Y E E E E ( ( ( ` ` ` { { { X.X.@.@.@.@.&.=.&.=.>.>.>.>.4.4.6.6.6.q.q.q.q.y.y.y.a.a.d.d.k.k.k.k.c.c.M.M.M.M.C.C.C.A.G.G.G.L.L.L.U.L.L.L.G.G.A.A.A.C.C.M.M.M.c.c.k.k.k.k.d.d.d.a.d.d.d.k.k.k.c.c.M.M.M.M.C.C.A.A.A.",
"L.L.L.U.U.U.U.U.L.L.L.G.G.A.A.C.C.M.M.c.c.c.k.k.k.d.d.d.a.a.y.y.y.q.q.q.6.6.4.4.>.>.>.=.=.=.&.&.@.@.X.X.X.{ { ` ` ` ` ( ( E E Y Y P Y P P H H H S S C C C M M v v l l l g g g u u g g g l l v M v M M C C C S H H P H P Y Y Y Y P P P H H H S C S C M M M v v l l l g g u g u g g g l l v v M M M C C S S S H H P P Y Y Y E E E ( ( ( ` ` ` { X.X.X.@.@.@.&.&.=.=.=.>.>.>.4.4.6.6.q.q.q.q.y.y.a.a.d.d.d.k.k.k.c.c.M.M.C.C.C.A.A.G.L.G.L.L.U.W.U.U.U.L.L.L.G.G.A.C.C.C.M.M.c.c.c.k.k.k.d.d.d.a.d.d.k.k.k.c.c.M.c.M.M.C.A.A.A.G.G.",
"U.W.W.W.~.~.~.W.W.W.U.U.L.L.L.G.G.G.A.A.A.A.C.C.M.M.M.M.c.c.c.k.k.k.d.d.a.a.a.y.a.y.q.q.q.q.6.6.6.4.4.4.4.>.>.=.=.=.&.=.&.&.&.@.@.X.X.{ { { { ` ` ( ( ( ( E E Y Y Y P P P P H H P P P P Y Y E E E E ( ( ( ` ` { { { X.X.X.@.@.X.X.X.{ { { ` ` ` ( ( ( E E E E Y P Y Y P P H H P P Y Y Y Y E E ( ( ( ( ` ` { { { X.X.X.X.@.@.&.&.&.&.&.=.>.>.>.>.>.4.4.4.6.6.6.q.y.q.y.y.a.a.a.a.d.d.k.k.k.k.k.c.c.c.M.C.C.C.C.C.A.A.G.G.G.G.L.L.U.U.U.W.W.W.~.~.~.W.W.U.U.U.L.L.L.G.G.A.A.A.A.A.C.C.M.M.M.c.c.c.M.C.C.C.C.C.A.A.A.G.G.G.L.L.U.U.",
"G.G.L.L.U.U.L.L.L.G.G.A.A.C.C.C.M.M.M.c.c.k.k.k.d.d.a.a.y.y.y.q.q.6.6.6.6.4.4.>.>.>.=.&.=.&.&.@.@.X.X.{ { { { { ` ( ( E E E E Y Y P P H H H S S S C M M M v M v v l l g g g u u u g l l l l v v M M M M C C S S S H H P P Y Y P P H H H S S S C C M M M v v v l l g g u g u g u g l l l v v v M M M C C S S S H H H P Y Y Y Y E E ( ( ` ` ` ` { { X.X.X.@.&.@.&.=.=.>.>.>.>.4.6.6.6.6.q.q.y.y.a.a.a.a.d.d.k.k.c.c.c.M.M.C.C.C.A.A.G.G.G.L.L.U.U.L.L.L.G.G.A.A.C.C.M.C.M.M.c.c.k.k.d.d.d.a.a.a.a.a.d.d.d.k.c.c.c.c.M.M.C.C.A.A.G.",
"G.L.L.L.U.U.U.U.L.L.G.G.A.C.C.M.M.c.c.c.k.k.d.d.d.a.y.y.y.q.q.q.6.6.4.>.>.>.>.=.&.&.@.@.X.X.{ X.{ ` ` ( ( E E E Y Y P P H H S S C C M M v v v l l g g u u u y y w w 6 6 6 2 2 < 2 2 6 6 w w w y u u u g g l l l v v M C M C C C M M M v v l l l g u u u y y w w 6 6 6 2 < < < 2 2 6 w w y y y u u g g g l l v v M M C C C S S H P P P Y Y E ( ( ( ` ` { { { X.X.@.X.@.&.&.=.=.>.4.4.4.6.6.q.q.q.y.y.y.a.d.d.k.k.c.c.c.M.M.C.C.A.A.G.G.L.U.U.U.U.U.L.L.G.G.G.A.C.C.M.M.c.c.c.k.k.d.d.d.a.y.y.y.y.a.a.a.d.d.k.c.c.c.M.M.M.C.C.A.G.",
"A.G.L.L.U.U.L.L.G.G.G.A.A.C.M.M.M.c.c.k.k.k.d.a.a.y.y.y.q.6.6.4.4.4.>.>.=.=.&.&.@.@.@.X.{ { { ` ` ( ( E E E Y P P H H H H C C C M M v v v l g g g u y y y y w 6 6 6 2 < < ; ; ; ; < < 2 2 6 6 6 w y y y u u g g l l l M v M M M M v l l g g g u u u y w w 6 6 6 2 2 < < ; ; ; < < 2 2 2 6 6 w w y u u u g g l l l v v M M C S S S H H P P P Y E E E ( ( ` { { { X.X.X.@.@.&.=.=.=.>.>.4.4.4.6.q.q.q.y.a.a.a.d.d.k.k.c.c.c.M.M.C.A.A.G.G.L.L.U.U.L.L.G.G.G.A.C.C.M.M.c.c.k.k.k.d.a.a.a.y.y.q.q.q.y.y.a.a.d.k.k.k.k.c.c.M.M.C.A.A.",
"G.L.L.L.U.U.L.L.L.G.G.A.A.A.C.C.M.M.M.c.c.c.k.k.d.k.d.d.a.a.a.y.y.q.y.q.6.6.6.4.4.>.4.>.>.>.=.=.&.&.@.@.&.@.X.X.X.{ { ` ` ( ( ( E ( E Y Y Y P P P P H H S S C S C C C M M v v l v v M C C C C S S S H H P P P P P Y Y E E E ( E E E Y Y P Y P H P H S S S S C S C M M v v v v M M M C M C C S S H H P P P P Y Y Y E E E ( ( ( ` { { { { X.X.X.@.@.@.&.&.=.=.=.>.>.>.>.4.4.6.6.6.6.y.q.y.y.a.y.a.d.a.d.d.k.k.k.c.c.c.M.M.C.C.C.A.A.G.G.G.L.L.U.U.U.L.G.L.G.G.A.A.C.C.C.M.M.c.c.c.k.k.k.d.d.a.a.d.a.d.k.k.k.c.c.c.M.M.C.C.A.A.A.G.",
"U.U.U.W.W.W.W.W.U.U.U.U.L.L.G.G.G.G.A.A.C.C.C.C.M.M.c.c.c.c.k.k.k.k.d.d.d.a.a.a.y.y.y.q.q.q.q.6.6.6.4.4.4.>.>.>.>.=.=.&.&.&.&.@.@.@.@.X.{ X.{ { ` ` ` ` ` ( ( E E E E Y Y Y Y P Y Y Y Y E E ( E ( ( ( ` { ` { { { X.X.X.@.@.@.@.X.X.X.X.{ { { ` ` ` ` ( ( E E E E Y Y Y Y P P Y Y E E E ( E ( ( ` ` ` ` { { { X.X.X.@.@.@.@.&.&.&.=.=.=.>.>.>.>.4.4.4.4.6.6.q.q.y.q.y.y.y.a.d.d.d.d.d.d.k.k.k.c.c.M.M.M.M.C.C.C.A.A.G.A.G.G.G.L.U.U.U.U.U.W.W.~.W.W.U.U.L.L.L.L.G.G.G.A.A.A.C.C.C.M.M.M.M.c.c.M.M.M.M.M.C.C.A.A.A.A.G.G.L.L.L.L.",
"L.L.U.U.U.W.U.U.U.L.G.G.G.G.A.A.C.M.M.M.c.c.c.k.k.k.d.d.a.a.y.a.y.q.q.q.6.6.6.4.4.>.4.>.>.=.=.=.&.@.@.@.X.X.X.{ { ` { ` ( ( ( E E E E Y Y P P P H S S S S C M C M M v v l l l g l l l v v M M C C C S S H H H P P Y Y Y E E E E E Y Y Y P P H H S S S C C M M M v v l l l g l l v v v v M M C C S S H H H P P P Y Y E E E ( ( ( ` ` ` { { { X.X.X.@.@.&.&.&.=.>.=.>.>.4.4.4.6.6.6.q.y.q.y.y.a.a.d.d.k.k.k.c.c.c.M.M.M.C.C.C.A.A.G.G.L.L.L.U.U.U.U.L.L.L.G.G.A.A.A.C.C.M.M.c.c.c.k.k.k.k.d.d.d.d.d.d.k.c.c.c.c.M.C.M.C.C.C.A.G.G.",
"G.G.L.L.U.U.U.L.L.G.G.G.A.A.C.C.C.M.M.c.M.c.c.k.k.k.k.d.a.a.a.y.y.y.q.q.q.q.q.6.4.4.4.>.>.=.>.=.&.&.&.@.@.@.@.X.X.X.{ { { ` ` ` ( E ( E E E Y P Y P P P H H S S S C C M M v v v M M M C C S C S S H H P P P P Y E E E E ( ( ( ` E E E E Y Y P P P H H H S S C S C C M M v v v M M C C C S S S H H H P P P Y Y E E E ( ( ( ( ` ` { { { X.X.X.@.@.&.&.&.&.=.=.=.>.>.4.4.4.4.6.6.q.q.y.y.y.y.a.a.d.d.d.d.d.k.k.c.M.c.M.M.M.C.C.A.A.A.G.G.G.L.U.U.U.L.L.L.G.G.G.A.C.C.C.C.M.M.M.M.c.c.k.k.d.k.d.d.d.k.k.k.k.c.c.c.M.M.C.C.C.C.A.G.A.",
"G.G.G.L.L.U.L.L.L.G.A.A.C.C.C.M.M.c.c.k.d.d.d.a.y.y.y.y.q.q.6.4.4.4.>.>.=.=.&.&.@.@.@.X.X.{ { ` ` ( ( ( E Y Y Y P P H S S C C C M M v v v l g g g u u y y w w 6 6 6 2 < ; < ; ; ; < < 2 6 6 6 w w y y u u g g g l l v v v M C M v v v l l g u g u u y w w 6 6 6 2 2 < ; ; ; ; < < 2 2 6 6 6 w w y y u g g g l l l v v M C C C S S H H P Y Y Y Y E ( ( ` ` ` { { X.X.X.@.@.&.=.=.>.>.>.4.4.6.6.q.q.y.y.y.a.a.d.d.k.k.c.M.c.M.C.C.C.A.G.G.G.L.L.U.L.L.G.G.G.A.C.C.M.M.c.c.k.k.k.d.d.a.a.y.y.q.q.y.y.a.y.a.d.d.k.c.k.c.c.M.M.C.A.A.",
"C.A.G.G.G.L.G.G.A.A.A.C.M.M.c.c.k.k.k.d.d.a.a.a.y.y.q.6.6.6.4.4.4.>.>.=.&.&.&.@.@.X.X.{ { ` ` ( ` E ( E E Y P P H H H S S C C M M v v v l l g g g u y y w w w 6 6 6 2 < < ; ; ; ; < < 2 2 6 6 6 w w y u u u u g g l l v v M M v v v l l l g g u u u w w w w 6 2 2 < < < ; ; ; < 2 2 2 2 6 w w y y y u u u g g l l v v M M M C C S S H P P P Y Y E E E ( ( ` ` { { X.X.X.@.&.&.=.=.=.>.>.>.4.6.6.6.q.q.y.y.a.a.d.d.d.k.k.c.c.c.M.C.C.A.A.G.G.L.L.G.G.A.C.C.C.M.M.c.c.c.k.k.d.d.a.a.y.y.q.q.6.6.q.q.q.y.a.a.d.d.d.k.k.c.c.c.M.M.C.",
"A.G.L.L.U.U.U.U.L.G.A.A.C.C.M.c.c.c.k.k.d.d.a.a.y.y.q.q.6.6.4.4.>.>.>.=.&.&.@.X.X.{ { { ` ` ( ( E Y Y Y P P H H S S C C M v v v l l g g u y y y w w 6 6 2 2 < ; ; ; & & @         @ @ & & ; ; < < 2 2 6 w w w y u u u g g l l l g g u u y y w w 6 6 2 2 < < ; & & @ @ @     @ @ @ & & & ; < < 2 2 6 6 w w y y u g g g l l v v M M C C S S H H P P Y E E E ( ` ` { { { X.X.@.@.&.=.=.=.>.>.4.4.6.6.y.q.y.y.a.a.d.d.k.k.c.c.M.M.C.A.A.G.G.L.L.U.U.L.L.G.G.A.A.C.C.M.c.k.k.k.k.d.a.a.y.y.y.q.6.6.q.q.y.y.y.a.d.d.d.k.c.c.M.M.C.C.A.",
"L.L.U.U.U.W.U.U.L.L.L.G.A.G.A.A.C.C.M.M.M.c.c.k.k.d.d.d.d.d.a.y.y.q.q.6.6.6.6.4.4.>.>.>.=.=.=.&.&.&.@.@.X.X.X.{ { ` ` ( ( ( E E E Y Y P P P H H S S S C C M M M v v l l l l g g g l l v l v M M M C C S S H H H P P Y Y Y E E Y Y P P P H H H H S S C C M M v v v l l g g u g g l l v v v M M C C C S H H H H P P P Y Y E E E ( ( ` ` ` { { { X.X.@.@.@.&.&.=.=.=.>.>.4.4.4.6.6.6.q.y.y.y.y.a.a.d.d.k.k.k.k.c.c.M.M.C.C.A.A.A.A.G.L.L.L.U.U.U.W.W.U.L.L.L.G.G.A.A.A.C.C.M.M.M.c.c.k.k.d.d.d.a.d.k.k.k.k.c.c.M.M.M.C.C.A.A.G.G.G.",
"U.U.W.W.W.~.W.W.W.U.U.U.L.G.G.G.G.A.A.A.C.M.M.M.c.c.c.c.k.k.k.d.d.d.a.a.a.y.y.q.q.q.6.6.6.4.4.>.>.>.=.=.=.=.&.&.@.@.@.X.X.{ X.{ ` ` ` ( ` ( ( E E Y Y Y P P P H H H S S C C C C C C S S S H P P P P Y Y E E E ( ( ( ( ` ` ` { ` ` ` ( ( E ( E E Y Y P P P H H H S S S C C M C C S S S H H H P P Y Y E E E ( ( ( ( ` ` ` { { { X.X.X.@.@.&.&.&.=.>.>.>.>.>.4.4.4.6.q.6.q.q.q.y.y.a.a.a.d.d.d.k.k.k.c.c.c.M.M.M.C.C.A.A.A.G.G.L.L.L.U.U.U.W.W.W.~.W.W.W.U.U.L.L.G.G.G.A.A.A.C.C.C.M.M.c.c.c.c.k.c.c.c.M.M.C.C.C.A.A.A.G.G.G.G.L.U.",
"G.G.G.L.U.U.L.L.G.G.A.A.C.C.M.M.c.c.c.k.d.d.a.a.a.y.y.q.q.6.6.6.4.>.>.>.=.&.&.@.@.X.X.X.{ { ` ` ( ( ( E E Y P P H H S S C C C M M v l l l g g u g y y y w w 6 6 2 2 < < ; & & & & ; ; < 2 2 2 6 w w w y u u u u g g l l v v M M l l l l g u u u y w w w w 6 2 2 < < ; ; & & & ; ; < 2 2 6 6 6 w w y u u u u g g l l v v M C C C S S H H H P Y Y E E E ( ` ` ` { { X.X.@.@.@.&.&.=.=.>.4.4.6.6.6.q.q.y.y.a.a.a.k.d.k.c.c.c.M.M.C.A.A.G.G.L.L.U.U.L.L.G.G.A.A.C.C.M.M.M.c.k.k.d.d.a.a.y.y.y.q.q.q.y.y.y.a.d.d.d.k.c.c.c.M.C.C.A.A.",
"U.U.U.W.W.W.W.W.U.U.U.L.L.L.G.G.A.A.C.C.C.M.M.c.c.c.c.k.k.k.d.d.a.a.a.a.y.y.y.q.q.6.6.6.4.4.>.4.>.=.>.=.&.&.&.@.@.@.X.X.X.{ { { { ` ` ` ( ( E E E Y Y Y P P P H H S S S C C C M C C C S S S H H H P P Y Y E E ( ( ( ( ` ` ` { ` ` ` ( ( E E E E Y Y Y P H H H S S C C C M M C C C S S H H H H P Y Y Y Y E E ( E ` ` ` ` { { X.{ X.X.@.@.&.&.&.=.=.=.=.>.>.4.4.4.6.6.q.q.q.q.y.y.y.y.a.a.a.d.k.k.k.c.c.c.c.M.M.C.C.C.C.A.A.G.G.L.L.L.U.U.U.W.W.W.W.U.W.U.U.L.L.G.G.G.A.C.C.M.C.C.M.c.c.c.c.c.k.k.k.c.M.M.M.C.C.C.C.A.A.G.G.G.L.L.",
"L.U.U.W.W.W.W.U.U.U.L.L.G.G.G.A.A.A.C.M.M.c.c.c.c.k.d.k.d.d.a.a.a.y.q.q.q.6.6.6.6.4.4.>.>.>.=.=.=.&.&.@.@.X.X.{ { { { ` ( ( E ( E Y Y Y P P P H P H S S C C M M M v v l l l g l l l l v M M M M C C C S H H H H P Y Y Y E E E E Y Y Y P P H H H S S C C C C M v v v l l l l l l l v v v M M C C C S H H H P P Y P Y E E E E ( ( ( ` ` { { { { X.@.@.@.&.=.=.=.=.>.>.>.4.6.6.6.6.q.y.q.y.a.a.a.d.d.d.k.k.k.c.c.c.M.C.C.C.A.A.A.G.G.L.L.U.U.W.W.W.W.U.U.L.L.L.G.G.A.A.A.C.C.M.M.c.c.c.c.k.d.d.d.k.k.k.k.c.c.M.M.M.C.C.C.C.G.G.L.L.",
"G.G.G.L.U.U.U.L.G.G.A.A.A.C.M.c.c.c.k.k.d.d.a.a.y.q.q.q.6.6.4.>.>.>.=.=.&.&.@.@.X.X.{ { ` ` ( E E E Y Y P P H H S C C C M M v v l l l u u u u y w w 6 6 2 2 < < ; & & @ @         @ & & & ; ; < < 2 2 6 6 w y y u u u g l l l g l g u u y y y w 6 6 2 2 < < ; & & & @ @       @ @ & & ; ; < < 2 6 6 6 w y y y u u g l l v v v M C C C S H H H P P Y E E E ( ` ` { { { X.@.@.@.&.=.=.>.>.>.4.4.6.q.q.y.y.y.a.d.d.d.k.k.c.M.M.M.C.A.A.G.G.L.L.U.U.L.L.L.G.A.A.C.M.C.M.c.c.k.k.d.d.a.a.y.q.q.q.6.q.q.y.y.a.d.d.d.k.k.c.c.M.M.C.C.A.",
"A.G.G.G.L.L.L.G.G.G.A.A.C.C.M.M.M.c.c.k.k.k.d.d.a.a.a.y.y.y.q.q.q.6.4.4.4.>.>.=.=.=.&.&.@.&.@.@.@.X.{ { { ` ` ` ( ( E E Y Y Y P P P H S H S S C C M M M v v l l l g g g g u y y u u u g g g l v v v M M M M C C S S H H H P P P H H H S C C C M M M M v l l l g g g u u u y y u u g g g l l l v v M M M C C C S H H H P P P Y Y E E E ( ( ` ` { { { X.X.@.@.@.@.&.&.=.=.=.>.>.4.4.6.6.6.q.q.q.y.y.y.a.a.a.d.k.k.k.c.c.M.c.M.M.C.A.A.A.G.G.L.L.L.L.G.G.A.A.A.C.C.M.M.c.c.c.k.k.k.d.a.a.a.a.y.y.a.a.a.a.d.d.k.k.c.c.c.M.M.M.C.C.A.",
"A.A.A.G.G.L.G.G.A.A.C.C.M.M.M.c.c.k.k.d.d.a.a.y.y.q.q.6.6.4.4.>.>.>.=.=.&.&.@.@.@.X.{ { { ` ` ( ( E E E Y Y P P P H S S S C M M v v v l l g g u u y y w w 6 6 6 2 2 2 < ; ; & ; ; < ; < 2 2 6 6 6 w w y u u g g g g l l v v M v v l l l g g u y y w w 6 6 w 6 2 < < ; ; ; & ; ; < < 2 2 2 6 w w w y y u u g g l l l v v v M C C S S H H P P Y Y Y E E ( ( ` ` ` { { X.X.@.@.@.&.=.=.=.>.4.4.4.6.6.6.q.q.y.y.a.a.d.k.d.k.c.c.M.M.C.C.C.A.A.G.G.G.G.G.A.A.C.C.M.M.c.c.k.k.k.d.d.d.a.y.y.q.q.6.6.6.q.q.y.y.y.a.d.d.k.k.k.c.c.M.M.C.",
"W.W.~.~.~._.~.~.W.W.W.U.U.U.L.L.G.G.G.A.G.A.C.C.C.C.M.M.M.M.c.c.k.k.k.k.d.d.d.a.a.y.y.y.y.q.q.6.6.6.4.4.4.4.>.>.=.=.=.&.&.&.@.@.@.X.X.X.{ { { { ` ` ` ( ( ( ( E E E Y Y Y P P H P P Y Y E Y E ( ( ( ( ( ` ` { ` { X.{ X.X.X.@.@.X.X.{ { { ` { ` ` ( ( ( ( E E Y Y Y P P P H P P P Y Y Y E E E ( ( ( ( ` { ` { { { X.X.@.@.@.@.&.&.=.=.=.>.>.>.>.4.4.4.6.6.6.q.q.q.y.y.y.a.a.a.d.d.k.k.k.c.k.c.c.M.M.M.C.C.C.A.A.A.A.G.L.L.L.L.U.U.U.W.W.~.~._.~.~.~.~.W.U.U.U.U.L.G.L.G.G.A.A.A.C.C.C.M.M.M.M.M.M.C.C.C.A.A.A.G.G.G.L.L.L.U.U.U.",
"G.L.L.U.U.W.U.U.L.L.L.G.G.A.A.A.C.C.C.M.M.c.c.k.k.k.d.d.a.a.a.y.y.y.y.q.6.q.6.6.4.4.>.>.>.=.=.=.=.&.@.@.@.X.X.X.X.{ { { ` ` ( ( E ( E Y Y Y P P P H H H S S C C C M M M v v v l v v v M M M C C C S S H H H P P P Y E E E ( ( E E E Y Y Y P P H H S S S C C C M M M v v v v v v M M M M C S S S S H H H P P P Y Y E E ( E ( ( ` ` ` { X.X.X.@.@.@.&.@.&.&.=.>.>.>.4.4.4.4.4.q.q.q.q.y.y.y.a.a.a.d.k.k.k.k.c.c.c.M.M.M.C.C.C.A.G.G.G.L.L.L.U.U.W.U.U.L.L.L.G.G.A.C.C.C.C.M.M.M.c.c.k.k.d.d.d.d.d.d.k.k.c.c.c.M.M.C.C.C.C.A.G.G.G.",
"G.L.U.U.U.W.U.U.L.L.L.G.A.A.A.C.M.M.c.c.c.k.k.k.d.a.a.a.y.y.y.q.6.6.4.4.4.4.>.=.=.&.&.&.@.@.X.X.X.{ ` ` ( ( ( E E Y Y P P P H H H S S C C C M v v l l g g g u u y y w w w 6 2 6 6 6 w w y y u u u g g l v v v v M C C C S S H S S C C M M v v l l l g g g u y y w w w 6 6 2 6 6 w w y y u u u g g l l v v v M C C C S S H H P P Y Y Y E E E ( ( ` ` { { X.X.X.@.@.@.&.=.>.=.>.>.4.4.4.6.q.q.q.y.y.a.d.d.d.d.k.c.c.c.M.M.C.C.A.A.G.G.L.L.U.U.W.U.U.L.L.L.G.G.A.A.C.C.M.M.c.c.c.k.k.k.d.d.a.y.a.a.a.d.d.k.k.c.k.c.c.M.C.C.A.A.G.G.",
"U.U.W.W.W.~.W.W.W.U.U.U.L.L.L.G.A.A.A.A.C.M.M.M.M.c.c.c.k.k.k.d.d.d.a.a.y.y.y.q.q.q.q.q.6.6.4.4.4.>.>.=.=.=.&.&.=.&.@.@.@.X.X.{ { { { { ` ( ( ( ( E E E Y Y P P H P H H S S S C S S H H H P P P Y Y Y E E E ( ( ` ` ` ` { { { { ` { ` ` ( ( E E E E Y Y Y P P H H S S S S C S S S H H H P P Y Y Y E E E ( ( ( ` ` ` { { { X.X.@.@.@.@.@.&.&.=.=.=.>.>.>.4.4.6.6.6.6.q.q.q.y.a.y.a.a.d.d.d.d.k.k.k.c.c.M.M.M.M.C.C.C.A.A.G.G.L.L.L.L.U.U.W.W.W.W.W.W.W.U.U.L.L.L.G.G.G.A.A.C.C.C.M.M.M.c.c.c.k.c.c.c.M.M.M.C.C.C.A.A.G.G.G.G.L.U.",
"L.L.U.U.U.W.U.U.U.L.L.L.G.A.A.A.A.C.C.M.M.M.c.c.k.k.k.d.d.a.a.a.a.y.y.y.q.q.6.6.4.4.4.>.>.>.>.=.=.&.&.@.@.@.X.X.X.{ { { ` ( ( ( ( E E E Y Y Y P P P H S S S C C C M M v v v v l v v v M M C C C S S H H H P P Y Y Y E E E ( ( E E E Y Y Y P P P P H H S C C C M M M v v v l v l v M M C C C S S S H P P P P Y Y E E E ( ( ( ( { ` { { X.X.X.X.@.&.&.&.=.=.=.>.>.4.>.4.6.6.6.6.q.q.q.y.y.a.a.d.d.d.k.k.k.c.c.c.M.M.M.C.A.A.A.A.G.G.L.L.U.U.U.W.W.U.U.U.L.L.G.G.G.A.A.C.C.C.M.M.c.c.c.k.k.k.d.d.k.k.k.c.c.c.c.M.C.C.C.C.A.G.G.G.L.",
"A.G.G.G.L.L.L.L.G.G.A.A.C.C.C.M.c.c.c.k.k.k.k.d.d.d.a.a.y.y.y.q.q.6.6.6.4.4.4.>.=.>.=.=.=.&.&.@.@.X.X.{ { { { ` ` ( ( E E E E Y Y Y P P P H H S C C C M C M v v l l l l g g u g u g g l l l v v v M C C S C S H H H P P P Y Y Y P P P H S S S S C C M M v v v l l l g g u u g g g g l l v v M M M C C S S S H H P P P Y Y Y E E E ( ( ( ` ` { { { X.X.X.@.@.@.&.=.=.>.=.>.>.4.4.4.6.6.q.q.q.q.y.y.a.a.a.d.d.d.k.k.c.c.c.c.M.C.A.A.A.A.G.G.G.L.L.L.G.G.G.A.C.C.C.C.M.c.c.c.c.k.d.k.d.d.d.a.y.y.y.a.d.d.d.k.k.c.k.c.c.M.c.C.C.C.A.",
"G.L.L.U.U.U.U.L.L.G.G.G.A.A.C.C.C.M.M.M.c.c.k.k.k.d.d.a.a.a.y.y.q.q.y.6.6.6.6.4.4.4.>.=.=.=.&.&.&.@.@.@.X.X.{ { ` { ` ( ` ( ( E E E Y P P P H H H H S C C C C M M v v l l l g g l l l v v v M M M C C S S S H H P P Y Y E E E E Y Y Y P P H H H C S C C M M M v v l l l l l l l l v v v v M M C C S S H H H H P P Y E E E E E ( ( ` ` { { { { X.X.@.X.@.&.&.=.=.>.>.>.4.4.4.4.6.6.q.q.q.y.y.y.a.d.d.d.d.k.k.c.c.c.c.M.C.C.C.C.A.A.G.G.L.L.U.U.U.U.L.L.G.G.G.A.A.C.C.M.M.M.c.c.c.k.k.k.d.d.d.a.d.d.d.k.k.k.c.c.c.M.M.C.C.C.A.A.G.",
"U.W.W.W.~.~.~.W.W.U.U.U.L.L.G.G.G.A.A.A.C.C.C.M.M.M.M.c.c.k.k.d.d.d.a.a.a.a.y.y.y.q.q.q.6.6.4.4.4.4.>.>.>.=.=.&.&.&.&.@.@.X.X.X.X.{ ` ` ` ( ( ( E ( E E Y Y Y P P H H S S S S C S S H H H P P P Y Y Y E E ( ( ( ( ` ` ` { { { { { ` ` ( ( ( ( E E E Y Y Y P P P H H S S C C S S H H H P P P Y Y Y E E E ( ` ( ` ` { { { { X.X.X.@.@.@.&.&.=.=.=.>.>.4.>.4.4.6.6.6.q.q.q.q.y.y.y.a.a.d.d.d.k.k.c.c.c.M.M.M.M.C.C.A.A.A.G.G.G.L.L.U.U.U.W.W.W.~.~.W.W.W.U.U.U.L.L.L.G.G.A.A.C.C.C.C.M.M.c.c.c.c.c.M.M.M.M.C.C.C.A.A.A.G.G.G.L.U.U.",
"G.L.L.L.U.U.U.L.L.L.L.G.G.G.C.C.C.C.C.M.M.c.c.c.k.k.k.d.d.d.d.a.a.a.y.y.q.q.q.6.q.6.4.4.4.4.>.>.=.=.=.&.&.&.&.@.@.X.X.X.{ { { ` ` ` ` ( ( ( E E E Y Y Y P P P H H H S S S C C C C S S S S H H H P P Y P Y E E E E ( ( ` ` ` { ` ` ( ( ( E E Y Y Y Y P P H P H S S S S C C C C C S S S S H H P P P Y E E Y E E ( ( ( ( ` { { { { { X.X.@.@.@.&.&.&.=.=.>.=.>.>.4.4.4.6.6.6.q.q.y.y.y.a.y.a.a.d.d.d.k.k.k.c.c.c.M.M.C.M.C.A.A.A.A.G.G.L.L.L.L.U.W.U.L.L.L.G.G.G.A.A.A.A.M.M.M.M.c.c.c.k.k.k.k.d.d.k.k.k.c.c.c.M.M.C.C.C.C.A.G.G.G.",
"L.L.L.U.W.W.U.U.L.L.G.G.G.A.C.C.C.M.M.c.c.c.k.k.k.d.d.d.a.y.y.q.q.q.q.6.6.4.4.>.>.>.=.=.&.&.&.@.@.X.X.X.{ { ` ` ( ( ( E ( E Y Y Y P P H H S S S C M C M v v v l l l g g u u y y u u g g l l l v v v M M C C C S S H H H P P Y P P H H H H S S C C M v v v l l l g g u g y y u u u g g l l l v v M M M C S S S H H P P P Y Y E E E ( ( ( ` ` ` { X.{ X.X.@.@.&.&.=.=.>.>.4.4.4.6.6.6.6.q.y.y.y.y.a.a.d.d.d.c.c.c.c.M.M.C.C.C.A.A.G.G.L.L.U.U.U.U.U.U.U.L.L.G.A.A.C.C.C.M.M.M.c.c.k.k.k.d.d.a.a.a.d.d.k.k.c.c.c.M.M.M.C.C.A.A.G.G.",
"A.G.G.G.L.L.L.G.G.G.A.A.C.C.C.M.M.c.c.k.k.k.k.d.d.a.a.y.y.y.y.q.q.6.6.4.4.4.4.>.>.>.=.&.&.&.@.@.X.X.X.{ { { ` ` ` ( ( ( E E E Y Y P P H H H S S S C C M M M v v l l l g l g g u u g g g l l v v v M M C C S S S H H H P P Y Y P P H H H S S S C C M M M M v l l l g g g g u g g g l l l v v v M M M C C S S S H H P P P Y E E E ( E ( ( ` ` { { { X.X.X.X.@.&.&.=.=.=.=.>.>.>.4.6.6.6.q.q.q.q.y.y.a.a.a.d.d.d.k.k.c.k.c.M.M.M.C.A.A.A.G.G.L.L.L.L.G.G.A.A.A.C.C.M.M.c.c.c.c.k.d.k.d.a.a.a.y.y.a.a.d.d.d.d.k.k.k.c.M.c.M.C.C.C.A.",
"L.L.U.U.W.W.W.U.U.L.L.G.G.G.A.C.C.M.M.M.M.c.c.k.k.k.d.d.a.a.a.y.y.q.q.6.6.6.6.4.4.>.>.=.=.=.=.&.&.@.@.X.X.{ { ` ` ` ( ( ( E E E Y Y Y P H H H H S S C C C M v v v v l g g g u g g g g l l v v v M M M C S S S S H P P P Y Y Y Y P P P P H H S S C C M M M v v l l g g g u u g g l g l v v v M M M C C S S H H H P P P Y E E E ( ( ` ` ` ` { { X.X.X.@.@.&.&.&.=.=.>.>.4.>.4.6.6.6.q.q.q.y.y.a.a.d.d.d.k.k.c.c.c.c.M.M.C.A.A.A.G.G.L.L.L.U.U.U.W.U.U.U.L.L.G.G.A.A.A.C.M.M.M.c.c.c.k.k.k.d.d.d.d.d.k.k.k.c.c.c.M.M.C.C.C.A.G.G.G.",
"L.L.L.U.U.U.U.L.L.L.G.G.G.A.A.C.C.C.M.M.M.c.c.c.c.k.k.d.d.d.a.a.a.a.y.y.y.q.q.6.6.6.6.4.4.4.>.>.=.=.=.&.&.&.&.@.@.@.X.X.{ { { { ` ` ` ( E ( E E Y Y Y Y Y P H H H S S S C C C M C C C S S S H H H P P P Y Y E E E E ( ( ` ` ` ` ` ` E E E E Y Y Y P P P H H H S S S C C C C M C C S S H S H H P P Y Y Y E E E ( ( ( ( ` { ` { { { X.X.X.@.@.@.&.&.&.=.=.=.>.>.4.4.4.4.4.6.q.q.q.y.y.y.a.a.a.a.d.d.k.k.k.c.c.c.c.M.M.M.C.C.A.A.A.G.G.G.L.U.U.U.W.U.L.L.L.G.G.G.A.A.C.C.C.M.M.c.M.c.c.k.k.k.k.d.k.k.c.k.c.c.M.M.M.M.C.C.C.A.A.G.G.",
"G.G.L.L.U.U.U.L.L.G.G.G.A.A.C.C.M.c.c.c.k.k.d.d.a.a.y.y.y.q.q.6.6.4.4.4.>.>.=.=.&.&.@.@.X.X.X.{ { ` ` ` ( E E E Y Y Y P H H H S C C M C M M v l l l g g u u u y w y w w 6 2 2 2 2 6 6 w w y y y u g g g l l v v M M M M C S S C C M M v v v l l l g g u y y y w w w 6 6 2 2 2 6 6 w w w y y u u u g l l v l v M M M C C S H H H P P Y Y Y E ( ( ( ` ` { { X.X.X.@.@.&.&.&.=.>.>.4.>.4.6.6.q.q.y.y.y.a.a.d.d.k.k.k.c.M.M.M.C.C.A.A.G.G.L.L.U.U.U.U.U.L.G.G.A.A.A.C.C.M.c.c.c.k.k.d.d.d.a.y.y.q.y.y.a.d.d.d.k.k.c.c.M.M.C.C.A.A.G.",
"U.U.U.W.W.W.W.W.U.U.U.U.L.G.G.G.G.A.A.C.C.C.C.C.M.M.M.c.c.c.k.k.d.k.d.d.d.a.a.a.y.y.q.y.q.q.6.6.6.4.4.4.4.4.>.>.=.=.=.=.&.&.&.@.@.@.X.X.X.{ { { ` ` ` ( ( ( ( E E E Y Y Y Y P P Y Y Y Y E E E ( ( ( ( ` ` ` ` { { X.X.X.X.@.@.@.X.X.X.X.{ { { ` ` ( ( ( ( E ( E Y Y Y Y Y P P Y Y E E E E ( ( ( ` ` ` ` ` { { X.X.X.X.@.@.@.&.&.=.=.=.=.>.>.>.4.4.4.4.6.6.q.6.q.q.q.y.y.a.a.a.d.d.d.k.d.k.k.k.c.c.M.c.M.M.C.C.C.A.A.A.A.G.G.L.L.L.U.U.W.U.W.W.~.W.W.W.U.U.L.L.L.G.G.A.G.A.A.C.C.M.C.M.M.M.c.c.c.c.M.M.C.C.C.C.C.A.A.G.G.G.L.L.U.",
"L.L.L.U.U.W.U.U.U.L.G.G.G.A.A.C.C.M.M.c.c.c.k.k.d.k.d.d.a.y.y.y.q.q.q.6.6.4.4.4.4.>.>.=.&.&.&.@.@.@.X.X.{ { { { ` ` ( ( E ( Y E Y P P H H H S S S C C M M v v v l l l l g g u u g g g g l l l v v v M C C C S S S H H P P Y Y P P P H H S S S C C M M v v v l l l l g u u u g g g l l l l v v M M C C C S S S H H P P Y Y E E E ( ( ( ` ` { { { { X.X.@.@.@.&.&.=.>.>.>.>.4.4.4.6.q.q.q.q.y.y.a.a.a.d.d.k.k.k.c.M.M.M.M.C.C.A.A.G.G.L.L.U.U.U.U.U.U.L.L.G.G.G.A.C.C.C.M.M.M.c.c.c.k.k.d.d.a.a.a.d.k.k.k.c.c.c.M.M.M.M.C.A.A.G.G.",
"G.L.L.L.U.W.U.U.L.L.G.G.A.A.A.C.C.M.c.M.c.c.k.k.d.d.d.a.a.y.y.q.q.q.q.6.6.4.>.>.>.=.=.=.&.&.@.@.X.X.X.{ { { ` ` ` ( E E E E Y Y P P P H H S S C C M M M v v l l g l u u u u u u u u u g g g l l v v v M M C C C S H H H P P Y P H H H S S C C M M M v v l l g g g g u y u y y u u u g g l l l v v M M M C C S S H H P P P Y E E E E E ( ` ` ` { { { X.X.@.@.@.&.=.=.=.>.>.4.4.4.6.6.q.q.q.q.y.y.a.a.d.d.k.k.k.c.c.c.M.M.M.C.C.A.G.G.G.L.L.U.U.W.U.L.L.L.G.G.A.A.C.C.M.M.c.c.c.k.k.d.d.d.a.a.a.a.d.d.d.k.k.k.c.M.c.M.C.C.A.A.G.G.",
"A.G.L.L.L.L.L.L.G.G.G.A.A.C.C.M.M.c.c.c.c.k.k.k.d.d.a.a.y.y.y.q.q.q.q.6.6.6.4.>.>.>.>.=.&.&.&.@.@.X.X.X.{ { { ` ` ` ` ( ( E E E Y Y Y P H H H S S S C C M M M v v v l l l g g g g g l l l v v M M M C C S S H H H P P P Y Y Y Y Y P P H H S S S C C C M M v v v l l l g g u g g l l l v v v M M M C S S S H H P P P Y Y Y Y E ( ( ( ( ` ` ` { { X.{ X.@.@.@.&.=.=.=.>.>.>.4.4.4.4.6.6.q.y.q.y.y.a.a.d.d.d.k.k.k.k.c.c.M.M.M.C.A.A.A.A.G.G.L.L.L.L.G.G.G.A.A.A.A.M.M.M.c.c.c.c.k.d.k.d.d.a.a.y.a.a.d.d.k.k.k.k.c.c.M.M.M.C.C.A.A.",
"G.L.L.L.U.U.U.L.L.G.G.G.A.A.C.A.C.M.M.M.c.c.k.k.k.d.d.d.a.a.y.y.y.q.q.q.6.6.6.6.4.4.>.>.>.=.=.&.&.@.@.@.@.X.X.{ { ` ` ` ` ( ( ( ( E E Y Y Y P P H H S S S C C M M M v v v l l l l l v v v M M C C C S S H H H P P Y Y Y E E ( E E Y Y Y P P P H S S S C C C M M v v v v l l l v v v M M M C C S S S H H P P P P Y Y E E ( ( ( ` ` ` { { { X.X.@.@.@.&.@.&.&.=.=.>.>.>.>.4.4.6.6.q.q.q.q.y.a.a.a.a.d.d.k.k.k.c.c.c.M.M.M.C.C.A.A.G.G.G.L.L.L.U.U.U.L.L.G.G.G.A.A.C.C.C.M.M.c.c.c.c.k.k.d.d.a.a.d.d.k.k.k.c.c.M.c.M.M.C.C.C.A.G.A.",
"W.~.~.~._._.~.~.~.~.~.W.W.U.U.U.L.L.G.G.G.A.A.A.A.A.C.C.M.M.M.c.c.c.c.k.k.d.k.d.d.d.a.a.y.y.y.y.y.q.q.6.6.4.4.4.4.>.>.=.>.=.=.&.&.&.@.@.@.X.X.X.X.X.{ { { ` ` ` ( ( E E E E E Y Y E E ( ( ( ( ` ` { { { { X.X.X.@.@.@.@.&.&.&.&.&.@.@.X.X.@.X.{ X.{ ` ` ` ` ( ( ( E E E Y Y E E E ( ( ( ( ` ` ` { { { X.X.@.X.@.@.&.&.&.&.&.=.=.>.>.>.>.4.4.4.6.6.q.6.q.q.y.y.y.a.a.a.a.d.d.k.d.k.k.c.c.c.c.M.M.C.C.C.C.A.A.A.G.G.G.L.L.L.L.U.W.W.W.W.~.~.~._._.~._.~.W.W.W.U.U.L.U.L.L.L.G.G.G.A.A.C.C.C.C.M.C.C.A.A.A.A.A.G.G.G.L.L.U.U.U.W.W.",
"L.L.U.U.U.W.U.U.L.L.L.G.G.G.A.A.A.C.C.M.M.M.c.M.c.k.k.d.d.d.a.a.a.y.y.y.y.q.q.6.q.6.4.4.4.4.>.>.=.=.=.&.&.&.@.@.@.@.X.X.X.{ { { ` ` ` ( ( E ( E Y Y Y P P P H H S H H S C C C C C S S S S H H P P P Y Y Y E E E E ( ( ( ` ( ` ` ` ( ( ( E E E Y Y P P P P H H H S S S S C M C C S S S S H H H P P Y Y Y Y E E ( ( ( ( ` ` { { X.{ X.@.@.@.@.@.&.&.=.=.>.>.>.>.4.4.6.6.6.6.q.q.y.y.y.y.a.a.a.d.d.k.d.k.c.c.c.M.M.M.M.C.C.A.A.A.G.G.G.L.L.U.U.U.U.U.U.L.L.L.G.G.G.A.A.C.C.M.M.M.c.M.c.c.k.k.k.d.k.k.k.c.c.M.M.M.M.C.C.C.A.A.G.G.G.",
"G.L.L.L.U.U.U.U.L.L.G.G.G.A.A.A.C.C.M.M.M.c.c.c.c.k.k.d.d.d.a.a.y.a.y.q.q.q.q.6.6.4.4.4.>.>.>.>.=.=.&.&.&.&.@.@.X.X.X.X.{ { ` ` ` ( ( E ( E E Y Y Y P P P H H S S S S C C C M M M C C C S S S H H H P P P Y Y E E E E ( ( ( ` ( ( ( E E E Y Y Y P P P H H H S S S S C M M M M C C S S S S H H H P P P Y E E E E E ( ( ( ` ` ` { { X.X.X.X.@.@.&.&.&.=.=.=.>.>.>.4.4.4.6.6.q.q.q.q.y.y.y.a.a.a.d.d.d.k.k.k.c.c.c.M.M.M.M.C.A.A.A.G.G.L.L.L.L.U.U.U.U.L.L.G.G.A.A.C.C.C.C.M.M.M.c.c.c.k.k.d.d.d.d.k.k.c.c.c.c.M.M.M.C.C.C.A.A.G.G.",
"L.U.U.W.W.~.W.W.U.U.L.L.G.G.A.A.C.M.M.c.c.c.k.k.d.d.d.a.a.y.y.q.6.6.4.4.4.>.>.=.=.&.&.@.@.X.X.{ { { ` ` ( E E Y Y Y P H H H S S C C C M v v v l l g g g u y y w w w 6 6 2 < < < < 2 2 6 6 w w w y y u g g g l v v v M M M C S C M M M v v l l l g g u y y w w 6 6 6 2 < < < < 2 2 6 6 6 w y y y u g g g l l l v M M M C C S H H P P P Y Y E E ( ( ` ` ` { X.X.X.@.@.&.=.=.>.>.>.4.4.6.6.q.q.q.y.y.a.d.d.k.k.k.c.c.M.M.C.C.A.A.G.G.L.L.U.W.W.~.~.W.U.U.L.L.L.G.G.A.C.C.M.M.c.c.k.k.k.d.d.a.a.y.a.a.d.d.k.k.c.c.M.M.M.C.C.G.G.G.L.",
"U.U.W.W.W.W.W.W.U.W.U.L.L.L.L.L.G.A.A.A.A.C.C.C.C.M.M.c.c.c.c.c.k.k.d.k.d.d.a.a.a.y.y.y.y.q.q.q.q.6.6.6.6.4.4.4.>.>.>.=.=.=.&.&.&.&.@.@.@.X.X.X.{ { { { { ` ` ` ( ( ( E E E E E E E E ( ( ( ( ` ` ` ` { { { X.X.@.X.@.@.@.&.&.&.@.@.@.@.X.X.X.{ { { ` ` ` ` ( ( ( E E E E E Y E E ( ( ( ( ` ` { ` { { { X.X.X.@.@.@.@.&.&.=.=.=.=.=.>.>.>.4.4.4.4.4.6.q.6.q.q.y.q.y.a.a.a.a.d.d.d.k.k.k.k.c.c.c.M.c.M.M.M.C.C.A.A.A.G.G.G.G.L.L.L.U.U.U.U.W.W.W.W.W.U.U.U.L.L.L.G.G.A.G.A.A.A.C.C.C.C.M.M.c.c.M.M.M.C.C.C.A.A.A.A.G.G.L.L.G.L.L.",
"G.A.G.G.L.L.L.G.G.G.A.A.C.C.M.M.M.M.c.k.k.k.d.d.d.a.a.y.y.y.q.q.q.q.6.6.4.4.4.>.>.=.=.=.&.&.&.@.@.X.X.X.{ { ` ` ` ( ` ( ( E E E Y P P P H H H H S S C C M M M v v l l l l l g u g l l l l v v M M M C C S S S H H P P P P Y P Y Y P H P H S S S S C C M M v v v l l g g g g g g l l l v v v M M C C S S S H H H P P P Y Y E E E ( ( ` ` ` { ` { X.X.X.X.@.&.&.&.&.=.=.>.>.>.>.4.4.6.q.6.q.q.y.y.y.a.a.a.d.d.k.k.k.k.c.M.M.M.M.C.A.A.G.G.L.G.L.L.L.G.G.G.A.A.C.C.C.M.M.c.c.c.k.k.d.d.d.a.a.y.y.a.a.a.d.d.d.k.k.c.c.c.M.M.C.C.A.A.",
"L.L.U.U.U.W.U.U.L.L.L.L.G.G.A.A.A.C.C.M.M.M.M.c.c.k.k.k.d.d.d.a.a.y.y.y.y.q.q.q.6.6.6.4.4.>.>.>.=.=.&.&.@.@.@.@.@.X.{ { { { { ` ` ( ( E E E E E Y Y P P H H H S S S C C M M M v M M C C C S S H H H P P Y Y Y Y E E E ( ( ` ` ( ( ( E E E E Y P P P P H S H S S S C C M M M M M M C C S S S H H P P P P E E E E E ( ( ( ` ` { { { { X.X.X.@.@.&.&.=.=.=.>.>.>.>.4.4.4.6.6.q.q.q.y.y.y.y.a.a.d.d.d.k.k.c.c.c.c.M.M.C.C.A.A.A.G.G.G.L.L.L.U.U.U.W.W.U.U.L.L.G.G.G.A.A.A.C.C.C.M.c.M.c.c.k.k.k.d.k.k.k.c.c.c.M.M.M.C.C.A.A.A.G.G.L.",
"L.L.U.U.W.U.W.U.L.L.L.G.G.A.A.A.C.C.C.M.c.M.c.c.c.k.k.k.k.d.d.a.a.y.y.y.q.q.q.6.q.6.6.4.>.4.>.>.>.=.=.=.&.&.@.@.X.@.X.X.{ { { ` ` ` ( ( ( ( E E Y Y P P P P H H S S S C C C M M C C C C S S H H P P P Y Y Y E E E ( ( ( ( ` ` ( ( ( ( ( E E E Y Y P P H H H S S S C C C M M M C C C S S H H H P P Y Y Y E E E E ( ( ( ` ` ` { X.{ X.X.X.@.@.@.&.&.=.=.=.=.>.4.4.4.4.6.6.6.q.q.y.q.y.y.a.a.a.d.d.d.k.k.c.c.c.c.M.M.M.C.A.A.A.G.G.G.G.L.U.U.U.U.U.U.U.L.L.L.G.G.A.A.A.C.C.M.M.M.c.c.c.k.k.k.d.k.k.k.c.k.c.c.M.M.M.C.C.A.A.A.G.G.G.",
"L.L.L.U.U.W.U.U.U.L.L.G.G.G.A.A.C.M.M.M.c.c.c.k.k.k.d.d.a.a.a.y.y.q.q.q.6.6.6.6.4.4.>.>.=.=.&.&.&.@.@.X.X.X.{ { ` ` ` ( ( ( E E E Y Y Y P P H H S S S C C M M v v v l l l l g g g g l v v v v M M M C C S S H H H P P Y Y Y E E Y Y P P H H S S S C C M M v v v l l l l g g g l l l l v v v M M C C S S H H H P P P Y Y E E ( ( ` ` ` ` { { { X.X.@.@.@.&.&.&.=.>.>.>.4.4.6.6.6.q.q.q.y.y.y.a.a.d.d.d.k.c.k.c.M.M.M.M.C.C.C.A.G.G.L.L.L.U.U.W.U.W.U.L.L.L.G.G.A.A.C.C.C.M.M.c.c.c.c.k.d.d.a.d.d.d.k.k.k.c.c.M.M.C.M.C.C.A.A.G.L.",
"G.G.L.L.U.U.U.L.L.G.G.A.A.A.C.M.M.M.c.c.k.c.k.d.d.d.a.a.y.y.q.q.q.q.6.6.6.4.4.>.>.>.=.=.&.&.&.@.@.X.X.{ { ` { ` ` ( ( E E E E E Y P P H H S S S S C M M M M l v l l l g u u u y u u g g g l l v v M M M C C C S H H P P P P Y Y P H H H S S C C C M M M v v l l g g g u u u u u g g g g v v v M M M M C C S S H H P P P Y Y E E E ( ( ( ( ` ` { { X.X.X.@.@.@.&.=.=.=.=.>.>.4.4.4.6.6.6.q.q.y.y.a.a.a.d.d.d.k.k.c.k.c.M.M.M.C.C.A.A.A.G.L.L.L.L.L.L.G.G.G.A.C.C.C.M.M.c.c.c.k.k.d.k.d.a.a.a.a.a.d.d.d.k.k.k.k.c.c.M.M.M.C.C.A.A.",
"L.L.L.U.U.U.U.U.L.L.L.G.G.G.A.A.C.M.M.M.M.M.c.c.k.k.k.d.d.d.a.y.a.y.y.q.q.q.6.6.4.4.4.>.>.>.=.=.=.=.&.&.@.@.@.X.X.{ { { { { ` ` ( E ( E E Y Y Y P P H H H S S S C M M M M M v v M M M C C C C S S S H H H P P Y Y Y E E E ( ( ( E ( E E Y Y P P H H H S S C S C C M M v v v v M M M C C C S S S H H H P P Y Y Y E E ( ( ` ` ` ` { { { X.X.X.@.@.@.@.&.&.=.=.=.>.>.4.4.6.6.6.6.q.q.y.y.y.y.a.a.d.d.d.k.k.c.c.c.c.M.M.M.C.A.A.A.G.G.L.L.U.U.U.W.U.U.U.U.L.L.G.G.A.A.C.C.M.C.M.M.c.c.c.k.k.k.d.d.d.k.k.c.c.c.c.M.M.M.C.C.C.A.G.G.G.",
"L.U.U.U.W.W.W.U.U.L.L.G.G.A.A.C.C.C.M.M.c.c.c.k.k.k.d.d.a.a.y.y.q.q.q.6.6.4.4.4.4.>.>.=.=.=.&.&.@.X.X.{ X.{ ` ` ` ( ( ( E E Y Y Y P H H H H S S C C M M v v l l l g g g u u y y u u u g g g l l v v M M M C S S S H H P P P P P P H H S S S C C C M v v v l l l g g g u y y u u g u g g l l v v v M C C S S S S H H P P P Y E E E E ( ` ` ` { { { X.X.@.@.&.&.&.=.=.=.>.4.4.4.6.6.6.q.q.y.y.y.a.d.d.k.d.k.k.c.c.c.M.M.C.C.A.A.A.G.G.L.L.U.U.W.W.U.U.U.L.L.G.G.G.A.C.C.C.M.c.c.c.c.k.k.k.d.d.a.d.d.d.k.k.c.c.c.M.M.C.C.C.A.G.G.G.",
"U.U.U.W.W.W.W.U.U.U.L.L.L.L.G.G.A.A.A.C.C.C.C.M.M.M.c.c.c.c.k.k.k.d.d.d.d.a.a.a.y.y.y.q.q.q.q.q.6.4.4.4.>.4.>.>.=.=.=.=.&.&.&.@.@.@.X.@.X.X.{ { { ` ` ` ( ( ( ( E E E E Y Y P P Y Y Y Y Y E ( ( ( ( ` ` ` { { { { X.X.X.@.@.@.X.@.X.X.X.{ { { ` ` ` ` ( ( E E E Y E Y Y P P Y Y Y Y E E E ( ( ( ( ` ` { { { X.X.X.X.X.@.@.&.@.&.&.=.=.=.=.>.>.4.4.4.4.6.6.6.q.q.y.q.y.y.y.a.a.a.d.d.d.k.k.k.k.c.c.M.c.M.M.C.C.C.A.A.A.A.G.G.G.L.L.L.U.U.W.U.W.W.W.W.U.U.U.L.L.G.G.G.G.A.A.C.C.C.M.M.M.M.M.c.c.M.M.M.M.C.C.C.A.A.A.A.G.G.G.L.L.L.",
"G.L.L.L.U.U.U.U.L.L.G.G.A.A.A.A.C.M.C.M.M.c.k.c.k.d.k.d.d.a.a.y.y.y.q.y.q.6.6.6.4.4.4.>.>.>.=.=.=.=.&.&.@.@.@.X.X.X.{ { { ` ` ( ( ( E E E E Y P Y P P H H S S S S C C C M v M v M M C C C C S S S H H P P P Y Y Y E E ( ( ( ( ( ( E Y E Y Y Y P P H H H H S S C C M M M v v M M M C C S S S S H H P P P Y P E Y E ( E ( ( ` ` ` { { { X.X.X.@.@.@.@.&.&.=.>.>.>.>.4.4.4.6.6.6.q.q.y.y.y.y.y.a.d.d.d.d.k.k.k.c.c.c.M.M.C.C.C.A.A.G.G.G.L.L.L.U.U.U.L.L.G.G.G.G.A.A.C.M.C.M.c.M.c.c.k.k.k.d.d.d.d.d.k.k.k.c.c.c.M.M.C.C.A.A.G.A.G.",
"L.U.U.W.W.W.W.U.U.U.U.L.G.G.G.A.A.C.C.M.M.c.c.k.c.k.d.d.d.a.a.a.a.y.y.q.6.q.6.6.4.4.>.>.>.=.=.=.&.&.@.@.X.X.X.{ { { ` ` ( ( ( E E E Y Y P P P H H H S S C C C M M v v l l l g g g l l l v M M M C C S S S H H H P P P Y Y Y E Y Y Y Y P P H H H S S S C M M M v v l l l g g g l l v v v M M C C C S S H H H P P P Y Y E E E ( ( ( ` ` { { X.X.X.@.@.&.&.=.=.=.>.>.>.>.4.4.6.6.6.q.q.q.y.y.a.a.a.d.d.k.k.c.c.c.M.M.C.C.C.A.A.G.G.L.L.L.U.U.U.W.W.W.U.U.U.L.L.G.G.G.A.C.C.C.M.M.c.c.k.k.k.k.d.d.d.k.k.c.c.c.c.M.M.C.C.A.A.G.G.G.L.",
"U.W.W.W.W.~.~.W.W.W.U.U.U.L.L.G.G.G.A.A.C.C.C.C.M.M.M.c.c.c.k.k.d.d.d.a.a.a.y.y.q.y.q.q.q.6.6.4.4.>.>.>.>.=.=.&.&.&.@.@.@.X.X.X.{ { { { ` ` ( ` ( E E E Y Y Y P P P H H H S S S S H H H H P P Y Y Y Y E E ( ( ( ` ` { { { X.{ X.{ { ` ` ( ` ( E E E Y Y Y Y P H H H H H S S S S H H P P P P Y Y Y E ( E ( ( ( ` ` { { X.X.X.X.X.@.@.&.&.&.&.=.=.=.>.>.4.4.4.6.6.6.q.q.q.y.y.a.a.a.d.d.d.k.k.k.c.c.M.M.M.M.M.C.C.C.A.G.G.G.L.L.L.U.U.U.W.W.~.~.~.W.W.W.W.W.U.L.L.L.G.G.A.A.A.C.C.C.M.M.M.M.c.c.c.c.M.M.M.C.C.C.A.A.A.G.G.L.U.U.U.",
"L.L.L.U.U.U.U.U.L.L.L.G.G.G.A.A.C.C.M.M.c.c.c.k.c.k.k.d.d.d.a.y.a.y.q.q.q.q.6.6.6.4.4.>.>.>.>.=.=.&.&.@.@.@.X.X.X.{ { ` { ` ` ( ( ( E E Y E Y Y P P H H S H S C C C M M M v v l v M M M C C C S S S H H P P P Y Y E E E ( ( ( E E E E Y Y Y P P P H H H S C C C C M M v v v v v M M C C C S S S H H P P P Y Y E E E ( E ( ` ` ` { { { { X.X.X.@.@.&.&.=.=.=.>.>.4.>.4.4.4.6.6.q.q.q.y.y.y.a.a.d.d.d.k.k.c.k.c.c.M.M.M.C.C.C.A.A.G.L.L.G.L.U.U.W.U.U.L.L.L.G.G.A.A.A.C.C.M.M.c.c.c.c.k.k.k.d.d.k.k.k.k.c.c.c.c.M.C.C.C.A.A.G.G.G.",
"G.L.L.U.U.W.U.U.L.L.G.G.G.A.A.C.C.C.M.M.M.M.c.c.k.k.k.d.d.d.a.a.a.y.y.y.y.q.q.q.6.6.4.4.4.4.>.=.=.=.=.&.&.@.&.@.@.X.X.X.{ { { ` ` ` ` ( ( ( E E E Y Y P P P H H S S S S C C C M C C C C S S H H P P Y P Y Y E E E ( ( ( ( ` ` ` ` ( ( ( ( E Y Y Y P P P H H H S S C C C C M C C C S S S H H H P Y P Y Y E E ( E ( ` ( ` ` { { { { X.X.@.@.@.&.&.&.=.=.=.>.>.4.>.4.4.6.6.6.q.q.y.q.y.y.y.a.a.d.d.k.d.k.c.c.c.M.M.M.M.C.C.C.A.A.G.G.G.L.L.L.U.U.U.U.U.L.L.G.G.G.G.A.C.C.C.M.M.c.M.c.c.k.k.k.k.d.d.k.k.c.c.c.M.M.C.M.C.C.A.A.A.G.G.",
"W.W.~.~.~._.~.~.W.W.W.W.W.U.U.L.L.L.G.G.G.A.A.A.A.A.C.C.C.M.M.M.c.c.c.c.c.k.k.k.k.d.d.d.a.a.a.a.a.y.y.y.q.q.q.6.6.6.6.4.4.4.4.>.>.>.=.>.=.=.&.&.&.&.&.@.@.@.@.X.X.{ X.{ { ` ` ` ` { { { { X.X.@.@.X.@.@.&.&.&.&.=.=.>.=.>.>.4.>.>.>.=.=.&.&.&.&.@.@.@.@.@.X.X.X.{ { { ` { ` ` ` { { X.X.X.X.X.@.@.@.@.&.&.&.&.=.=.=.>.>.>.>.4.4.4.4.6.6.6.q.q.q.q.y.y.y.a.y.a.a.d.d.d.k.d.k.k.k.c.c.c.c.M.M.M.M.C.C.A.A.A.A.A.G.G.G.G.L.L.L.U.U.U.W.W.W.~.~.~.~.~.~.W.W.W.U.U.U.U.U.L.L.G.G.G.G.A.A.A.C.C.C.M.C.C.C.A.A.G.A.G.G.G.L.L.L.U.U.U.W.",
"L.U.U.U.W.W.W.U.U.U.L.L.L.G.G.G.A.A.A.C.C.M.C.M.M.c.c.c.k.k.k.d.d.d.a.a.a.y.y.q.q.q.q.q.6.6.6.4.4.>.>.>.>.=.=.=.&.&.@.@.@.@.X.X.{ X.{ ` ` ` ( ( ( E ( E Y Y Y Y P P P H H H H S H H H P P P P Y Y Y ( E E ( ( ( ` ` { { { { X.{ { ` { ` ` ( ( ( ( E E Y Y Y Y P P P H H S S S H H H P P P Y Y E E E ( E ( ` ` ` { { { X.X.X.X.X.@.@.@.&.&.=.=.=.=.>.>.>.4.4.6.6.6.q.q.q.y.q.y.a.a.a.d.d.d.d.k.k.k.c.c.c.c.M.M.M.C.C.A.A.G.G.G.L.L.L.U.U.U.W.W.W.W.U.U.U.U.L.L.G.G.A.A.A.A.C.C.M.M.M.c.c.k.c.k.c.c.c.c.M.M.C.M.C.A.A.G.G.G.G.L.L.",
"U.U.U.W.W.W.W.U.U.U.L.L.L.L.G.G.G.A.A.C.C.M.M.M.c.c.c.c.k.k.k.k.d.d.d.a.y.y.y.y.y.q.q.q.6.6.4.4.4.4.>.>.>.=.=.=.&.&.@.&.X.X.X.X.X.{ { { ` ` ` ( ( ` ( E E E E Y Y Y P P H H H S H H P P P P Y Y E E ( ( ( ( ( ` ` ` { { X.{ X.{ { { { ` ` ( ( ( ( ( E E Y Y Y P P P P H H H H H P P P P Y Y E E ( ( E ( ` ` ` ` ` { X.{ X.X.X.@.@.@.&.&.=.=.=.>.>.>.4.4.4.6.6.6.6.q.q.y.y.y.y.y.a.a.a.d.d.k.k.k.c.c.c.c.c.M.M.C.C.A.A.A.G.G.G.L.L.L.U.U.U.W.W.W.W.U.U.U.U.L.L.G.G.A.A.A.C.C.C.M.M.M.c.M.c.c.k.c.c.M.M.M.M.M.C.C.A.A.A.G.G.G.L.L.",
"U.U.W.W.W.W.W.W.W.U.U.L.L.G.G.G.A.A.A.A.C.M.M.M.M.c.c.k.k.k.k.d.d.a.a.a.y.y.y.q.q.6.6.6.6.4.4.4.>.>.>.>.>.=.=.&.@.@.@.X.X.X.X.{ { ` ` ` ` ( ( E E E E Y Y P P P H H S H S S C C C S S S H H P P P Y Y Y E E E ( ( ( ( ` ` { { { ` ( ( ( ( ( E E Y Y Y Y P P P H H S S S C C C C S S H H P P P P Y Y E E E ( ( ( ` ` ` ` { { { X.X.@.@.@.&.&.=.=.=.>.>.>.>.4.4.4.6.6.6.q.q.q.y.y.a.a.a.a.d.d.k.k.k.c.c.M.M.M.M.C.C.A.A.A.G.G.G.L.L.U.U.U.W.W.W.W.W.W.U.U.U.L.L.L.G.G.G.A.A.C.C.M.M.M.c.c.c.c.k.k.c.c.M.c.C.C.C.C.A.A.G.G.L.L.L.L.",
"G.G.L.L.U.U.U.L.L.G.G.A.C.C.C.M.M.c.c.k.k.d.d.d.a.a.y.y.q.q.q.6.6.4.>.>.>.=.=.&.&.&.@.X.X.X.{ { ` ` ` ( E E Y Y Y P P H H S S C C M M v v v l l l g g u u y w y w 6 6 2 2 < < < < 2 2 6 6 w w y y u u u g l g l l v v M M C C C M M v v l l g g g g u y y w w w 6 2 2 2 < < < 2 6 6 6 w w y y y u u g g l l l v v M C C C S S H H H P P Y Y E E ( ( ( ` ` { { X.@.@.@.@.&.=.=.>.>.>.4.4.6.6.q.q.q.y.y.a.a.d.d.d.k.k.c.c.M.C.C.C.A.A.G.G.L.L.U.U.U.L.L.G.G.A.C.C.C.M.M.c.c.k.k.d.d.a.a.y.y.y.y.y.y.a.a.a.d.d.k.k.c.M.M.M.C.C.A.A.",
"L.L.U.U.W.W.U.U.U.L.L.L.G.G.G.A.A.A.C.M.C.M.M.c.c.c.k.k.k.k.d.d.a.a.a.y.a.q.y.q.q.6.6.6.4.4.4.>.4.>.=.=.=.=.=.&.@.@.X.@.X.X.{ { { ` ` ` ( ( ( ( E E E Y Y P P P P H H H S S C C S S H H H H P P P Y E E E E E ( ( ( ` ` ` { { ` ` ` ` ( ( E ( E Y Y Y Y P P H H H H S S C C S S S S H H H P Y Y E E E E E E ( ( ` ` ` ` { { { X.X.X.@.@.&.&.&.=.=.=.>.>.4.>.4.4.4.6.6.q.q.q.q.y.y.y.a.a.d.k.d.k.k.k.k.c.c.M.M.M.C.C.C.C.A.A.G.G.L.L.L.U.U.U.W.W.U.U.U.U.L.G.G.G.G.A.C.C.C.C.M.M.M.c.c.c.k.k.k.k.k.c.c.c.M.M.M.C.C.C.A.G.A.G.L.L."
};
