/* XPM */
static char *north[] = {
/* columns rows colors chars-per-pixel */
"256 256 170 2 ",
"   c #4E4E4E",
".  c #505050",
"X  c gray32",
"o  c #535353",
"O  c gray33",
"+  c #555555",
"@  c #565656",
"#  c gray34",
"$  c #585858",
"%  c gray35",
"&  c #5A5A5A",
"*  c #5B5B5B",
"=  c gray36",
"-  c #5D5D5D",
";  c gray37",
":  c #5F5F5F",
">  c #606060",
",  c gray38",
"<  c #626262",
"1  c gray39",
"2  c #646464",
"3  c #656565",
"4  c gray40",
"5  c #676767",
"6  c #686868",
"7  c DimGray",
"8  c #6A6A6A",
"9  c gray42",
"0  c #6C6C6C",
"q  c #6D6D6D",
"w  c gray43",
"e  c #6F6F6F",
"r  c gray44",
"t  c #717171",
"y  c #727272",
"u  c gray45",
"i  c #747474",
"p  c gray46",
"a  c #767676",
"s  c #777777",
"d  c gray47",
"f  c #797979",
"g  c gray48",
"h  c #7B7B7B",
"j  c #7C7C7C",
"k  c gray49",
"l  c #7E7E7E",
"z  c gray50",
"x  c #808080",
"c  c #818181",
"v  c gray51",
"b  c #838383",
"n  c #848484",
"m  c gray52",
"M  c #868686",
"N  c gray53",
"B  c #888888",
"V  c #898989",
"C  c gray54",
"Z  c #8B8B8B",
"A  c gray55",
"S  c #8D8D8D",
"D  c #8E8E8E",
"F  c gray56",
"G  c #909090",
"H  c gray57",
"J  c #929292",
"K  c #939393",
"L  c gray58",
"P  c #959595",
"I  c gray59",
"U  c #979797",
"Y  c #989898",
"T  c gray60",
"R  c #9A9A9A",
"E  c #9B9B9B",
"W  c gray61",
"Q  c #9D9D9D",
"!  c gray62",
"~  c #9F9F9F",
"^  c #A0A0A0",
"/  c gray63",
"(  c #A2A2A2",
")  c gray64",
"_  c #A4A4A4",
"`  c #A5A5A5",
"'  c gray65",
"]  c #A7A7A7",
"[  c gray66",
"{  c #A9A9A9",
"}  c #AAAAAA",
"|  c gray67",
" . c #ACACAC",
".. c gray68",
"X. c #AEAEAE",
"o. c #AFAFAF",
"O. c gray69",
"+. c #B1B1B1",
"@. c #B2B2B2",
"#. c gray70",
"$. c #B4B4B4",
"%. c gray71",
"&. c #B6B6B6",
"*. c #B7B7B7",
"=. c gray72",
"-. c #B9B9B9",
";. c gray73",
":. c #BBBBBB",
">. c #BCBCBC",
",. c gray74",
"<. c gray",
"1. c gray75",
"2. c #C0C0C0",
"3. c #C1C1C1",
"4. c gray76",
"5. c #C3C3C3",
"6. c gray77",
"7. c #C5C5C5",
"8. c #C6C6C6",
"9. c gray78",
"0. c #C8C8C8",
"q. c gray79",
"w. c #CACACA",
"e. c #CBCBCB",
"r. c gray80",
"t. c #CDCDCD",
"y. c #CECECE",
"u. c gray81",
"i. c #D0D0D0",
"p. c gray82",
"a. c #D2D2D2",
"s. c LightGray",
"d. c gray83",
"f. c #D5D5D5",
"g. c gray84",
"h. c #D7D7D7",
"j. c #D8D8D8",
"k. c gray85",
"l. c #DADADA",
"z. c gray86",
"x. c gainsboro",
"c. c #DDDDDD",
"v. c gray87",
"b. c #DFDFDF",
"n. c gray88",
"m. c #E1E1E1",
"M. c #E2E2E2",
"N. c gray89",
"B. c #E4E4E4",
"V. c gray90",
"C. c #E6E6E6",
"Z. c #E7E7E7",
"A. c gray91",
"S. c #E9E9E9",
"D. c #EAEAEA",
"F. c gray92",
"G. c #ECECEC",
"H. c gray93",
"J. c #EEEEEE",
"K. c #EFEFEF",
"L. c gray94",
"P. c #F1F1F1",
"I. c gray95",
"U. c #F3F3F3",
"Y. c #F4F4F4",
"T. c gray96",
"R. c #F6F6F6",
"E. c gray97",
"W. c #F8F8F8",
"Q. c #F9F9F9",
/* pixels */
"z.z.h.h.h.s.s.s.u.u.u.u.u.w.7.7.5.5.<.<.:.*.#.X.{ ] ( ( ~ ~ P P P P F F Z Z m m Z m Z Z Z Z m Z m v v l v l v m v m Z F K F F F F F F Z F Z F Z Z Z F K P E E ~ ~ ( { X.X.*.*.:.<.<.<.5.5.7.u.u.u.h.h.h.z.b.m.m.B.B.S.S.S.S.G.P.P.P.P.P.P.Y.Y.Y.Q.Y.Y.Y.Y.Y.P.P.P.P.P.P.P.G.G.G.S.B.B.B.m.m.b.z.z.z.z.z.h.h.h.h.s.u.u.u.w.w.7.7.5.<.:.*.#.X.{ X.#.{ { ] ] ( ( ( ( E P P F F F F F K P E P E E P P K K P P E P P E ~ ~ ( ( ( ] ] ] { { X.X.X.X.X.#.#.#.*.*.*.:.*.:.<.<.5.5.5.7.w.u.u.u.s.h.h.h.z.z.z.z.z.b.z.b.b.b.z.b.b.b.z.z.b.",
"s.s.s.u.u.w.u.w.7.7.7.7.5.5.<.:.:.:.:.*.*.X.{ ( ( ~ E P K K K Z Z Z v v l l l l l l l l l l g l g g i y i i i i g l l v v m v v v v v v v l l v l l v m F K K K P E ~ ( ] X.X.#.#.*.#.*.:.5.7.7.w.w.s.s.h.h.z.b.m.B.B.B.B.B.S.G.G.G.P.P.P.P.P.Y.Y.P.P.P.P.P.P.P.P.G.G.G.G.S.S.S.B.m.m.b.b.b.h.s.s.s.s.s.s.s.u.w.w.w.w.7.5.<.<.<.*.*.#.{ ] ] ( ( ] ( ~ E E P P P P K F Z m v v v m Z F Z Z F F F F Z m Z F Z F F K K P E E P E E E ~ ( ( ( ( ] ] ] { { { X.X.#.#.#.*.*.*.:.:.<.5.7.7.7.w.u.u.u.s.s.s.s.s.s.h.h.h.h.h.h.h.s.h.h.s.",
"h.h.h.s.s.s.u.u.u.w.u.w.w.7.7.5.<.<.<.<.:.*.X.{ ] ( ( ~ E P P K K F Z Z Z m m m m m m m m m v v m l l g l l l l v v Z F F F Z Z Z Z Z m m Z m m m Z Z F P P E E E ( ] { X.#.*.*.:.:.:.<.5.7.w.w.u.s.s.h.z.z.b.b.m.B.B.B.B.S.G.P.P.P.P.P.P.P.P.Y.Y.P.P.P.P.P.P.P.P.P.G.G.P.G.S.S.S.B.B.m.b.b.z.z.h.h.h.h.h.s.s.s.s.u.u.w.w.7.5.<.<.:.*.*.X.{ { { { ] ( ( ( ( ~ ~ ~ E K K Z F F F F K P K K K P P K K K K K P P P E E ~ ~ ( ~ ~ ( ( ( ] { { { { { X.X.#.#.*.*.*.:.*.:.:.<.<.5.5.7.7.w.u.u.u.s.h.h.h.h.z.h.z.z.z.z.z.z.z.z.z.z.h.h.",
"u.u.u.u.u.w.w.7.7.7.5.5.5.<.<.:.:.*.*.*.#.{ ] ( ~ ~ E P K F F F Z m v v l v l l l l l l v l g g l g i y i i i i i l l v v v l l v v v v l v l l l l v m Z F K P P E ~ ( ] { X.#.*.#.#.*.:.<.5.7.7.w.u.s.s.h.z.b.b.m.m.B.B.S.S.S.G.G.P.G.P.P.P.P.P.P.P.G.G.G.P.G.G.G.G.G.S.S.S.B.m.m.m.b.z.z.h.s.s.s.s.h.s.u.u.w.w.w.7.5.5.<.<.:.*.#.#.X.{ ] ( ( ] ( E E E P P P K K F m v v m v m Z F Z m Z F Z Z Z m Z Z Z F F K K P P P P E E E ~ ~ ( ] ( ] ] ] ] { { X.X.X.X.#.#.#.*.:.:.<.5.5.5.7.w.w.u.u.u.s.s.s.s.s.s.s.h.h.s.s.s.s.s.s.s.",
"b.b.b.b.z.z.z.h.h.h.h.h.s.u.u.u.w.w.w.7.7.5.:.:.*.#.X.X.{ ] ( ( ( ~ E E P E P P P P E E E P K P P K F F F F K K P P E ~ ( ~ E E E E E E E E E P E P E ~ ( ] { { X.X.*.*.:.<.5.7.7.w.7.w.u.u.s.h.z.z.b.b.m.m.S.S.S.S.G.G.G.P.P.Y.Y.Y.Y.Y.Y.Q.Y.Q.Q.Y.Y.Y.Y.Y.Y.Y.P.Y.P.P.P.P.P.G.G.G.S.S.B.S.m.m.b.b.m.m.m.b.z.z.z.z.h.h.s.s.u.u.w.w.7.5.<.:.*.*.:.*.#.#.#.#.#.X.X.{ { ( ~ ~ ~ ~ ( ] ] ] ( ( ] ] ] ( ( ( ] ] ] ] { X.X.X.#.X.#.X.X.#.*.*.*.*.:.:.:.<.<.<.5.5.5.5.7.7.7.w.w.u.u.u.s.s.h.z.z.b.b.b.b.m.m.m.m.m.m.B.B.B.m.m.m.m.m.m.",
"b.b.z.z.z.z.z.h.s.s.s.s.s.u.u.w.w.w.w.7.5.<.*.*.#.X.X.{ ] ( ( ~ ~ E E P E P P P P K P P P P P K P K F F F F F K K K E ~ ~ E P P P E E P P P E P E P E ~ ( ] ] { { #.#.*.:.<.5.5.7.7.7.w.w.u.s.s.h.z.z.b.m.m.B.B.S.S.G.G.G.G.P.P.P.Y.Y.P.Y.Y.Y.Y.Q.Y.Y.Y.Y.Y.Y.Y.P.Y.P.P.P.P.G.P.G.G.S.B.S.B.m.b.b.b.b.b.b.b.z.z.z.h.h.s.s.u.u.w.w.7.7.7.<.:.*.*.:.*.#.#.#.X.X.X.X.{ ] ( ~ ~ ~ ~ ( ( ( ( ~ ( ] ] ] ( ( ( ( ( ] ] { X.X.X.X.X.X.X.X.#.*.#.*.*.*.*.:.:.:.<.<.<.5.5.5.7.7.7.w.w.u.u.u.s.h.h.h.z.z.b.b.b.m.b.m.m.b.m.m.m.m.b.b.b.b.b.",
"h.h.h.h.h.h.s.s.u.u.u.u.w.u.7.w.5.5.5.<.<.:.#.X.X.{ { ] ( ~ E E E P K K K K F F F K K K K F F F F F m m m Z Z Z Z F K P P E K K K K K K K P K K K K K P E ~ ( ] ] { X.#.#.:.:.<.5.<.5.5.7.w.u.u.s.h.h.z.b.b.b.m.B.B.S.S.S.S.G.P.P.P.P.P.P.P.Y.Y.Y.Y.Y.Y.Y.Y.P.P.P.P.P.P.G.G.G.G.S.B.B.m.m.m.b.z.z.z.z.z.z.z.h.h.s.s.s.s.u.u.w.7.5.5.<.<.:.*.#.#.#.X.X.{ { { { ] ] ( ~ E P P P E ~ ~ ~ E E E ~ ~ ~ ~ E E ~ ~ ~ ( ] ] ] ] ] ] { { ] { X.#.#.#.#.#.#.*.*.:.:.:.:.:.<.<.5.5.7.7.7.w.w.u.u.s.s.h.h.z.z.z.z.z.b.z.z.b.b.b.z.z.z.z.z.z.",
"u.u.u.w.w.w.w.7.7.5.5.5.5.<.<.:.:.:.*.*.#.X.] ] ~ ~ E P P K F F Z m m m m v l v v l v v v v l v l l g g g g g g l v m m Z m v v v v m m m m v v v v v Z F F K P E ( ( ] ] X.X.#.#.#.#.*.:.<.5.7.w.u.u.s.s.h.z.z.b.m.m.m.B.S.S.S.G.G.G.G.G.G.G.P.P.G.G.G.G.G.G.G.G.S.S.G.S.S.S.B.m.m.b.b.z.z.h.s.s.s.s.h.s.u.u.w.w.w.7.7.5.5.<.<.:.*.#.#.X.{ ( ] ( ( ~ ~ ~ ~ E E P K K F Z Z Z F F F F F Z F K K K F Z Z F F K P P E P E E E E E E ~ ~ ( ( ( ] ] ] { { X.X.#.X.#.#.*.*.:.:.<.<.<.5.5.7.w.w.w.u.u.u.s.u.s.s.s.s.s.s.s.s.s.s.s.s.u.",
"h.s.h.s.s.s.s.u.u.u.u.w.u.w.w.7.5.5.5.<.<.:.#.X.{ { { ( ~ ~ ~ E E K K K K F F F F F F K K F F F F F Z Z m Z Z F Z F K P P P K K K F K K P P K F F K P P E ~ ~ ( ] X.X.#.*.*.:.:.<.<.5.5.7.w.w.s.s.h.z.z.z.z.b.m.m.B.S.S.S.G.G.P.P.P.P.P.P.P.P.P.P.P.P.P.P.P.P.P.P.P.G.G.G.G.G.S.S.B.B.B.m.b.b.z.z.z.z.z.z.h.h.s.s.s.s.u.u.u.w.w.5.5.<.<.:.*.#.X.#.X.X.{ { X.{ ] ( ( ~ E E E E ~ ~ ~ ~ E E E ( ~ ~ ~ E ~ E ~ ( ( ] ] ] ] ( ] { ] ] { X.#.#.#.#.#.#.*.*.*.:.:.:.:.:.<.5.5.5.7.7.7.w.w.u.s.s.h.h.h.z.h.z.z.z.h.z.z.z.z.h.z.z.z.h.h.",
"s.s.s.s.s.u.u.u.w.w.w.w.7.7.7.7.5.<.<.:.*.*.#.{ { ] ( ~ ~ E E P K K F F F F Z Z Z Z F F F F F Z F Z m m m m Z m m Z F F P K F F F F F K K K F F Z F K K P P ~ ( ] { X.X.X.#.*.*.:.:.<.<.<.7.w.w.u.s.h.h.h.z.b.b.m.B.B.S.B.S.G.G.G.P.G.G.P.G.P.P.P.P.P.P.G.P.G.G.G.G.G.G.G.S.S.S.B.B.m.m.b.b.z.z.h.h.h.z.z.h.h.s.u.u.u.u.w.w.w.7.5.<.<.:.:.#.#.X.{ { { { { { ] ( ( ~ E P P P P E ~ E E P P E ~ ~ ~ E E P P E ~ ~ ] ( ( ( ( ( ( ] ] ] { { X.{ X.#.#.#.#.*.*.*.*.*.*.:.<.<.5.5.7.7.w.w.w.u.u.u.s.s.s.h.s.h.h.h.h.h.h.h.h.h.h.s.h.h.",
"s.u.u.u.u.u.u.w.7.7.w.w.7.5.5.<.<.:.:.*.*.X.X.{ ] ( ~ ~ E P E K F F Z F F Z m m Z m Z Z Z Z Z Z Z m Z v v m m m m m Z F K F Z Z F Z Z F F F F Z Z Z F K P P E ~ ] ] { X.X.#.#.*.*.*.:.:.<.<.7.w.u.u.h.s.h.h.z.z.b.b.B.B.B.S.S.S.G.G.G.G.G.G.G.P.P.P.P.G.G.G.G.G.G.G.G.G.S.S.S.S.m.m.b.b.b.z.z.h.h.s.s.h.h.s.s.u.w.u.w.w.w.w.7.7.<.:.:.:.#.#.X.{ { ] ] ( ] ] ( ( E E P P K K P P E E P P K P E E E P P P P P E E ( ( ~ ~ ~ ~ ( ( ~ ( ] ] { X.X.X.X.X.X.#.#.#.#.#.*.*.:.<.<.5.<.5.7.7.w.w.u.u.u.u.s.s.s.h.s.s.s.s.s.s.h.s.s.s.s.u.",
"u.u.w.u.u.w.w.w.w.7.7.7.7.5.5.5.<.:.*.*.*.#.{ { ( ( ~ ~ E P P K F F Z F F Z m m m Z Z Z Z Z F Z Z Z m m v m m m m Z Z F K F Z Z Z Z Z F K F F Z Z Z F K K P P ~ ( { { X.X.#.#.#.*.:.:.<.<.<.5.7.u.u.s.s.s.h.z.z.b.m.m.B.B.S.S.S.G.G.G.G.S.G.G.P.G.G.G.G.P.G.G.S.S.S.G.S.S.B.S.B.B.b.b.b.z.z.z.h.s.s.h.h.h.h.s.u.w.w.u.w.w.w.7.7.<.:.:.*.*.#.X.{ ] ] ] ] ( ] ] ( E E E P P P P E E E P P P P E ~ E E P P P P E ~ ( ~ ~ ~ ~ ~ ( ~ ( ( ] ] X.{ X.X.X.#.#.#.#.*.#.*.#.*.:.:.<.<.<.5.5.7.w.w.w.u.u.s.u.s.s.s.s.s.s.s.s.s.s.s.s.s.s.u.",
"w.w.w.w.w.w.7.7.5.7.5.5.5.5.<.<.:.*.#.#.#.X.] ] ( ~ E E P P P K Z Z m Z Z m v v m m Z m Z m Z m m m v v v v v v l v m Z F Z m m m m Z Z F F Z m m m Z F K K K E ( ] ] { { X.X.#.#.#.*.:.*.:.5.7.w.u.u.u.s.s.h.z.z.b.m.B.B.B.S.S.G.G.S.S.S.S.G.G.G.G.G.G.G.G.S.S.S.S.S.S.B.B.S.B.m.b.z.z.h.z.h.s.s.s.s.s.s.s.u.w.7.7.7.w.7.7.7.5.:.:.*.#.#.X.{ ] ( ( ( ( ( ( ( ~ E P K K F F K P P P K K F K P P P P K F K K P E ~ ~ E E E E E ~ ~ ~ ( ] { ] { { { { X.X.X.X.#.X.#.#.*.*.:.:.:.<.<.5.7.7.w.w.w.w.u.u.u.u.u.u.u.u.u.u.u.u.w.u.w.w.",
"u.u.u.u.u.w.u.7.7.7.7.7.5.5.7.<.<.:.:.*.*.#.X.{ ] ( ( ~ E E E P K F F K K F Z m Z Z F F F F F F F F Z Z m m Z Z Z Z F F K K F F F F F K K K K F F F K P P P E ( ] { X.X.#.#.#.*.*.:.<.<.:.5.7.7.u.s.h.s.h.h.z.z.b.m.B.B.B.S.S.S.G.G.G.G.G.G.G.G.P.G.G.G.G.G.S.G.S.S.G.S.S.S.S.B.B.m.b.b.z.z.z.h.h.s.h.h.h.h.h.u.u.u.u.u.u.w.w.7.5.<.:.:.:.*.#.X.{ { { { ] { ] ] ~ E E E E P E ~ ~ ~ E P P E ~ ~ ~ ~ E P P E ~ ( ] ( ~ ~ ~ ( ( ( ( ] ] { X.X.#.X.#.#.#.*.#.*.*.#.*.*.:.<.<.<.5.5.7.7.w.w.u.u.u.u.u.s.s.s.s.s.s.s.s.s.s.s.s.s.u.s.",
"s.s.u.u.s.u.u.w.w.w.w.w.w.7.7.7.5.<.:.:.:.*.#.{ ] ] ] ( ( ~ ~ E P P K P P K F F F K K K P P P K K K K F F F K F F F K P E P P K K K P P E P P P K K P E E ~ ~ ] { #.#.*.#.*.:.:.:.<.<.<.<.5.w.u.u.s.h.h.h.z.z.b.b.m.B.B.S.S.S.G.G.G.G.S.G.G.G.P.G.P.P.G.G.G.G.S.G.G.G.G.S.S.S.S.B.m.m.b.b.b.z.z.h.h.z.z.z.h.h.s.u.u.s.u.u.u.u.w.7.5.5.<.:.:.*.#.X.X.X.X.{ X.X.{ ( ( ~ ~ ~ ~ ~ ( ] ( ~ ~ ~ ( ( ( ( ( ~ E E ~ ( ] { ] ] ] ( ] ] ] ] { { X.#.#.#.*.*.*.*.*.*.:.*.:.:.:.<.5.5.5.7.7.7.7.u.u.u.u.u.s.s.h.s.h.h.s.s.s.s.s.h.s.s.s.s.s.",
"w.7.w.7.7.w.7.5.5.5.5.<.5.<.<.:.*.*.#.#.#.{ { ( ( ~ ~ E P E P P F F Z Z F m m m m Z Z Z Z Z F Z Z Z Z v m v m m v m Z Z F F Z Z Z Z Z Z F F Z Z m Z F F K P P ~ ( { { { { #.X.#.#.*.*.:.:.:.<.7.w.u.u.u.u.s.h.h.z.b.m.m.m.B.B.S.S.S.S.S.S.S.S.G.G.S.S.S.S.S.B.S.B.S.S.B.B.B.B.B.m.b.z.z.z.h.h.s.s.u.s.s.s.s.u.w.w.7.w.w.7.7.5.5.:.:.*.*.#.#.X.] ] ( ] ( ] ( ] ~ E E P P K K P P E P P P P P E E E E K K K P E ~ ( ~ ~ ~ E ~ ~ ~ ~ ( ( ] ] ] { X.{ X.X.X.#.#.X.X.X.#.*.:.:.:.:.:.<.5.5.7.7.w.w.w.w.w.w.u.u.w.u.u.w.w.w.w.u.w.w.w.",
"w.w.w.w.w.w.7.7.5.7.5.5.5.5.<.<.:.:.*.*.#.X.X.] ] ( ( ~ E E E P K F F F K F Z Z Z F F K K F K K F F F Z Z Z Z Z Z Z F K K K K F F F F K K K K F Z F K K P P ~ ( ] { X.X.#.#.*.#.*.*.:.:.:.<.7.7.u.u.s.s.s.h.h.z.z.b.m.m.B.B.S.S.S.S.S.S.S.S.S.G.G.S.S.S.S.S.S.B.B.S.S.S.B.S.B.B.m.b.z.z.z.z.h.h.s.s.s.h.h.s.s.u.w.u.u.w.w.w.w.7.5.<.<.:.:.*.#.X.{ { { { { { { ] ( ~ E E E P E ~ ~ ~ E E E E ~ ~ ~ ~ E P P E ~ ( ( ] ( ~ ~ ( ( ( ] ] { { X.X.X.X.#.X.#.*.#.#.#.#.#.*.:.:.:.:.<.<.<.5.7.w.w.w.w.u.u.u.s.u.u.u.u.u.u.u.u.u.u.u.w.u.",
"7.5.5.7.7.5.5.5.:.<.<.<.:.:.:.*.#.#.X.X.X.{ ] ( ~ E E E P P K F F Z Z Z Z m v v m m m m m m Z m m Z v v v v v v m m m Z Z Z Z m m v m m Z Z m m m m Z F F K P E ( ] ] { { X.X.X.X.#.*.*.*.*.<.5.7.w.u.w.w.u.s.h.h.z.b.b.m.m.B.B.B.S.S.B.B.S.B.S.S.S.S.B.B.B.B.B.B.B.B.B.B.m.B.m.b.z.h.h.s.h.s.s.u.u.u.s.u.u.w.7.7.7.7.7.7.5.5.<.:.*.*.#.#.X.X.] ( ( ( ( ( ( ( ~ E P P K F F K P P P P K K K P E E P K F K K P E ~ E E E E E E E E ~ ( ( ( ] ] { { { { X.X.X.X.X.X.X.#.#.*.*.*.:.:.:.5.5.5.7.5.7.7.7.7.w.w.7.7.w.w.7.w.7.7.7.7.7.",
"w.w.w.w.w.w.7.7.5.5.5.5.5.5.<.:.:.*.*.#.#.#.X.{ ] ] ( ( ( ~ E E P K K K K F Z Z F F F K K K K K K K F F Z Z Z F F F K K P P K F F F F K K K F F F F K P P E ~ ] { { X.#.#.*.*.*.*.:.:.<.:.<.5.7.u.u.s.s.s.h.s.z.z.b.m.B.B.B.S.S.S.S.S.S.S.S.S.S.S.G.S.S.S.S.B.B.B.S.S.S.S.B.B.B.m.b.z.z.z.z.h.h.s.s.s.h.h.s.u.u.u.u.u.u.w.w.7.7.5.5.<.:.:.*.#.X.X.X.{ X.X.{ { { ( ( ~ E E E ~ ~ ( ( ~ ~ ~ ~ ~ ( ] ( E E E E ~ ( ] ] ] ( ( ( ] ] ( ] { { X.X.X.#.#.#.#.#.*.*.*.*.*.*.:.:.:.<.<.<.5.5.7.7.7.w.w.w.w.u.u.u.u.u.u.u.u.w.u.w.w.u.w.w.",
"7.7.7.7.7.7.5.5.<.5.<.<.<.<.:.:.:.*.#.X.X.#.{ { ] ( ( ( ~ E E P K K F K F F F Z Z F F F K K K K K F F Z Z Z Z Z F K K K K K K F Z Z Z F F F F Z Z F K K P P ~ ( { { X.X.#.#.*.*.*.*.*.:.:.<.5.7.w.u.u.u.s.s.s.h.z.b.m.m.m.B.B.S.S.S.S.B.B.S.S.S.S.S.S.B.B.B.B.B.B.B.B.S.B.B.B.m.b.b.z.z.h.h.h.h.s.s.s.h.s.s.u.w.w.w.w.w.w.w.7.7.5.<.:.:.:.*.X.X.{ { { { { { { ] ( ~ ~ E P P E E ~ ~ ~ ~ E ~ ~ ( ( ~ E E P E E ( ] ] ( ( ( ( ( ( ( ] { { { { { X.#.X.#.#.#.#.#.#.#.*.*.*.:.:.:.<.<.<.5.7.7.7.w.7.w.w.w.w.w.w.w.w.w.w.w.w.w.w.7.w.",
"w.7.7.w.w.7.w.7.5.5.5.5.5.5.<.<.:.:.#.*.*.#.X.X.{ { ] ( ( ( ~ E E P P P K K K F F K K P P P P E P P K K F F K K P P P E E E P P F F F K K K K K K K P E E ~ ( ] X.X.#.#.*.:.:.:.:.<.:.<.<.<.7.w.u.u.s.s.h.h.h.z.b.b.m.B.B.B.S.S.S.S.S.S.S.S.S.S.G.S.S.S.S.B.B.B.B.B.S.S.S.B.B.B.m.m.b.z.z.z.z.h.s.h.h.h.h.s.u.u.u.u.u.u.u.w.7.7.7.5.<.<.<.<.*.#.#.#.X.X.X.X.X.{ ] ] ( ~ ~ E ~ ~ ( ] ] ( ] ( ] ] ] ] ( ~ ~ ~ ( ] { { { ] ] ] ] ] ] { { X.X.X.X.#.#.*.*.*.*.*.:.*.*.*.:.:.<.<.<.<.<.5.7.7.7.w.w.w.u.w.w.u.u.w.w.u.w.w.u.w.w.w.w.w.",
"s.s.s.s.s.s.u.u.u.w.w.u.w.w.w.7.7.5.<.<.<.<.:.:.*.*.#.#.#.X.{ { ] ] ] ( ( ( ~ ~ ~ ( ( ( ] ] { ] ] ] ( ~ ( ~ ~ ( ] ] ] { ] ] { ( ~ ~ ~ ~ ( ( ~ ~ ~ ( ( ] ] { #.*.*.:.:.5.5.5.5.7.7.7.w.7.w.w.u.s.h.h.z.z.b.z.b.b.m.B.S.S.G.G.G.G.G.P.G.G.G.G.G.P.G.P.G.G.S.S.S.S.G.G.G.G.P.G.S.S.S.B.m.m.m.m.m.b.z.b.b.b.b.z.z.h.h.z.h.z.h.h.s.s.s.u.w.u.u.7.5.<.<.:.:.<.<.<.:.:.*.*.#.X.{ { X.#.X.#.*.#.#.#.#.*.*.#.X.{ X.X.X.#.*.:.*.*.#.#.#.*.*.:.:.:.:.:.:.<.5.5.5.5.5.5.5.5.5.5.7.7.7.7.7.w.w.u.u.s.s.s.s.s.h.h.h.h.h.h.h.h.h.h.h.h.h.s.s.s.",
"7.5.5.5.7.5.5.5.<.<.5.<.<.<.*.*.:.#.#.#.#.X.X.{ { ] ] ( ( ~ ~ E E P K K K F F F F F K K P P P P P K K F F F K K P P P P E P E K F Z F F K F F K F K K K P E ( ] { { X.#.*.*.*.*.*.:.:.:.:.<.5.7.w.u.u.s.s.s.s.h.z.z.b.m.m.B.B.B.B.S.B.S.B.S.B.S.S.B.B.m.m.B.m.m.B.B.B.S.B.B.m.m.b.b.z.z.h.h.h.h.s.s.s.h.s.s.u.u.u.w.u.w.w.7.7.7.7.5.<.:.<.:.*.#.#.X.X.{ X.X.{ { ] ] ] ~ P E ~ ~ ~ ( ] ] ( ( ( ] { ] ( ~ ~ ~ ( ( ] { ] ] ] ] ] ] ] ] { X.{ { X.X.*.#.#.*.#.*.*.*.*.*.*.:.:.:.:.:.<.<.5.5.5.5.7.7.7.7.w.w.w.w.w.w.7.w.7.w.7.7.7.7.",
"<.<.<.<.<.<.:.*.*.*.*.*.*.*.#.#.#.X.{ { { ] ] ] ( ~ ~ E E E P K K F Z F Z Z Z Z m Z Z Z F F K F K F Z Z m Z m F F K K F F F F Z m v m m Z m Z m Z Z F F F P E ~ ( ] { { X.X.#.#.#.#.#.#.*.*.:.<.7.7.w.w.u.u.u.u.s.h.b.b.b.m.m.m.m.m.m.B.B.m.m.B.m.B.B.b.b.b.b.z.b.m.m.m.m.b.b.z.z.h.s.s.u.s.s.u.w.u.u.u.u.w.7.7.w.7.w.7.7.5.<.<.<.:.*.*.*.#.X.{ { { ] ] ] ] ] ] ( ~ E P K K P E P E ~ ~ ~ E ~ ~ ( ~ P P P P E ~ ~ ( ( ~ E ~ ~ ~ ~ ( ] ( ] ] ] { { X.X.X.{ X.X.X.X.X.X.#.#.#.#.#.*.:.:.:.:.<.5.<.<.5.5.5.5.5.5.5.5.5.5.<.5.5.<.<.",
"<.<.:.<.<.<.:.:.:.*.*.:.:.*.#.#.#.X.{ { { { { ] ( ( ~ ~ ~ E E P P K F F F Z Z Z Z Z Z F K K K K K K F F Z F F F K K K K K P K F m Z m Z Z Z Z Z Z F F K K P E ( ] ] { X.X.#.#.*.*.#.*.*.*.:.<.5.7.7.w.u.u.u.u.s.s.z.z.b.b.m.m.m.m.m.m.B.m.B.m.m.B.m.m.m.b.z.b.b.b.b.m.m.B.m.b.b.b.z.h.s.s.s.s.s.u.u.u.u.s.w.w.7.w.w.7.7.7.5.<.<.5.:.:.:.:.*.X.X.X.{ { ] { { ] ] ( ( ~ E K P E E E E ( ( ( ~ ~ ( ( ~ E E E E E ~ ( ( ] ( ~ ~ ( ( ( ( ] ] ] ] ] { X.#.X.X.X.X.#.X.#.X.#.#.#.*.#.*.*.:.:.<.<.<.<.5.<.5.5.5.5.5.7.5.5.5.5.<.5.<.<.<.",
"u.w.w.u.u.u.w.w.7.w.7.w.w.7.5.7.5.<.<.<.:.:.:.:.:.*.#.*.#.#.{ X.{ ] ( ] ( ( ( ~ ( ( ( ] ] ] ] { { ] ] ( ( ( ( ] { { { { { { { ] ~ ~ ~ ( ( ( ~ ( ( ( ] ] { { #.*.*.:.<.<.5.5.7.7.7.7.7.7.7.w.w.s.s.h.h.z.b.z.z.b.m.m.S.B.S.G.S.S.S.G.G.G.G.G.G.G.G.G.G.S.S.S.B.S.S.S.S.G.G.S.S.B.B.m.m.m.m.b.b.b.z.z.b.b.b.z.z.h.h.h.h.h.z.s.s.s.s.u.w.w.u.7.5.5.7.<.<.:.<.<.<.:.:.*.#.#.{ X.X.X.#.*.:.*.:.*.*.:.:.*.#.X.X.#.#.*.:.:.*.*.*.*.*.*.:.:.<.:.:.:.<.<.5.5.5.5.5.5.5.5.5.5.7.7.7.7.7.7.w.w.w.u.w.u.u.u.u.s.s.s.s.s.s.s.s.u.s.u.u.u.u.u.",
"7.7.7.7.7.7.5.5.<.5.5.5.5.<.<.:.:.*.*.*.#.*.*.#.#.X.X.{ { { ] ( ( ~ ~ E E E E P E E ~ ~ ~ ~ ( ( ] ( ~ ~ ~ ~ ( ~ ( ( ( ( ( ( ( ~ P E P P E E P ~ ~ ~ ~ ( ( ( { X.#.*.*.*.:.<.<.<.<.5.5.<.5.5.7.w.u.u.s.h.h.h.h.z.z.b.m.B.B.B.B.B.B.S.S.S.S.S.S.B.B.S.B.B.m.m.m.m.m.B.B.S.S.B.B.m.m.b.z.z.z.z.z.z.h.h.h.h.h.h.s.u.s.s.s.s.u.u.w.w.u.w.7.7.7.5.<.<.<.:.*.*.*.*.*.*.*.#.X.] ( ] { { { X.#.#.#.#.X.#.#.X.{ { { { X.X.#.#.#.X.X.X.X.#.#.#.#.#.#.#.*.*.:.:.<.:.:.:.<.:.<.:.:.<.<.<.<.5.5.5.7.7.7.7.w.7.w.w.w.w.w.u.w.w.w.w.w.7.7.7.7.7.",
"<.<.5.<.<.<.<.:.:.:.:.:.:.*.*.#.#.#.X.X.X.X.{ X.X.{ ] ] ] ( ~ ~ ~ E P K K K K K K K K E E E E E ~ E E E P P P P ~ E E E E ~ E P F K K K K K P P E P P E E ~ ( ] { X.X.#.#.*.*.:.*.:.:.:.:.<.5.5.7.w.u.u.s.s.s.s.h.h.b.m.m.m.B.m.m.m.m.B.B.B.m.B.B.m.m.m.b.b.b.b.m.m.B.B.B.m.m.b.b.z.h.h.h.h.s.s.s.s.s.s.s.u.u.u.u.w.w.w.7.7.5.7.7.5.5.<.5.<.*.*.*.#.#.X.X.#.#.X.{ { ] ( ~ ~ ( ( ( ] { { { { { X.X.] ] ] ] ( ] { X.X.{ ] ] { { { { X.X.X.X.X.X.#.*.#.*.*.#.*.*.*.*.*.*.*.:.*.*.:.:.:.<.<.<.5.5.5.5.5.5.5.7.7.7.5.5.5.5.5.5.5.5.<.",
"<.:.<.:.:.<.:.*.*.*.:.*.*.*.*.#.#.X.X.{ { X.{ { { { ] ( ] ( ~ ~ E E P K K K F K K K K P E E P E E E P E P E P E P E P E E ~ E K F F F F K K K P P E P E E E ~ ] { { X.X.#.*.*.*.*.*.*.:.:.<.<.5.5.7.w.u.u.s.u.s.h.h.z.b.b.b.m.m.b.m.m.B.B.m.m.m.m.m.b.b.b.z.z.b.b.m.m.m.m.m.b.b.z.z.h.h.h.s.s.s.u.u.s.s.u.u.w.w.u.w.w.w.7.5.5.5.5.5.<.5.<.<.*.*.*.#.X.X.X.X.#.X.{ { ] ( E ~ ~ ( ( ] { { { { { { { { ] ( ] ( ] { { X.] ] ] ] ] { X.{ { X.X.X.{ #.#.#.#.#.#.#.*.#.#.#.*.*.*.*.*.*.*.:.:.<.<.<.<.<.<.5.5.5.5.5.5.5.<.5.5.<.<.<.<.<.",
"5.5.5.5.5.5.5.5.<.5.5.<.<.<.:.:.:.*.*.*.*.#.*.*.#.#.X.X.X.X.{ ] ] ( ( ~ E E E E ~ ~ ~ ( ( ] ( ] ] ] ] ( ( ( ] ( ] ] ] ( ] ] ] ( E E E E ~ ~ ~ ( ] ( ( ( ] ] { #.*.*.:.:.<.<.<.<.5.5.5.5.7.7.7.w.u.u.s.h.h.h.h.h.z.z.b.m.B.B.B.m.B.m.B.S.S.S.B.B.B.B.m.m.m.m.b.m.B.B.B.B.B.B.m.m.m.b.b.z.z.z.z.z.h.h.h.h.h.h.h.s.s.s.s.s.s.u.w.w.u.w.w.w.w.7.5.5.<.<.:.:.:.:.:.:.:.*.X.{ ] ] X.X.{ #.*.*.:.*.*.*.#.#.#.X.#.X.X.*.*.*.#.#.#.X.#.*.*.*.*.*.*.*.*.:.<.<.<.<.<.<.<.<.<.<.<.<.<.<.<.<.<.5.7.5.7.7.7.7.w.7.7.w.w.w.w.w.7.7.7.7.7.7.7.5.",
":.:.:.:.:.*.*.*.*.*.*.*.*.*.#.X.X.X.X.X.{ { X.{ { { ] ] ] ( ( ~ E E P P K K K K K P P E E E E E ~ E E E E E E E E E E E E ~ E P K K F K K K K P E E E E E ~ ( ] { X.#.#.#.#.*.*.:.*.*.:.:.<.<.<.5.7.w.w.u.u.u.s.h.h.h.z.m.b.b.z.b.b.b.m.m.m.b.b.b.b.z.z.b.z.z.z.b.b.m.m.b.b.b.z.z.h.h.s.s.s.h.s.u.u.u.u.s.u.u.w.w.w.w.7.7.5.5.5.5.5.5.5.5.<.*.*.*.#.X.X.X.X.X.#.X.{ ] ~ ~ ~ ( ] ] ] { X.X.{ X.{ { { { ] ] ] ] { X.X.{ ] ] ] ] X.X.X.X.X.X.X.X.#.#.#.#.*.#.#.*.*.#.#.*.#.*.*.*.*.*.*.:.:.:.:.<.<.<.<.<.5.5.<.<.<.<.<.:.:.:.:.:.:.",
"*.*.*.*.*.*.*.#.#.*.*.#.#.#.X.X.{ X.{ { ] ] { { { { ] ( ( ( ( ~ ~ P P K F K F F K P P E E E E E ~ ~ E E E P E E E E E E E ~ E P K F F K K K K E E E P E E ~ ~ ] { { X.X.#.#.#.*.*.:.*.:.:.:.<.<.<.5.w.u.u.u.u.s.s.s.s.z.b.b.b.z.z.z.b.m.m.m.b.z.b.z.z.z.z.z.h.z.z.b.b.b.z.z.z.h.h.h.h.s.s.s.s.u.u.u.u.u.u.u.w.u.w.w.w.w.7.5.5.5.5.5.5.5.5.<.:.*.:.*.#.X.#.X.#.#.X.{ ] ~ E ~ ] ( ] { { X.X.X.{ { { { { { ] ] ] { X.{ { ] ] ] ] { X.X.{ X.X.X.X.X.*.#.#.#.#.#.#.#.#.#.#.#.#.#.#.#.#.*.*.*.:.:.:.<.:.:.<.<.5.<.<.<.:.:.:.:.:.:.:.*.",
"{ { { { { { ] ] ] ] ] { ] ( ( ~ ~ ~ ~ E E E E E ~ E P P P P K K F Z m m m v v m m m m Z F F Z F F K F Z Z F Z F Z Z Z Z F F F m v v v v v m m Z F F Z Z F F K P E ~ ( ] ] ] ] { { { X.X.X.X.X.#.#.*.<.5.5.7.7.7.7.w.w.s.s.h.s.s.s.s.h.h.z.h.s.s.s.s.s.u.s.u.u.u.s.s.h.h.s.s.u.u.u.u.u.w.7.7.w.7.7.5.7.7.7.5.5.5.<.<.<.<.:.*.*.*.*.*.*.*.*.#.{ { X.{ ( ( ( ] ( ] ( ~ P K F K P P P E ~ ~ ( ~ ~ E E E E E E E E E ( ~ E P P E E ~ ( ~ ~ ~ ~ ~ ( ( ] ] ] ] ] ] ] ] ] ] ] ] ] ] ] ] ] { { { X.X.X.X.X.X.#.X.#.#.X.X.X.X.X.{ X.{ X.{ ",
"X.X.X.X.X.X.{ { { { X.X.{ ] ] ] ( ( ( ( ( ~ ( ( ( ( ~ E ~ E E P K K F F Z Z Z Z F F K K P K K P P P P K P P K P K K K K P P K K Z Z Z Z Z F F F K K F K K P E ~ ( ] { { { { { X.X.#.#.X.#.*.#.*.:.:.5.7.7.7.w.w.u.w.u.s.h.h.h.s.s.h.h.z.z.z.h.s.h.s.s.s.s.s.s.s.s.h.z.h.h.h.s.s.s.s.u.w.w.u.u.w.7.7.w.7.w.7.7.7.7.5.5.5.<.:.:.:.:.:.:.:.<.*.#.#.#.X.{ ] { { { { { ( ~ E P P ~ ~ ~ ( ( ] { ] ] ( ( ( ( ( ~ ( ~ ] ] ] ( ~ ~ ~ ~ ] ] ] ( ] ] ] ] { { X.{ { { { { X.{ { { { X.{ X.{ { X.X.X.#.X.X.#.#.#.#.*.#.*.#.#.#.X.X.#.X.#.#.X.",
"X.X.X.X.X.X.{ X.X.X.X.{ { { ] ] ( ] ( ( ( ( ( ] ( ( ~ ~ ~ E E P P K K F F F Z F F F K P P P P E E P E P P P P P P P K P P E P K F F Z F F F K K P P K P P E E ( ( ] { { { X.X.X.#.X.#.#.#.*.*.*.*.<.5.7.7.w.7.w.w.u.u.s.z.h.h.h.s.h.h.z.z.z.h.h.h.s.s.s.s.s.s.s.s.h.z.h.h.h.s.s.u.u.s.u.w.u.u.w.7.w.7.w.w.7.7.7.7.7.5.5.5.<.:.<.<.<.<.<.<.:.*.#.#.X.X.{ { { X.X.{ ] ( E E E ~ ( ( ] ] ] { { ] ] ( ] ] ] ( ] ( ] { ] ] ( ( ( ( ] { ] ] ] ] ] { { X.X.{ X.X.X.{ X.X.X.{ X.{ X.{ X.X.X.X.X.X.X.#.#.#.#.#.*.*.*.#.#.#.X.X.X.X.X.X.X.",
"#.*.#.#.*.#.X.#.#.#.#.#.#.#.X.{ { { X.{ { ] { X.{ { ] ] ] ] ] ( ( ~ E P P P P P E E ~ ( ( ( ( ( ] ] ( ( ( ( ( ( ( ~ ~ ~ ( ( ~ ~ E P P P E P E ~ ( ~ ~ ~ ~ ( ] { X.X.#.#.*.*.*.*.*.:.*.:.:.<.:.<.<.5.7.w.u.u.u.u.u.s.s.z.z.z.z.h.h.z.z.z.b.b.z.z.z.z.h.h.z.h.h.h.z.z.b.b.z.z.z.h.h.h.h.s.s.s.s.s.u.u.u.u.u.u.u.u.u.w.w.w.w.7.7.7.7.7.7.7.7.5.<.<.<.:.*.#.*.*.*.*.#.#.X.] ] ] { { { X.X.#.#.#.#.X.X.X.X.X.X.{ X.X.#.#.X.X.{ { X.X.#.#.#.X.#.X.X.#.*.*.*.#.#.*.*.#.#.#.#.#.#.#.#.#.#.#.*.#.*.*.:.*.*.:.:.:.:.:.:.:.*.*.*.*.*.*.*.#.",
"*.*.*.*.:.*.*.*.*.*.*.*.*.*.#.#.#.#.X.X.X.X.X.X.#.X.X.{ X.{ { { ] ( ~ ~ ~ ~ ~ ~ ( ( ( ] { ] ] ] { { { { ] ] ] ] ] ] ( ] { { ] ( ( ~ E ~ ( ~ ( ] { ] ( ] ] ] { X.#.*.*.:.:.:.:.:.<.<.:.<.<.5.<.5.5.7.u.u.u.u.s.s.s.s.h.z.b.b.z.z.z.z.b.b.m.b.b.b.z.z.z.z.z.z.h.z.z.b.b.b.b.b.z.z.z.z.h.h.h.h.h.s.s.s.s.s.s.s.s.u.u.u.s.u.w.w.w.w.u.w.u.w.w.w.5.5.5.<.:.:.:.:.:.:.:.*.#.X.{ X.#.#.#.#.*.:.:.*.*.*.#.*.*.#.#.#.#.*.*.*.#.#.#.#.#.#.*.*.*.#.*.*.#.*.:.:.:.:.:.*.:.*.*.*.*.*.*.*.*.*.*.*.:.:.:.:.:.:.<.:.:.<.<.<.:.:.:.:.:.*.*.*.*.*.",
"X.X.X.#.X.X.X.X.{ X.X.#.X.X.{ { ] ] { { ] { { { { { ] ] ] ] ] ( ~ ~ E E P P P E E E ~ ~ ( ( ~ ( ] ( ( ( ( ~ ~ ~ ~ ~ ~ ~ ( ( ( ~ E P P E E E E ~ ( ( ~ ~ ~ ( ] { { X.X.#.#.#.#.*.*.*.*.*.:.:.:.<.<.5.7.7.w.w.w.w.u.u.u.h.z.z.h.h.h.h.z.z.z.z.h.h.h.h.h.h.h.s.s.s.h.h.z.z.z.h.h.s.s.s.s.u.u.u.s.u.w.u.w.u.u.w.w.w.w.w.w.7.7.7.5.5.5.7.7.7.5.5.<.:.:.*.*.#.*.*.*.*.#.#.{ ] ] ] { { X.X.X.#.#.#.#.X.X.X.X.X.X.{ { X.#.#.X.{ { { X.X.X.X.X.X.#.X.X.#.*.#.#.#.#.#.#.#.#.X.#.X.#.X.X.X.X.#.#.#.X.#.*.#.#.*.*.*.*.*.*.#.#.X.#.#.#.#.#.X.",
"X.#.#.#.#.#.X.X.#.X.#.#.#.X.X.X.{ { { { { { { { X.{ { { { { ] ] ( ( ~ ~ ~ E E ~ ( ( ( ] ] ] ] ] ] { ] ] ] ] ] ] ( ( ( ( ] ] ] ( ~ ~ E E ~ ~ ( ( ] ] ( ] ] ] { { X.#.#.*.*.*.*.*.:.:.:.:.:.<.<.<.5.7.w.w.w.u.u.u.u.u.s.h.z.z.h.h.h.h.z.z.z.z.h.z.z.h.h.h.h.h.h.h.h.h.z.z.z.z.z.h.s.s.s.s.s.s.s.s.u.u.u.u.u.u.u.u.u.u.w.w.w.w.7.w.w.7.w.7.7.7.5.5.5.<.:.*.:.:.:.:.*.*.#.X.{ X.X.#.#.#.*.*.*.:.*.*.#.#.#.#.#.X.X.#.#.*.#.X.X.X.#.#.#.#.#.#.#.#.#.#.*.*.*.#.*.*.*.#.#.#.#.#.#.X.#.#.#.#.#.#.#.*.#.*.*.*.*.*.:.*.*.*.#.#.#.#.#.#.#.#.",
"#.#.X.#.#.#.#.#.#.#.#.#.#.#.#.X.X.X.X.X.X.{ X.X.X.X.X.{ { X.X.{ ] ] ( ( ~ ~ ( ( ( ( ] { { { { X.{ X.X.{ ] ] ] ] { ] ] ] ] { ] ] ( ( ( ( ( ( ] ] { { ] { ] { X.X.#.*.*.*.*.:.:.:.:.:.:.<.<.<.<.5.5.7.w.w.w.u.u.u.u.s.s.h.z.z.h.h.h.z.z.z.z.z.z.h.z.z.h.h.h.h.h.h.h.z.b.b.b.z.z.h.h.h.h.h.s.s.s.s.s.u.u.u.s.s.u.u.s.u.s.u.u.w.w.w.w.w.w.w.w.w.7.7.5.<.<.:.:.<.<.<.:.:.*.#.X.X.#.*.*.*.*.:.:.:.:.:.*.*.*.#.*.#.#.*.*.*.*.#.#.#.#.*.*.*.#.*.*.*.*.:.:.:.*.*.*.*.*.*.*.#.#.#.#.#.#.#.*.*.*.*.#.*.*.*.*.*.*.:.*.:.:.*.*.*.#.#.#.#.#.#.",
"X.X.X.X.#.X.#.X.X.X.#.#.X.X.{ { { { { X.{ { { { { { { { { X.{ { ] ] ( ( ~ ~ ( ( ( ] ] ] { { ] { { { { { ] ] ] ] ] ] ] ] ] ] ] ] ( ( ~ ~ ( ] ] ] { ] ] ] { { { X.#.#.*.*.*.:.*.*.:.*.:.:.:.<.<.<.<.5.w.w.w.w.w.w.w.s.s.h.h.h.h.s.s.h.z.z.z.h.h.h.h.h.h.s.h.s.s.s.h.h.z.z.z.z.h.h.s.s.s.s.u.s.s.u.u.u.u.u.u.u.u.u.u.w.u.w.w.w.7.7.w.7.w.7.w.7.7.5.5.<.:.:.<.:.:.<.<.:.#.X.X.X.#.#.*.*.*.:.:.:.:.:.*.*.#.#.#.X.#.#.*.*.*.#.X.#.#.#.#.#.#.#.*.#.#.*.:.*.*.*.*.*.*.#.#.#.X.X.X.#.X.X.#.#.#.#.#.#.#.#.*.#.#.*.#.*.*.#.#.X.#.X.X.#.X.X.",
"#.#.X.#.#.#.#.#.#.#.#.*.*.#.#.X.X.#.X.X.X.X.X.#.X.X.X.#.#.X.X.X.{ { ] ] ( ] ] ] { { { X.X.X.X.X.#.#.#.X.X.X.X.X.{ { { { X.X.X.{ { ] ] ] ] { X.X.X.X.X.X.X.X.#.#.*.:.:.:.:.:.:.:.<.<.<.<.<.5.5.5.7.7.w.w.u.u.u.s.u.s.s.z.z.z.z.h.h.z.z.z.z.h.z.z.z.z.z.z.z.h.h.h.h.z.z.b.b.z.z.h.h.s.h.h.h.h.h.h.h.s.u.s.s.u.s.s.s.s.s.s.u.u.u.u.u.w.u.u.u.w.w.w.7.5.<.5.5.5.5.5.5.<.:.*.*.*.:.:.:.<.<.<.<.5.<.<.:.:.:.*.*.*.*.:.:.:.:.*.*.*.:.:.*.*.*.:.:.:.:.:.<.<.:.*.:.*.:.*.#.*.*.*.#.#.#.#.*.*.*.*.*.*.#.*.*.*.*.*.*.*.*.*.#.*.#.#.#.#.#.#.",
"X.X.X.X.X.#.#.X.X.X.#.#.#.X.X.X.{ { X.X.X.{ { X.{ X.X.X.X.X.X.X.{ ] ] ] ( ] ] { { { { X.{ X.X.X.X.#.#.X.{ X.{ { { { { { X.{ X.{ { ] ] ] ] { X.{ X.X.{ X.X.X.#.#.*.*.*.:.:.:.:.:.:.:.:.<.<.5.5.5.5.5.w.w.w.u.u.u.s.s.s.h.z.h.h.s.h.h.h.h.z.h.h.h.h.h.h.h.h.h.h.s.h.h.z.z.b.z.h.h.s.s.s.s.s.h.s.s.s.s.u.u.u.s.u.u.u.s.s.u.u.u.w.w.w.w.w.u.w.w.7.7.7.5.<.<.<.5.5.5.<.<.:.*.#.*.:.:.:.<.:.<.<.<.<.<.:.:.:.*.*.*.*.*.*.:.:.*.*.*.*.:.*.*.*.*.:.*.*.:.:.:.*.:.*.*.*.*.#.*.#.X.X.#.X.#.*.#.#.#.#.#.#.*.#.#.*.*.#.*.*.#.#.#.#.X.X.X.#.X.",
"] ] ] ] { { ] ] ] ] ] { { ] ] ( ( ] ] ( ] ] ( ( ( ] ( ] ] ] ] ( ( ( ~ ~ ~ ~ ~ ~ ( ( ( ] ] ] ] { ] ] ] ] ] ( ] ( ( ( ( ( ( ] ] ] ( ( ~ ~ ( ( ] ] ] ] ( ] ] { { X.X.X.#.#.#.X.#.#.#.*.#.*.*.*.*.:.:.<.5.5.5.5.5.7.7.w.w.u.s.s.u.w.u.u.s.s.u.u.u.s.s.u.s.s.u.u.u.u.u.s.s.h.h.h.s.u.w.u.u.u.u.u.u.w.u.w.7.w.w.7.w.w.w.w.w.w.7.7.7.5.7.5.7.7.5.5.5.5.<.<.:.:.:.*.:.:.:.*.*.X.X.X.#.*.*.*.*.*.*.:.:.*.#.*.#.X.X.X.X.X.#.#.#.X.X.X.#.X.X.#.X.#.#.#.X.#.#.#.#.X.X.#.#.X.{ { { ] ] ] ] { { X.{ { { { { { { { X.{ { { X.{ { ] ] ] ] ] ] ] ",
"{ { { { { X.{ X.{ X.X.X.X.{ { ] { ] { { { { { ] { { { { X.X.X.{ { { ] ] ( ] ] ] { { { X.X.{ { X.X.X.#.X.{ X.{ { ] ] ] ] { { X.{ { ] ] { { { X.X.X.X.X.X.X.X.#.#.*.*.*.:.*.*.*.*.*.:.:.:.:.<.<.<.<.5.7.7.7.w.w.w.u.u.u.s.h.h.u.s.s.s.s.h.s.s.s.s.h.s.h.s.s.s.u.s.s.h.h.z.z.h.h.s.u.s.s.s.s.s.s.u.s.u.w.w.u.u.u.u.u.u.s.u.u.w.w.w.w.w.w.w.w.7.w.7.5.5.<.<.<.5.5.5.<.<.:.*.*.*.:.:.:.:.<.:.<.<.<.<.:.:.*.#.#.*.#.*.:.*.*.*.#.#.*.*.#.*.*.*.:.*.*.*.:.*.*.*.*.*.*.#.#.X.X.X.{ X.{ X.#.X.X.X.X.X.X.X.X.X.#.X.X.X.#.X.X.X.{ { { { { { ",
"] ] ( ] ] ] ] ] ] ] ] { { ] ] ] ( ] ] ] ] ( ( ] ( ] { { { { { { ] ] ( ( ( ( ( ] ] ] ] ] { { ] { { X.X.{ ] ] ] ] ( ] ( ] ] { { { ] ] ] ( ] ] ] { { { { { X.{ { X.X.#.#.#.*.#.#.#.#.#.*.*.*.*.:.:.<.<.5.5.5.5.7.7.7.w.w.s.s.u.u.w.w.u.u.u.s.u.u.u.u.u.s.u.u.u.u.u.u.u.s.h.h.s.u.u.w.w.u.u.u.s.u.u.w.w.7.w.7.7.w.w.w.w.w.w.w.7.7.7.7.7.7.7.7.7.5.5.5.<.<.:.<.<.<.<.<.:.:.*.#.*.*.:.:.:.:.:.:.:.<.:.*.*.*.#.#.X.X.#.#.#.*.#.X.#.#.#.#.#.#.#.*.#.#.#.*.#.X.#.X.#.X.X.{ { { { ] ] ] ] { { { { { { { { { { { { { { { { ] ] ] ] ] ( ] ] ",
"{ ] { { { X.{ { { X.X.X.X.{ { { { { { { { { { { X.{ { X.X.X.X.X.{ { { { ] { { X.X.X.{ #.#.#.X.#.#.#.#.#.X.X.X.X.{ X.{ X.{ X.#.X.X.X.{ X.X.X.X.#.#.#.X.#.#.#.#.*.*.*.:.*.*.*.*.:.:.:.:.:.<.<.5.5.<.5.7.7.w.7.w.w.u.u.u.s.h.s.u.s.u.s.s.s.u.s.s.s.s.h.s.s.s.s.s.s.s.h.h.h.z.h.h.s.u.u.s.s.h.s.s.u.u.u.u.w.u.u.u.u.u.u.s.u.u.u.w.w.w.w.w.u.u.w.w.7.7.5.5.5.5.5.5.5.5.<.<.:.:.:.<.<.5.<.<.<.5.<.5.<.<.<.<.:.*.*.*.*.*.:.:.*.*.*.:.:.*.:.*.:.:.:.*.:.:.:.*.*.*.*.#.#.#.X.X.{ { { { X.#.X.X.X.X.X.X.X.X.X.X.X.X.X.X.X.{ X.{ { ] ] ] ] ",
"] ] ] { { { { { { { { { X.{ ] { ] ] { { { { { { { { { X.X.#.X.X.X.X.X.{ { { X.X.X.X.X.X.X.X.X.X.#.X.#.#.#.X.X.X.{ { { X.X.X.#.#.X.X.X.X.X.X.#.X.X.X.#.#.#.#.#.*.*.*.*.*.*.:.:.*.*.*.:.:.:.<.<.<.5.5.7.5.7.7.7.w.w.u.u.s.s.s.u.u.u.u.s.u.s.s.u.s.s.s.s.s.s.u.u.s.s.s.h.h.z.h.s.u.u.u.s.s.s.s.s.u.u.u.w.u.w.u.u.u.u.s.u.u.s.u.w.w.w.w.w.w.w.w.w.w.7.5.5.5.5.5.7.5.5.5.5.<.:.:.<.5.<.5.<.5.<.<.5.5.5.<.:.*.:.*.*.:.*.:.:.*.*.*.*.:.:.*.*.:.:.:.*.*.:.*.*.#.*.*.#.#.X.X.X.{ { { { X.X.X.X.X.{ X.X.{ { X.{ X.{ { { X.{ { { ] ] ] ] ] ",
"] ] ] ] { { { { { { { { X.{ { { ] { { { { { { { X.{ X.#.X.#.#.X.X.X.X.X.X.X.X.#.X.#.X.#.#.#.#.#.#.*.*.#.#.#.#.#.X.X.X.X.X.#.#.#.#.#.#.#.#.#.#.#.#.#.*.*.*.*.*.*.:.:.:.:.*.*.:.:.:.:.<.:.<.<.<.5.5.5.5.5.5.7.w.w.u.s.s.s.h.s.u.u.u.s.s.u.s.u.u.s.s.h.s.s.s.u.s.s.u.s.h.h.z.h.s.s.s.u.s.h.h.h.s.s.u.u.u.u.u.s.u.s.s.s.s.s.u.u.u.u.u.w.w.u.w.u.u.w.7.7.7.7.7.7.7.7.7.7.5.<.5.<.5.5.5.5.5.5.5.5.5.5.5.5.<.:.:.:.:.:.:.:.:.:.*.:.:.:.:.:.:.:.:.:.:.:.:.*.:.*.*.*.#.#.#.X.{ { { { { { { X.X.X.{ X.X.{ X.{ X.{ { X.{ X.{ { { ] ] ] ] ] ",
"E ~ ~ ~ ~ ~ ( ~ ~ ( ( ( ( ( ( ( ( ~ ~ ( ( ] ( ( ( ] ] ] { { { ] ] ] ] { ] { { { { { { { { { { { { X.X.X.X.{ { { ] ] ] ] { { { X.{ X.{ { X.{ { { X.X.X.X.#.#.X.X.#.#.X.#.#.#.#.#.#.#.#.*.*.*.:.:.:.:.:.:.:.:.<.5.7.7.w.u.u.w.w.7.7.7.w.w.w.w.w.u.u.w.u.w.w.w.w.w.w.u.u.s.s.u.w.w.7.w.u.u.u.u.u.w.w.7.7.7.7.7.7.w.w.w.w.w.w.w.w.7.7.7.7.7.7.7.7.5.5.<.<.<.<.5.<.5.<.<.<.:.:.:.:.:.<.<.<.:.:.:.<.<.:.:.*.*.*.#.#.#.#.#.*.#.X.X.#.*.*.*.*.*.*.*.#.#.#.#.#.X.#.X.X.{ ] ] ( ( ] ( ( ( ] ] ] ( ] ( ] ] ( ] ] ( ( ( ( ( ( ( ~ ~ ~ ~ E E ",
"P P P E P E E E E E E E ~ E E E E E E ~ E ~ ~ ~ ~ ~ ( ] ( ] ( ( ( ( ( ( ( ( ] ] ] ] ] ( ] ] ] ] { { { { { { ] ] ( ( ] ] ( ] { { ] ] ] { { ] ] ] ] { { X.X.{ X.{ { X.{ { { { X.{ { X.X.X.X.#.*.*.*.*.*.*.#.*.:.<.7.7.7.7.w.7.5.5.5.5.7.5.5.5.7.7.7.w.7.7.5.7.7.7.7.w.w.w.u.w.7.7.5.7.w.w.u.w.w.7.5.5.5.5.5.5.7.7.7.w.7.7.w.7.7.5.5.5.<.5.5.5.5.<.<.<.:.:.:.:.<.:.:.:.:.:.*.*.*.*.:.:.:.*.*.*.:.:.:.*.#.#.#.X.#.X.X.X.X.{ X.{ { #.#.#.#.X.X.X.X.X.X.{ { { { { ] ( ( ~ ~ E E E ~ ~ E ~ ~ ~ ~ ~ ~ ~ E ~ E E E E E E ~ E E E P P P P ",
"E E E ~ ~ ~ ~ ~ ~ ~ ~ ~ ~ ~ ~ ~ ~ ~ ~ ~ ( ( ( ] ( ] ] ] X.{ { ] ] { { X.{ { { { X.{ X.{ X.{ { { #.X.#.#.X.X.X.{ { { { { { X.X.X.#.X.X.X.#.X.X.X.X.X.#.*.#.#.#.#.*.#.#.X.#.#.X.#.#.#.#.#.#.*.:.:.:.:.:.*.:.:.<.5.7.w.w.u.u.w.7.7.7.7.7.7.7.w.w.w.w.w.w.w.7.w.w.w.w.w.u.u.s.u.w.w.7.w.u.s.s.u.u.w.w.7.7.7.w.w.w.u.w.w.u.w.u.w.w.w.w.7.7.7.w.7.7.7.5.5.<.<.<.<.5.<.5.<.<.<.<.<.<.<.<.<.<.<.<.:.<.<.<.<.:.*.*.*.*.*.*.#.#.#.#.X.#.*.*.*.*.*.*.#.#.#.#.#.#.#.#.X.{ { ] ( ( ~ ( ~ ( ( ( ( ] ( ( ( ( ( ( ~ ( ( ~ ( ~ ~ ( ~ ~ ~ ~ E E E ",
"] ] ] { { { { { { { { { { X.{ X.X.{ X.X.X.X.X.X.#.#.*.*.#.*.*.*.*.*.*.:.*.*.:.:.:.:.*.:.:.*.:.:.:.<.<.<.<.<.:.:.*.*.*.*.:.:.:.<.<.<.:.<.<.:.:.:.:.<.<.5.5.5.<.<.<.5.<.:.:.<.<.<.<.<.5.<.5.5.7.7.7.7.5.5.7.7.7.u.s.s.s.h.h.s.s.u.u.u.u.u.s.s.s.s.h.h.h.s.u.s.h.s.s.s.h.h.z.h.h.s.s.s.h.z.z.z.h.s.u.s.u.s.s.s.s.h.h.h.s.h.h.h.h.s.s.u.u.s.s.s.s.u.u.u.w.u.w.u.w.u.w.u.w.u.w.w.w.w.u.w.u.w.w.w.w.w.u.w.7.7.7.7.5.5.5.5.<.<.<.<.<.5.5.5.5.5.5.5.5.<.<.<.:.<.<.:.*.#.#.#.X.{ X.{ X.X.{ X.#.X.X.X.X.X.X.X.{ X.{ X.{ X.X.{ { { ] ] ( ] ",
"( ( ] ] ( ] ] ] ] ] ] ] { { ] ] { ] ] { { X.X.X.X.X.#.#.#.#.*.#.#.#.*.*.*.*.:.*.*.:.*.*.*.:.*.*.:.:.<.:.:.:.:.*.*.*.*.*.*.*.:.:.:.:.:.:.:.:.*.:.:.:.<.<.<.<.:.<.<.:.:.:.:.*.:.:.:.:.<.<.<.<.5.5.7.5.5.5.<.5.7.w.u.u.u.s.s.s.u.w.w.u.u.u.w.w.u.s.u.s.s.u.w.u.s.u.u.s.h.h.h.s.u.u.u.s.s.h.z.h.h.s.u.u.u.u.s.u.s.s.s.s.s.s.h.s.s.s.s.u.u.u.s.u.u.u.u.w.w.w.w.w.w.w.w.w.w.w.w.w.w.w.w.w.w.w.w.7.w.w.w.w.5.5.5.5.5.<.<.<.<.<.:.:.:.5.5.5.5.5.<.<.:.:.:.:.:.:.*.*.#.X.X.{ { { ] ] { { { { X.X.{ { X.{ { { ] ] ] ] ] ] { { { ] ] ( ( ~ ",
"~ ( ( ] ( ] ( ( ] ( ] ] ] ] ] ] { ] ] ] X.{ { X.X.X.#.#.*.*.#.*.#.*.#.*.*.:.*.:.*.*.*.*.*.*.*.:.:.:.<.:.:.<.:.:.*.*.*.*.*.:.:.:.:.:.<.:.<.:.:.*.:.:.:.<.<.<.:.:.<.:.:.:.:.:.:.:.:.:.:.<.:.<.5.5.5.5.<.<.<.<.5.7.w.u.s.s.s.u.w.w.w.w.w.w.w.w.w.u.u.s.u.u.u.u.u.s.u.u.s.h.h.h.u.u.u.u.s.h.h.h.h.s.u.u.u.u.u.s.s.s.h.s.s.s.s.s.s.s.u.u.u.u.u.s.u.u.u.w.w.w.w.w.w.u.u.w.w.w.w.w.w.w.w.w.w.w.w.7.w.w.w.w.7.5.5.5.5.5.<.<.<.:.:.:.<.<.5.<.<.5.5.<.<.:.:.:.:.*.*.*.#.#.X.{ ] ] ] ] { ] ] ] { { ] { { { ] ] ] ] ] ( ( ( ] ] ] ( ( ~ ~ ~ ",
"K P P P P E P E P E E E E E ~ E E E E ~ ~ ( ( ( ( ] ] ] ] { { { { { X.{ X.X.X.#.X.X.X.X.X.X.X.#.#.#.#.*.#.#.X.X.X.{ X.X.{ X.X.#.#.#.#.#.#.#.X.#.#.#.#.*.*.*.#.#.#.#.X.X.#.X.X.X.#.X.#.#.#.*.*.*.:.*.*.#.#.*.:.<.5.7.7.7.7.7.5.5.<.<.<.5.<.5.5.5.5.7.7.5.5.5.7.7.7.7.w.w.w.w.7.5.7.7.w.u.u.u.w.w.5.5.7.7.7.7.w.7.w.w.w.w.u.u.w.w.w.7.7.7.w.w.7.7.5.5.5.5.5.5.7.5.7.5.7.5.5.<.5.5.5.5.5.5.<.5.5.5.5.5.<.:.:.:.*.*.*.*.*.#.#.#.#.*.*.:.*.*.*.#.#.#.#.X.X.X.X.{ ] ( ( ~ ~ E E E E E E ~ ~ ~ E E ~ ~ E E E E E E E E E E E P P K K K ",
"F F K K K K K K P P P P P P E P P E P P E ~ ~ E ~ ~ ( ] ] ] ] ] ] ] { X.{ X.X.X.X.{ X.X.{ X.{ X.#.X.#.#.#.X.X.{ { { { { { { X.#.X.#.X.#.X.X.{ X.X.X.#.#.#.#.#.X.#.X.X.X.{ X.X.X.X.X.X.X.X.#.#.*.*.#.#.X.#.X.#.:.<.5.5.5.5.5.<.:.:.:.:.*.:.:.<.<.<.5.5.<.<.<.5.5.5.5.7.7.w.7.5.5.<.5.5.w.w.w.w.7.5.<.5.5.7.7.7.w.w.7.w.w.w.w.w.w.7.7.5.7.7.7.7.7.5.5.5.<.<.<.5.5.5.5.5.5.5.5.<.<.5.5.5.<.<.<.<.<.5.<.:.:.*.*.*.*.*.#.#.X.#.X.#.#.#.*.#.#.#.#.X.X.X.{ X.{ { ] ( ( ~ E E P P P E P P E E P P E P P P P P P K K K K K K K K K F F F ",
"F F F K K K K K P K P P E P P E E P E E E E ~ ~ ~ ( ( ] ] ] { { { { { X.X.X.X.#.X.X.X.X.X.X.X.#.#.#.#.*.#.#.#.X.X.X.X.X.#.X.X.#.X.#.#.#.#.#.#.#.#.#.#.#.*.#.#.#.#.#.X.X.X.X.X.X.X.X.#.#.#.#.*.*.#.*.#.#.X.#.#.:.<.<.<.5.5.5.<.:.:.:.:.:.:.:.<.<.5.5.5.5.<.<.5.5.<.5.7.7.7.7.5.<.5.5.7.w.u.w.7.7.5.5.5.5.7.7.7.w.w.w.w.w.w.u.w.7.w.7.7.7.w.7.w.7.7.7.5.5.5.5.5.7.7.7.5.5.5.5.5.5.5.5.5.5.5.5.5.5.5.<.<.:.:.*.:.*.*.#.#.#.#.X.#.#.*.*.*.*.*.#.#.X.X.X.X.{ { ] ( ( ~ ~ E E P P P E P P E E P P E P P P P P K K K K P K K K K F F F ",
"P E E ~ E ~ ~ ~ ~ ~ ~ ( ( ( ( ] ] ( ( ] ] ] { { { X.X.#.#.#.#.#.*.*.*.*.:.:.:.:.:.*.:.:.:.:.:.:.<.<.<.<.<.<.<.:.:.:.:.:.:.:.<.<.<.<.<.<.<.<.<.<.:.<.<.5.5.<.<.:.:.:.:.:.*.:.:.:.:.:.:.:.:.<.<.<.<.<.<.:.:.:.<.5.7.w.w.w.u.w.7.7.5.5.5.5.5.5.7.w.w.w.w.w.7.w.w.w.w.w.s.s.s.u.u.w.7.u.s.s.h.s.s.u.w.w.w.w.u.u.u.s.s.s.s.s.s.s.s.s.s.u.u.s.s.u.u.u.u.u.w.w.w.u.u.u.u.u.u.u.u.u.w.u.u.u.u.w.w.w.w.u.w.w.w.7.7.5.5.5.5.<.5.<.:.<.<.<.<.5.<.5.<.<.:.:.:.:.*.*.*.#.X.{ { ] ] ( ~ ( ] ( ( ( ] ( ( ( ( ( ( ( ~ ~ ~ ~ ~ ~ ~ ~ ~ E E E P P ",
"Z F F K F F K K K K K P P E P P P E P E ~ ~ ~ ~ ~ ( ] ] ] { { { { { X.X.X.X.#.#.#.#.X.#.#.#.#.#.*.*.*.*.*.*.*.#.#.X.#.X.#.#.*.*.*.*.*.*.*.*.#.#.#.*.*.*.*.*.*.#.*.#.X.X.X.#.X.X.X.X.#.X.X.#.*.*.*.*.#.#.X.#.*.:.5.5.5.5.5.5.<.<.:.:.:.:.:.:.<.<.<.5.5.<.<.<.5.5.<.5.7.7.7.7.5.<.5.5.7.w.w.u.7.5.5.5.5.5.7.7.7.7.7.w.w.w.u.w.w.w.w.w.7.7.w.w.w.w.7.7.7.7.5.7.7.7.7.7.7.7.7.7.7.7.7.7.7.7.5.7.7.7.7.7.<.<.<.<.:.:.*.*.*.*.#.#.*.*.:.*.:.:.*.*.#.#.X.X.X.X.{ ] ( ( ~ E P P P P E P P P E E P P P P P K K K F K F K K K K F F F Z F ",
"E ~ ( ~ ~ ~ ( ( ( ( ( ] ] ] ] ] { { ] { { X.X.#.#.#.*.*.:.:.:.:.:.<.<.<.<.5.5.5.5.5.5.5.<.5.5.5.5.7.7.w.7.7.7.7.5.5.5.5.<.5.7.7.7.7.7.7.7.7.5.5.5.7.7.7.7.7.7.5.7.5.5.<.<.<.5.<.<.5.<.5.<.5.7.5.7.5.5.<.<.5.5.w.u.u.u.s.s.u.u.w.7.w.w.w.w.w.w.u.u.u.u.u.w.u.u.u.u.s.s.h.h.s.u.u.u.u.h.h.z.z.h.s.u.s.u.s.s.s.h.h.h.h.h.z.z.h.z.h.h.s.s.h.h.h.h.h.s.s.s.s.s.s.s.h.h.h.h.s.s.s.s.h.h.s.h.s.s.s.s.s.h.s.u.u.w.u.w.w.w.7.7.7.7.5.5.7.7.w.w.7.7.7.5.<.5.<.<.:.:.*.*.#.#.X.{ ] ] ] ] ] ( ] { ] ] ] ] ] ] ( ( ( ( ~ ~ ( ( ( ( ( E ~ E E ",
"v m Z Z Z Z Z Z F Z F K K K F K K K P P E E E E ~ ~ ( ] ] ] ] ] ] { { { { X.X.X.X.X.X.X.#.#.X.#.*.*.*.*.*.*.*.#.X.#.X.#.#.#.*.*.*.*.*.*.*.#.#.#.#.#.*.*.*.*.#.#.#.#.X.X.X.X.{ X.X.{ X.X.X.X.#.#.#.#.X.X.X.{ X.*.:.<.<.<.<.<.:.*.*.*.*.*.*.*.:.:.:.<.<.:.*.:.<.:.:.<.5.5.5.5.<.<.:.<.7.7.w.7.5.5.<.<.<.<.5.5.7.7.7.7.7.w.w.w.7.w.7.7.5.7.w.7.7.7.7.7.5.5.5.5.7.7.7.5.7.7.7.5.5.7.7.7.7.7.5.5.5.5.7.5.<.:.<.:.:.:.*.*.:.#.#.#.#.*.*.*.*.#.#.#.X.X.X.{ { { ] ] ~ ~ E P P K K F K K K K P K F K F F F F Z F Z Z Z Z Z F Z m m m v v ",
"m Z Z F F F F F F K K K P P P P P E P E E ~ ~ ~ ( ( ] { { X.X.{ { X.X.#.#.#.*.#.#.*.#.*.*.*.*.:.:.<.<.<.:.:.:.:.*.:.*.:.*.:.:.<.:.:.:.:.:.:.:.*.*.:.:.:.<.:.:.*.*.*.#.#.#.#.#.#.X.#.#.#.#.#.*.*.*.*.#.#.#.#.*.:.<.5.5.5.5.5.<.:.:.:.<.:.<.:.<.<.5.<.<.<.<.<.<.5.<.5.5.7.7.7.5.<.<.5.7.w.w.w.w.5.5.5.5.5.7.7.w.7.w.w.w.w.u.u.w.w.w.w.7.w.w.w.u.w.w.7.w.7.7.7.w.w.w.w.w.w.w.7.w.7.w.w.w.7.7.7.w.w.w.7.7.5.5.5.5.<.<.:.:.:.*.:.*.:.<.:.:.:.:.*.#.#.#.#.X.X.X.{ ] ( ~ E P P P P P P K P E P K K P K K K F F F F F F K F F Z Z Z m Z ",
"P P P E E E E E E ~ ~ ( ] ( ( ( ( ] ] { { { X.X.X.#.#.*.*.*.:.*.:.:.:.:.<.<.<.5.5.5.5.5.5.5.7.7.7.7.w.w.w.w.7.7.7.5.7.7.7.7.w.7.w.w.7.w.7.7.5.7.5.7.7.7.7.7.5.5.7.5.5.<.<.<.<.<.<.<.<.<.<.<.5.<.5.5.<.<.<.<.<.7.w.w.w.u.u.u.7.7.7.7.7.w.7.7.w.w.w.u.w.w.7.7.u.w.w.u.u.s.s.s.w.w.w.w.s.s.h.h.s.u.w.w.w.u.u.u.s.s.h.s.s.h.h.h.h.s.h.s.h.h.h.h.h.h.h.s.s.s.s.h.h.s.s.h.s.s.h.s.s.h.h.h.s.h.s.s.s.h.h.s.u.u.w.u.w.w.w.w.w.7.5.7.7.7.7.7.7.7.5.5.<.<.<.<.:.:.:.#.#.#.{ ] ] ] ( ( ( ( ( ( ( ( ~ ( ~ ~ ~ ~ E ~ ~ P E E E E E P P P K K ",
"g g g l l l l v l v m m Z Z Z m Z Z Z Z F K K P P E E ~ ~ ~ ( ( ~ ( ] ] ] ] { { { X.{ X.X.X.X.X.#.#.*.#.#.*.#.X.X.X.#.X.#.#.#.#.#.#.#.#.X.#.X.X.#.X.X.#.#.X.X.X.X.X.{ { ] { ] ] ] ] ] ( ] ] { { { { { ] ( ] ] X.#.#.*.*.:.#.X.X.X.X.#.X.X.X.#.#.#.#.#.#.X.X.#.#.#.*.*.:.:.:.#.#.#.*.:.<.5.<.<.:.*.*.*.*.:.:.:.<.<.<.<.5.5.5.5.<.5.<.<.5.7.5.7.5.5.5.5.<.<.5.5.5.5.5.<.5.5.<.<.5.5.5.5.5.5.<.5.5.5.<.<.:.:.*.:.*.*.#.#.X.X.#.X.#.#.#.X.X.X.X.{ ] ] ] ( ( ~ ~ P P K F F m Z Z m Z m m Z m m m m v v v l v l l l l l l g g g g i i ",
"m Z Z Z F K F K K K P P E P P E E E E ~ ( ( ( ( ] ] X.X.X.#.#.#.#.#.#.#.#.*.:.:.<.:.<.<.<.5.<.5.5.5.7.5.5.5.5.5.5.<.<.5.<.5.5.5.5.5.5.5.5.<.<.<.<.<.<.5.<.<.:.<.<.:.:.:.*.:.*.*.*.*.*.*.*.*.*.:.*.*.:.*.*.*.:.<.<.5.5.5.7.7.<.<.<.<.<.<.<.<.<.<.5.5.5.<.<.<.<.5.<.7.7.w.w.w.5.5.<.7.7.w.w.w.w.7.7.7.5.5.w.7.w.u.u.u.u.u.u.u.u.u.u.u.u.u.s.u.s.u.u.u.w.u.u.u.u.s.u.s.u.u.u.u.u.s.s.u.u.s.u.u.u.u.u.u.w.7.w.7.7.7.5.5.5.5.<.<.5.<.<.5.<.<.<.:.*.*.*.*.#.#.#.X.{ { ( ( E E P P E P E P E P P P P K K K K F F F F F F F F Z Z m Z Z ",
"m m Z Z Z F F F F K K P P P P P P P E E ~ ~ ~ ( ( ] ] { X.X.X.X.X.#.#.#.#.*.*.:.:.:.:.<.<.<.<.<.5.5.5.7.5.5.5.<.<.5.5.<.<.5.5.5.<.5.<.5.5.5.<.<.<.<.<.<.<.<.:.:.<.:.:.*.*.*.*.*.#.#.*.#.#.#.*.*.*.*.*.*.#.*.*.:.<.<.<.5.7.5.<.:.:.:.<.<.:.:.<.<.5.<.<.<.<.<.<.<.<.5.5.7.7.7.5.<.<.<.5.7.w.w.7.7.5.5.5.5.7.7.7.w.w.w.u.u.u.u.w.u.w.u.u.u.u.u.u.u.u.w.u.w.u.u.u.u.u.u.u.u.w.u.u.u.u.u.u.u.u.u.u.u.u.w.w.w.7.7.7.5.7.7.5.5.<.<.<.<.<.<.<.:.:.:.*.*.*.#.X.X.X.X.] ] ( ~ E P P K K P P P P K K K F F F F F Z Z Z Z Z Z Z m m m m v m ",
"F Z F F K K K P P P E E ~ E ~ E ~ ~ ( ( ( ] ] ] { X.X.#.*.*.*.*.*.*.*.:.:.:.<.<.<.5.5.5.7.7.7.w.w.w.w.w.w.w.w.7.w.7.7.7.w.w.w.w.w.7.7.7.7.7.7.7.7.7.5.5.7.5.5.5.5.5.5.<.<.<.:.<.:.:.:.:.:.:.<.:.:.:.<.:.:.:.<.<.5.5.7.w.w.7.5.5.<.5.5.7.5.5.5.7.7.7.7.5.5.5.5.5.5.7.w.u.u.u.w.7.7.7.w.w.u.u.w.w.w.w.7.w.w.u.u.u.s.s.s.s.s.s.s.s.s.s.s.s.h.h.h.h.s.s.s.s.s.s.s.h.h.h.s.s.s.s.s.h.h.h.s.h.h.h.h.h.s.s.s.u.u.u.w.u.w.w.w.7.7.7.7.7.7.5.5.5.5.<.<.<.:.:.:.*.*.#.X.{ ] ] ( ~ ~ E E ~ ~ E E E P E P P K P K K F K K K F F F Z Z Z Z Z ",
"l v v m m Z Z Z Z F F K K K F K K P E E E E ~ ~ ( ( ] { { X.X.X.X.X.X.X.X.#.*.*.:.:.:.<.<.<.<.5.5.7.7.7.5.5.5.5.5.<.<.5.5.5.5.5.5.5.<.<.<.<.<.5.<.<.:.<.:.:.:.*.:.:.:.*.*.*.#.#.#.#.#.#.#.#.#.#.#.#.*.#.#.#.*.*.:.:.:.<.5.<.*.*.*.*.:.:.:.:.*.:.:.:.:.:.*.:.*.*.:.<.5.5.7.5.5.:.:.:.<.5.5.7.5.5.5.<.<.<.5.5.5.w.7.w.u.w.w.u.w.w.w.w.u.u.u.u.u.u.u.w.w.u.u.u.u.s.u.s.u.w.u.u.u.u.u.s.u.u.u.u.s.u.u.u.w.w.7.7.7.7.7.5.5.<.5.<.<.<.:.:.:.:.:.:.#.*.*.#.X.X.X.{ ] ( ~ ~ E P K F F K K K F F Z F Z Z m Z Z Z m m Z m m v v v l l l v ",
"l l l v m m m m m Z Z F K K F F F K P P P E E ~ ~ ( ( ] { X.X.X.X.X.X.#.#.#.#.*.*.:.:.<.5.<.<.5.5.5.7.7.5.5.5.5.5.<.5.5.5.7.5.5.<.<.5.<.<.<.<.<.<.:.:.:.:.:.:.:.:.:.:.*.*.*.#.#.#.X.#.X.#.X.#.X.X.#.#.#.#.#.#.#.*.*.:.<.<.<.*.*.*.*.:.*.*.*.*.*.*.:.:.*.*.*.*.*.*.:.<.5.5.5.<.:.*.:.:.5.5.5.5.<.5.<.<.<.5.5.5.7.w.w.w.w.w.w.w.w.w.w.w.u.u.u.u.u.u.u.w.u.w.u.u.s.u.u.u.w.w.w.u.u.s.u.u.s.s.u.s.u.u.w.w.w.7.7.7.7.7.7.7.5.<.<.<.<.:.:.:.*.:.*.#.#.#.X.X.X.{ ] ] ( E E P P K F Z F K F F Z Z m Z m m m m m v v m v v l l g l g l l ",
"l g g l v v m m m Z Z Z F F Z F F F K P P E E E ~ ~ ( ] { { { X.X.X.{ X.X.X.#.*.*.*.:.<.<.<.<.5.5.5.7.7.5.5.5.5.5.5.5.5.5.5.5.5.<.5.<.<.<.<.<.<.<.:.:.:.*.*.*.:.:.:.:.*.*.*.#.#.X.#.X.#.X.X.X.X.X.X.#.#.#.#.#.#.#.#.*.:.<.:.*.#.#.*.*.*.*.*.#.*.*.*.*.*.*.#.#.*.*.*.<.<.5.<.:.*.*.*.:.:.<.<.<.<.<.<.:.<.<.5.5.5.7.w.w.w.w.w.7.w.w.w.u.u.u.u.u.u.u.w.w.u.u.u.u.u.u.u.u.w.w.w.u.u.u.u.u.u.s.s.s.u.u.w.w.w.7.7.5.7.7.7.7.5.<.<.<.<.:.:.*.*.*.*.#.#.#.X.X.{ { ] ] ~ E P P K F F Z Z F F Z Z m m m m v v m v l v v l l g g g g g g g ",
"l l g v v m m m m Z Z F K F F K F K P E E E E ~ ( ( ] { { X.X.X.X.X.#.#.X.*.*.*.:.:.<.<.5.5.5.7.7.7.7.w.7.7.7.7.7.7.7.7.7.7.w.7.5.5.<.5.<.<.5.5.5.<.:.:.:.:.:.:.:.:.:.:.:.*.*.#.#.#.#.#.#.#.X.#.X.#.#.#.#.#.#.#.#.*.*.:.<.<.*.*.*.*.:.:.*.*.*.*.*.*.:.*.*.*.#.*.*.:.<.5.5.5.<.:.*.:.:.<.<.5.<.5.5.5.<.<.5.5.5.7.w.w.w.w.w.w.w.w.w.u.u.u.u.u.s.u.u.u.u.u.s.s.s.s.s.s.u.u.w.u.s.s.s.s.s.h.s.s.s.s.u.u.u.w.w.w.7.w.7.w.7.7.<.5.<.5.:.:.:.:.:.*.#.#.*.#.X.{ { { ] ( ~ ~ P P K F Z F K F Z Z m Z m m m v m m v v v v l l g g g g g g ",
"v v v m Z Z Z Z F F K P E P P P P E E ~ ( ( ( ] ] { X.X.#.#.#.*.*.*.#.*.*.*.<.<.<.5.7.7.7.w.w.w.u.u.u.u.w.u.u.w.w.w.w.u.w.u.u.w.w.7.w.7.7.w.w.w.7.7.5.5.5.<.5.5.<.5.5.<.5.<.:.:.:.*.*.*.:.*.*.*.#.*.:.:.:.:.:.:.:.:.<.5.7.5.<.:.:.<.5.<.5.<.:.<.<.<.<.<.<.:.:.:.<.5.5.w.w.w.5.5.<.<.5.5.7.7.7.7.7.7.5.7.7.w.w.u.u.u.u.s.u.u.u.u.s.s.h.h.h.h.h.s.s.s.s.h.h.h.h.z.h.h.s.s.s.s.h.h.z.h.h.z.h.z.z.h.h.s.s.s.u.w.u.u.u.u.u.w.7.w.7.7.5.5.<.5.<.<.:.:.:.:.*.#.#.X.X.{ ( ( ~ E E P K P E P K K F F F Z Z Z Z Z Z Z Z Z v v v l v v v v ",
"l v v v Z m Z Z Z F K K P P P K K P E E ~ ~ ( ( ] { { X.#.#.#.#.#.*.*.*.*.:.:.<.5.5.7.7.w.w.w.u.u.u.u.w.u.u.u.u.u.u.u.w.u.u.u.w.w.w.w.7.7.7.7.7.w.7.5.5.5.<.<.5.5.5.5.5.<.<.:.:.:.*.*.*.*.*.*.#.*.*.:.:.:.*.:.*.*.:.:.5.7.5.:.:.:.<.<.5.<.<.:.<.:.:.:.<.:.:.*.*.:.<.5.7.7.7.5.<.:.<.<.5.5.5.5.5.7.7.5.7.w.7.w.w.w.u.u.u.u.u.u.u.s.s.s.s.s.h.h.h.h.s.s.s.s.h.h.h.z.h.h.s.s.s.h.h.h.h.h.z.h.z.z.h.h.h.s.u.s.u.u.u.u.u.u.w.7.7.w.7.5.5.<.<.<.<.*.:.:.*.#.#.X.X.{ ] ( ( ~ E P P K K P K F F Z F Z Z Z m Z Z m m m m v v v l l l l l ",
"g g g l v v v m m m Z F F F F F K K P E E E ~ ~ ] ] ] { X.X.X.#.X.#.#.#.#.*.*.:.<.<.5.5.7.7.w.w.w.u.u.w.w.w.u.w.u.w.w.w.w.u.w.w.w.7.7.7.5.7.5.7.5.5.<.<.<.<.<.<.<.<.<.<.<.:.:.*.*.*.#.#.#.#.X.#.X.#.#.*.*.*.#.#.#.*.*.<.5.<.:.*.*.:.:.:.:.*.*.*.*.*.*.*.*.#.#.#.*.:.<.5.5.5.<.:.:.:.:.:.<.<.<.5.5.5.<.5.7.7.7.7.w.w.w.u.w.w.w.u.u.u.s.s.h.s.s.s.s.s.u.s.s.h.h.h.h.s.s.u.u.s.s.h.h.s.h.h.h.h.h.h.s.s.s.u.u.w.w.u.u.w.w.7.5.5.7.5.<.<.:.:.:.*.*.*.*.#.X.X.X.{ ] ] ~ E E P K F F F F F Z Z m m m v v v m v v v v l l g g g g l g g ",
"g i g g l l v v m m Z Z F F F F F F P P P E ~ ~ ( ] ] ] X.X.X.X.#.X.X.#.#.#.*.:.:.<.5.7.7.7.7.7.w.w.u.w.w.u.w.w.w.u.w.w.w.u.u.w.w.7.5.7.7.5.7.5.7.5.<.<.<.:.:.<.<.<.<.<.:.:.:.*.*.#.#.#.#.#.X.X.X.X.#.*.#.#.*.#.#.#.*.:.<.:.*.*.#.*.:.:.:.*.*.*.#.*.#.#.#.#.#.#.#.:.:.<.<.<.:.:.*.*.:.:.<.<.<.<.<.<.<.5.7.7.7.7.w.w.w.w.w.w.w.u.u.u.s.s.s.s.s.s.s.s.u.s.s.s.h.s.h.s.s.u.u.u.s.s.h.h.h.h.h.z.h.h.s.s.s.u.u.u.w.u.w.u.w.7.7.5.5.5.5.<.:.:.:.*.#.*.*.#.X.X.{ { ] ( ~ ~ P K K F Z F F Z Z m m m m v v v v v v l l l g i i i i i i i ",
"l l v v m m m Z Z F F K P P P P P E E ~ ~ ( ] { { X.X.#.#.#.*.*.*.*.:.*.:.:.<.<.5.7.w.w.u.u.u.u.s.s.s.s.s.s.s.h.s.s.s.s.s.s.s.u.u.u.w.w.w.w.w.w.w.w.7.7.7.7.5.5.7.7.7.7.5.5.<.<.<.:.:.*.*.:.*.*.#.*.:.<.<.:.:.:.:.:.<.5.w.7.<.<.<.<.5.5.5.<.:.<.:.<.:.:.:.:.*.:.<.<.7.7.7.7.7.5.5.<.5.5.5.7.7.7.7.7.7.7.w.w.u.w.u.u.u.u.s.u.u.s.s.h.h.h.z.h.h.h.z.h.h.h.h.z.z.z.z.z.h.h.h.h.z.h.z.z.b.z.b.z.b.z.z.h.h.h.s.s.s.s.s.s.u.u.w.w.w.w.7.7.5.5.5.<.:.:.:.:.*.#.#.X.X.{ ] ( ~ ~ E P P K K K K F F Z F Z Z Z Z Z m Z m m v l l l l l l l ",
"l l l v m m v Z Z F K K P P K K P P E ~ ~ ( ] { X.X.X.#.*.*.#.*.*.*.*.:.:.<.<.5.7.7.7.u.u.u.u.s.s.s.s.s.h.s.s.h.s.h.h.s.s.h.s.s.u.u.u.u.w.u.w.u.w.w.7.7.5.7.5.5.7.7.7.7.5.5.<.<.<.:.:.:.*.*.#.*.*.*.:.:.:.:.*.:.:.:.:.5.7.7.5.<.:.<.5.5.5.5.<.<.:.:.:.:.:.*.*.:.:.5.5.7.7.7.5.<.<.<.5.5.5.5.7.5.7.7.7.w.w.w.w.u.u.s.s.u.s.u.s.s.h.h.h.z.z.z.h.z.z.h.h.h.h.z.b.z.z.z.z.h.h.h.z.z.z.z.b.b.b.b.b.z.z.z.z.h.h.s.h.s.h.s.u.u.w.w.w.w.w.7.5.5.5.<.:.:.:.:.*.#.#.X.X.{ ] ( ~ ~ ~ P K K K K F F Z Z Z Z Z Z Z m Z Z m m l l l l g l l g ",
"y i g g l l l v l m m F F F F F Z F K P P E ~ ( ] ] ] { X.X.X.#.#.#.#.#.#.*.*.:.<.5.5.7.w.w.w.w.u.u.s.s.u.u.u.u.u.u.u.u.s.s.u.u.w.w.7.7.7.7.7.7.7.5.5.<.<.<.<.<.5.<.<.<.<.:.*.:.*.*.#.#.#.#.X.X.X.X.#.*.*.#.#.#.#.#.#.:.<.<.:.*.*.*.:.:.:.:.#.#.#.#.#.X.X.#.X.#.#.:.<.<.:.:.:.:.:.:.:.:.*.:.<.<.<.<.<.5.5.7.7.7.w.w.w.w.w.w.w.u.u.s.s.h.h.h.s.s.h.s.s.s.h.h.h.h.h.h.s.s.s.s.h.h.h.h.h.z.z.z.h.h.h.h.s.s.s.s.u.u.u.u.w.w.7.7.5.5.5.<.:.:.:.*.*.*.*.#.X.X.{ ] ] ( ~ E E P K F Z Z m m Z m v v v v v v l v v v l g i i i y y i i y ",
"7 0 y y i i y i g l v m m m m m m Z F K K P P ~ ~ ( ( ( { { { { X.{ X.X.X.#.#.*.:.:.5.7.7.7.7.w.w.w.w.w.w.u.u.u.u.u.w.u.u.w.w.w.7.7.7.7.7.5.5.5.5.5.:.:.:.:.:.:.:.<.:.:.:.*.#.#.#.#.X.X.X.{ { ] ] { X.#.X.X.X.X.X.X.X.#.:.*.#.X.X.X.#.*.*.#.X.X.X.{ { { { { { { X.#.*.*.*.*.*.#.#.#.*.#.#.*.*.*.*.*.:.<.<.5.5.5.7.7.7.w.7.7.7.w.w.u.u.s.s.s.u.s.u.s.u.u.s.s.h.h.h.s.u.u.u.u.s.s.s.h.h.h.z.h.h.h.s.s.s.u.u.u.w.u.u.w.7.5.5.<.<.5.<.:.:.*.*.#.X.X.#.X.{ ] ] ( ~ E P P K F F Z m m v v l l l l l g g g g g g l i i 0 0 0 0 0 0 0 7 ",
"y i g g l l l v m m Z F F F F F K K P E E ~ ( ] { { { X.#.#.#.#.#.#.*.*.*.:.:.<.5.7.7.w.w.u.u.u.s.s.s.h.h.s.s.h.s.h.s.h.h.s.s.u.u.u.w.w.w.w.w.w.w.7.7.7.5.5.5.5.5.5.5.5.5.<.<.:.:.:.*.*.*.#.#.X.X.#.*.*.*.*.*.*.*.*.*.<.5.5.<.:.*.:.<.<.<.:.*.:.*.#.#.#.#.#.#.#.*.:.<.<.<.<.:.<.:.<.<.<.:.<.5.<.:.<.5.7.7.w.7.w.w.w.u.u.u.u.u.u.s.s.h.h.z.h.h.h.h.h.h.h.h.z.z.z.z.z.h.h.s.h.z.z.z.z.b.b.b.b.b.z.h.z.h.h.h.s.s.h.h.s.u.w.w.7.7.7.w.5.5.<.<.:.:.*.:.*.#.X.X.{ ] ] ( ~ ~ P P P F Z Z Z Z m m m m m v v v v m v v l i i i i i i i i ",
"i g v v v v v v Z Z F K P P K K P P E ~ ~ ( ] { X.#.X.#.*.*.*.*.:.:.:.:.<.<.5.5.7.w.w.s.s.s.s.h.h.h.h.h.h.h.z.z.z.z.h.z.z.z.z.h.s.s.s.s.u.u.u.u.u.u.w.7.7.7.7.7.7.w.w.7.7.5.5.5.<.<.:.:.:.*.*.*.*.*.<.<.<.<.:.<.:.:.:.5.w.7.5.<.<.<.5.7.7.5.<.<.:.:.*.*.:.*.*.*.:.5.7.7.5.5.5.<.<.5.5.<.<.5.7.5.5.7.7.w.w.u.u.u.u.u.u.s.u.s.u.h.h.h.z.b.z.b.z.z.z.z.z.z.z.b.b.b.m.b.b.z.z.z.b.b.b.b.m.b.m.m.b.b.z.b.b.z.z.h.h.h.h.h.u.u.u.u.u.w.w.w.7.7.5.<.:.<.<.:.*.*.#.X.X.{ ] ( ~ ~ ~ P P K F F F F Z Z Z Z Z Z m Z Z m m l l l g g g g g g ",
"v m Z F F Z F F K P E ~ ~ ~ ~ ~ ~ ( ] ] { X.#.#.:.*.*.:.<.<.<.5.5.5.5.7.7.7.w.u.s.s.h.h.z.z.z.b.b.b.b.b.b.m.b.m.m.m.b.m.m.m.m.b.b.z.z.h.z.h.h.h.z.s.s.s.s.u.u.u.u.u.u.u.u.w.w.w.w.7.7.5.5.5.<.5.<.5.7.7.7.7.7.7.7.7.7.u.s.u.w.w.7.w.w.u.s.w.7.7.7.5.5.5.5.5.5.5.7.w.s.u.w.u.u.w.w.w.w.w.7.w.u.u.w.w.u.s.s.s.h.h.h.z.h.z.h.z.h.b.b.b.b.m.m.m.b.m.m.m.m.m.m.m.B.B.B.B.m.m.b.m.m.B.B.B.B.S.S.S.B.B.m.B.B.m.b.b.b.b.b.b.z.z.h.s.s.h.h.s.u.w.w.7.7.7.7.7.5.<.:.:.*.#.#.{ { { ] ( ~ E E P E P P P P P K K K K K K F F m m v v m m m v ",
"0 y i i g g g g l v m Z Z Z F Z F F P P P E ~ ] ] ] { { X.#.X.#.#.#.*.*.:.:.:.<.5.7.7.w.w.u.u.u.s.s.h.s.s.h.h.h.h.h.h.h.h.h.h.s.u.u.u.u.w.w.w.w.w.7.7.5.5.5.5.5.5.5.5.5.5.<.:.:.:.*.*.*.*.#.X.X.X.X.*.*.*.*.#.#.*.#.#.:.<.<.:.*.*.*.:.:.:.:.#.*.#.#.X.X.X.X.X.X.*.*.:.<.:.:.:.:.:.:.:.:.:.:.<.:.:.<.<.5.5.7.7.7.7.w.w.w.u.u.w.u.s.s.h.h.z.h.h.h.z.h.h.h.z.z.z.b.z.z.z.h.h.h.z.z.b.z.b.b.m.b.b.z.z.z.z.h.h.h.s.h.s.s.u.w.7.w.7.7.7.5.<.<.<.:.*.*.*.#.X.X.{ { ] ( ~ E P K K F F m m m m m v v l v v l g l l l g i y y 0 y 0 0 y 0 ",
"< 4 7 0 0 0 0 y i i l v v v v v v m Z Z F K P E ~ ~ ~ ( ] ] { { X.{ X.X.#.#.*.:.:.<.5.5.7.w.7.u.u.u.u.u.u.u.s.u.s.u.u.s.s.s.u.w.w.w.7.7.7.7.5.5.7.5.<.:.<.:.:.<.:.:.:.:.:.*.*.#.#.#.X.{ { { ] ] ] ] { X.X.X.{ { { X.{ #.*.#.#.X.{ { #.#.#.X.{ { { ] ( ] ( ] ( ] { X.#.#.#.#.X.X.X.#.X.X.X.#.#.#.X.*.*.:.<.<.<.<.5.5.7.7.7.7.7.w.w.u.u.s.s.s.u.s.s.u.s.u.h.s.h.h.h.h.s.s.s.s.h.h.h.h.z.z.b.z.h.z.h.h.s.s.s.u.u.u.u.u.7.7.5.5.5.<.<.:.:.*.#.#.X.X.X.{ { ( ( ~ E E P F F Z m m v l g g l i i i i i y y y y y y y 7 4 4 < < < < 4 < ",
"0 i i g l l v l v m Z F F F F K K P P E E ~ ] ] { X.{ X.#.#.#.*.*.*.:.:.<.<.<.7.7.w.w.u.u.s.s.h.h.z.h.h.h.z.z.z.z.z.z.z.z.z.z.h.h.s.s.s.s.u.u.u.u.u.w.7.7.7.7.7.7.7.7.7.5.5.<.5.<.:.:.*.*.#.#.#.#.*.:.*.:.*.*.*.:.*.:.<.5.5.<.:.:.:.:.<.<.:.:.*.*.*.#.#.#.#.#.#.*.:.<.5.<.<.<.:.:.:.<.:.:.:.5.<.<.5.5.7.7.w.7.w.w.u.u.u.u.s.u.s.h.h.h.z.z.z.h.z.z.z.z.z.z.b.b.m.m.b.b.z.z.z.b.m.b.m.m.B.m.m.m.m.b.b.z.z.z.h.h.h.h.h.s.u.w.w.w.w.w.7.5.5.<.<.:.:.:.*.*.#.X.{ ] ] ( ~ E P K K F Z Z m Z m v v m v v v l v v l l i i y y y y y y 0 ",
"i i l v m m v m m F F K P E P P E E ~ ~ ( ( { { #.X.#.*.*.:.:.:.<.<.<.5.5.5.7.w.w.u.s.h.h.h.z.z.z.b.z.b.b.b.b.b.b.b.b.b.b.m.b.b.z.z.z.h.h.s.h.s.s.s.u.u.u.w.w.w.u.u.w.w.w.7.7.7.5.5.<.<.:.:.:.*.:.:.<.<.<.<.:.:.<.<.<.7.7.7.7.5.<.<.5.5.7.5.<.<.<.:.:.:.:.*.*.:.:.<.7.7.7.7.5.5.5.5.5.<.<.5.7.7.5.7.w.u.u.u.u.u.s.s.s.s.h.h.s.z.h.z.z.z.b.b.z.b.b.b.b.b.b.m.m.B.B.m.m.m.b.b.m.m.m.B.B.B.B.S.B.B.m.m.b.b.b.b.z.z.b.z.h.s.s.s.u.u.u.w.w.7.5.5.<.<.<.:.:.*.#.X.X.{ ] ( ( ~ E P K F F K F F Z Z m Z m m m m m m m v g g g g i i i g ",
"0 y y i g g l l l v m Z F F F K K K K P E ~ ( ] { { { X.X.#.#.#.*.*.*.:.<.<.5.7.7.w.w.u.s.s.s.h.h.h.h.z.h.z.z.z.b.z.b.z.z.z.z.h.s.s.s.s.s.u.u.u.w.u.w.7.7.7.7.7.7.7.7.7.5.5.5.<.:.:.*.#.#.#.#.#.#.*.*.*.*.*.#.#.*.*.:.<.<.<.<.:.:.:.:.<.:.:.*.*.*.#.*.X.X.X.X.X.#.:.:.<.5.<.:.:.:.:.*.*.:.:.<.<.:.<.5.7.w.7.7.7.w.u.u.u.u.u.u.s.h.h.h.h.z.z.h.h.z.z.z.z.b.b.m.m.b.b.b.z.z.z.b.m.m.m.B.B.B.m.m.m.b.b.z.z.h.h.z.h.h.h.s.u.u.w.w.w.7.7.5.5.<.:.*.:.*.*.#.#.{ ] ] ( ~ E P K K F Z Z m m m v v v l l l g l l g g g i y y y y 0 0 0 0 ",
"i g g v v m m m m Z F P E P P P ~ E E ~ ( ] { X.#.X.#.*.*.*.:.:.<.<.5.5.5.7.7.w.u.s.s.h.h.z.z.z.b.b.b.b.b.b.b.m.m.B.m.m.m.m.b.b.z.z.z.h.z.h.h.s.h.s.u.s.u.w.u.u.w.u.w.u.w.w.w.7.5.5.<.:.:.:.:.:.:.<.<.<.<.<.:.:.<.5.5.7.7.7.7.5.5.5.5.5.5.5.<.<.<.<.<.:.*.*.*.:.:.<.7.7.7.7.5.5.5.5.<.<.5.5.7.5.5.7.w.u.u.u.w.u.s.s.s.h.h.h.h.z.z.b.z.z.b.b.b.z.b.b.b.b.m.m.B.B.B.B.B.m.m.B.m.B.B.B.S.S.S.B.B.B.B.m.m.m.b.z.b.b.b.z.z.h.s.s.s.s.u.u.w.7.7.5.<.<.5.:.:.*.#.X.X.{ ] ( ~ E E P K K F F F F Z m Z m m m m m m v v v g g g i i i i i ",
"4 4 7 y i g i g i g v m Z Z Z F F F F K P E ~ ( ( ] ] { X.X.X.#.#.#.*.*.:.<.5.5.5.7.w.w.u.s.s.s.h.h.h.h.z.h.h.z.z.z.b.z.z.b.z.h.s.s.s.s.u.u.u.w.w.7.7.7.5.5.5.5.7.5.5.5.5.<.<.:.*.*.*.X.X.X.X.X.#.#.#.#.#.#.X.X.X.#.*.:.:.*.*.*.#.#.*.*.*.#.#.#.#.#.X.X.] ] { { X.#.*.:.<.:.#.*.*.#.#.#.#.*.:.*.*.:.<.5.5.5.5.5.7.w.w.u.u.u.w.u.s.s.s.h.h.h.s.h.h.h.h.z.b.z.b.b.b.m.b.z.z.z.b.m.m.m.m.m.B.m.m.m.m.b.z.z.h.h.h.s.h.s.s.u.w.w.7.7.7.5.5.<.:.*.*.#.#.#.X.{ ] ( ( E E K K F Z m v v v l l l g g i g g i i i i i y 0 7 7 7 7 4 4 4 4 ",
"y y i l v v m m v m Z K P P K P E E E ~ ( ] { { X.X.#.#.*.*.*.:.<.<.<.5.7.7.w.w.u.u.s.h.h.z.z.b.z.b.b.b.b.b.m.m.m.B.m.m.m.m.m.b.b.z.z.z.z.h.h.h.s.s.u.u.u.u.u.u.u.w.w.w.w.w.w.7.5.<.<.:.*.*.*.:.<.:.:.<.<.:.*.:.:.<.5.5.5.5.5.5.<.<.5.5.5.<.<.<.<.:.<.*.*.#.*.*.:.<.<.5.7.7.5.5.5.<.:.:.<.<.5.5.5.5.w.u.u.u.w.u.s.s.s.h.s.h.h.z.z.z.z.z.b.b.z.b.b.b.b.b.m.B.B.B.B.B.B.m.m.m.B.B.B.B.S.S.S.B.B.S.B.B.m.b.b.b.b.z.b.z.h.h.s.s.s.u.w.u.w.7.5.5.<.<.<.:.:.#.#.X.{ ] ( ~ E E P K F Z F Z Z Z m m m v v v v l l v v g i g i y 0 y 0 y ",
"7 0 y i l l l l l l m F F K F K P P K E E ~ ( ] ] { { X.X.#.#.*.*.:.<.<.5.5.7.w.w.u.u.s.s.h.h.z.z.z.z.z.z.b.b.b.m.m.m.b.b.m.b.b.z.h.h.h.h.s.s.u.u.u.u.w.w.7.w.w.w.w.w.7.7.7.5.<.<.:.*.*.#.#.#.*.*.*.*.*.*.*.#.#.*.:.<.<.:.<.<.:.:.:.:.:.:.*.*.*.:.*.*.#.X.X.X.#.#.*.:.<.5.5.:.:.:.:.*.*.:.:.<.:.<.<.5.7.w.7.7.w.w.u.u.s.s.s.s.h.h.z.h.z.z.z.h.z.z.z.b.b.m.m.m.m.B.m.m.b.b.m.m.B.B.B.B.S.B.B.B.B.B.m.b.z.z.h.z.z.z.h.h.s.u.u.w.w.w.7.7.5.<.:.:.:.:.*.#.X.{ ] ] ( E E P K K F m v m v m v l l l l l g g g g i i y y 0 y 0 7 7 7 7 ",
"= < 4 0 y i i y y g l v m m m m F F Z F K P ~ ~ ~ ( ( ] { X.{ X.#.#.#.*.:.<.<.5.5.7.w.u.u.u.s.s.h.s.h.s.h.h.h.z.z.z.z.z.z.z.z.h.h.s.s.s.u.u.u.w.w.w.7.7.5.5.7.7.5.5.5.5.5.<.<.:.*.#.#.X.{ { X.X.X.#.X.X.X.X.{ { { X.*.*.#.#.*.#.#.#.#.X.X.X.X.X.X.X.X.{ ( ] ] { { { #.*.*.*.#.X.#.#.X.{ X.#.*.#.*.*.<.<.5.5.<.5.7.w.w.u.u.w.u.u.s.s.s.s.h.h.s.h.h.h.h.z.b.b.b.b.b.b.b.z.z.b.b.b.m.m.m.B.m.b.m.m.m.b.z.h.h.h.s.h.h.s.s.u.w.w.7.7.5.<.<.:.*.*.#.#.X.X.X.] ( ( ~ P K F Z Z m v l g g g g g i y i i y y y 0 0 0 0 7 < 4 4 < = = < = ",
"4 4 7 0 i g i g i l v m F Z F F K K K P E E ~ ~ ( ( ] ] { X.X.#.#.*.:.:.<.<.5.5.7.w.u.u.s.s.h.h.h.z.z.z.z.z.z.b.b.b.b.b.z.b.b.z.h.h.s.s.s.s.u.u.w.u.w.w.7.7.w.7.7.7.5.5.5.<.<.<.:.*.#.#.X.X.X.#.*.#.#.#.#.#.X.X.#.#.*.*.*.*.:.*.*.*.*.*.#.#.#.#.#.#.#.{ { { { { X.#.*.*.:.:.*.*.*.#.#.#.#.*.:.*.*.:.<.5.7.7.5.7.7.w.u.u.s.s.u.s.h.h.s.h.z.h.h.h.h.z.z.z.b.b.b.b.m.b.b.b.b.b.m.m.m.B.B.B.m.m.m.m.m.m.z.z.h.h.z.h.h.h.s.u.u.w.w.7.5.5.5.<.:.:.*.*.#.#.X.{ ] ( ~ E P K F F Z m v l l l l l l g g i i i i y y 0 y 0 7 4 4 4 < < < < ",
"@ $ = 4 7 0 0 7 7 0 i g l v l v m m m Z F K K P P E E ~ ( ] ] { { X.#.#.*.*.:.<.<.5.7.w.w.u.u.s.s.s.s.s.h.s.s.h.h.h.h.h.h.h.h.s.s.u.u.u.u.w.w.7.5.5.5.5.<.<.5.<.<.<.<.:.:.:.*.#.X.X.{ { ( ] ] ] ] { ] ] ] ] ( ] ] ] { X.{ { X.{ { { { ] ] ] ( ] ] ] ( ( ~ ~ ~ ~ ( ] ] { X.{ { { { { ] ] { { X.{ { X.*.:.:.:.:.:.<.5.7.w.w.w.w.w.u.u.u.u.s.s.s.u.s.s.s.h.h.z.z.z.z.z.z.z.h.h.b.z.b.b.b.b.b.b.b.b.b.z.h.s.s.s.u.s.s.u.u.w.7.5.5.<.<.:.:.*.#.X.X.{ { { ] ( E P P F Z m v v l g y y 0 y y y 0 0 7 0 7 7 7 4 4 < < = $ $ $ @ o @ @ o ",
"< < 4 0 i i g i y g v m m Z Z F K F F K P E ~ E ~ ( ( ] { { X.#.#.*.*.:.<.<.5.7.7.w.u.u.s.s.h.h.h.z.h.z.z.z.z.z.b.b.b.b.b.b.b.z.h.h.h.h.h.s.s.u.u.w.w.w.7.7.7.7.7.7.5.5.5.5.<.:.*.*.#.#.{ { X.#.#.#.#.#.X.X.{ X.X.X.*.*.*.#.*.*.#.*.#.#.X.X.X.#.#.#.X.X.{ { { { { X.#.*.*.*.*.*.#.#.#.X.#.#.*.*.*.*.<.5.5.7.5.7.7.w.w.u.u.u.s.s.s.s.s.h.h.h.h.h.h.z.z.z.b.b.b.b.b.b.b.b.b.b.m.m.m.B.B.m.m.m.m.m.m.m.z.z.z.h.h.h.h.h.s.u.u.w.w.7.5.5.<.<.*.*.*.#.#.X.{ { ( ( ~ P K F F Z Z m l g g g g g g i i i i y y 0 0 0 7 4 < < < = = < = = ",
"7 7 0 i l l v l l v m F K K K P E P E ~ ~ ( ( ( ] ] { X.#.#.*.*.:.:.<.5.7.7.w.w.u.s.s.h.h.z.z.b.b.b.b.b.m.m.m.m.m.m.B.B.B.B.m.b.b.b.b.z.z.z.h.h.s.s.s.u.w.u.w.w.u.w.w.w.7.7.7.5.<.:.:.*.*.#.*.*.:.:.:.*.*.*.#.*.*.*.:.<.:.:.<.<.<.<.<.:.*.:.*.:.:.:.*.*.*.#.#.#.*.*.:.<.<.<.<.<.:.:.*.*.:.:.<.<.:.<.7.w.w.w.w.u.w.u.s.s.h.h.h.h.h.z.h.z.b.z.z.b.z.b.b.m.m.B.B.B.B.B.B.B.B.B.S.B.S.S.B.S.B.S.B.S.S.m.m.b.b.b.b.b.b.z.z.h.s.s.u.u.w.w.7.5.5.<.:.:.:.*.#.X.{ ] ] ~ E P P K F F m v v v v m v l v l g l g g i i i 0 0 7 7 4 4 4 4 4 ",
"< < 4 0 i i i i i g v m Z Z F F K K K P E E E ~ ~ ( ( ] { { X.#.#.*.*.:.<.5.5.7.w.w.u.s.s.h.h.h.z.z.z.z.b.z.b.m.b.b.m.m.b.m.b.b.z.z.z.h.h.h.h.u.u.w.u.w.w.7.w.7.w.7.7.7.5.5.<.:.:.*.*.#.X.{ X.X.#.#.#.X.X.X.X.X.X.#.#.#.#.*.*.*.*.*.*.X.X.X.#.#.#.#.X.X.X.{ { X.{ #.#.*.*.#.*.*.#.#.X.#.#.*.*.*.*.*.<.5.7.5.7.7.7.w.u.u.u.s.h.s.h.s.h.h.h.z.h.h.h.z.z.b.b.m.B.m.m.m.m.m.m.m.B.B.B.S.B.B.m.B.B.B.m.m.b.b.h.z.z.z.z.h.s.u.u.w.w.7.7.5.5.<.:.:.*.*.#.X.X.] ] ( E P K F F F m m l g g g l g l i i i y i y y 0 7 4 4 < < < = = < = = ",
"y y i l m m m m m Z K P P ~ E ~ ~ ~ ( ( ] { { { { X.#.#.*.:.<.<.<.5.5.w.w.u.u.s.s.z.z.z.b.b.m.m.B.B.B.B.B.B.B.B.B.S.S.S.B.S.S.B.B.m.m.m.m.m.b.z.z.h.h.h.s.u.s.s.s.u.s.u.u.u.w.7.5.5.5.<.:.:.:.<.<.5.5.<.:.<.:.<.<.<.5.5.<.5.5.7.7.7.7.<.<.<.5.5.5.5.<.<.<.<.:.:.<.5.5.5.5.5.7.5.5.5.<.<.5.5.7.5.5.7.w.u.s.s.s.u.s.h.h.z.z.z.b.z.b.b.b.b.b.b.b.b.m.m.m.B.B.S.S.S.S.S.S.B.S.S.G.G.G.G.G.G.G.S.G.G.S.S.B.B.m.m.m.m.m.b.b.z.h.h.h.s.u.u.w.w.7.7.7.5.<.:.:.*.#.X.] ( ~ ~ E E P K F Z Z m Z Z Z m m m v v v v l g i i y 0 0 0 y 0 y 0 ",
"$ $ = 4 0 0 y 0 0 i g l v m m Z Z Z F K K P P P P E ~ ( ( ] { { X.#.#.*.:.<.<.5.7.7.w.u.u.s.h.h.h.h.z.h.z.z.z.z.b.z.z.b.b.b.b.z.z.h.h.h.h.s.u.u.w.w.7.7.7.5.5.5.5.5.5.<.:.:.*.*.#.#.#.{ { ] { { X.X.X.{ ] ] ] { ] { X.X.X.X.X.X.#.X.X.{ ] ] { { X.{ { { ] ] ] ] ] { X.X.{ X.#.X.X.X.{ { X.X.#.X.X.#.*.<.<.5.5.5.<.5.w.w.u.u.u.s.u.u.s.s.h.h.h.h.h.h.z.z.z.b.m.m.m.b.b.b.b.m.m.m.B.m.m.m.m.m.m.m.m.m.z.z.h.z.h.h.h.s.s.u.w.7.7.5.<.<.:.:.:.:.#.X.X.{ ] ( ~ E P F Z m m m v l g i y y i y y y 0 0 7 0 0 7 4 4 = $ $ @ @ @ @ @ @ @ ",
"4 4 7 y g g g i g l m Z F K K K P P E E ~ ~ ~ ~ ~ ] { { X.X.#.*.*.:.<.5.5.7.7.w.w.u.s.h.h.z.z.z.b.b.b.m.m.m.B.m.m.m.B.B.B.B.m.m.m.b.b.b.b.z.h.h.s.s.u.u.u.w.w.w.w.w.w.7.7.7.5.<.:.:.:.*.#.X.#.#.*.*.:.#.#.#.#.#.#.#.*.*.*.*.:.:.:.:.:.*.#.#.*.*.*.*.*.#.*.#.#.X.#.*.:.*.*.:.:.:.*.*.#.#.*.:.:.*.:.:.5.7.w.w.w.w.7.w.u.s.h.h.h.h.h.h.z.z.z.z.b.z.z.z.b.m.m.B.B.B.B.B.B.B.B.B.S.S.S.S.B.B.B.B.S.B.B.B.m.m.b.b.b.b.b.z.h.s.s.u.u.w.7.7.7.7.5.<.:.:.*.#.X.{ { ] ~ P K K K F F m v l l l l v l l g g g g i i y 0 7 4 4 < = < < < = < ",
"7 7 7 y g g l l g v m F K K E P E E E ~ ( ( ( ( ( ] { { X.#.*.*.:.:.<.5.7.w.w.w.u.s.h.z.z.z.b.b.m.m.m.m.m.B.B.B.B.B.B.B.B.S.B.B.m.m.m.m.b.b.z.z.h.s.s.s.u.u.w.w.u.w.u.w.7.7.5.<.<.:.:.*.*.#.#.*.:.:.:.*.#.#.*.*.*.*.:.:.*.:.:.:.<.<.:.*.#.*.*.:.:.:.*.*.:.*.*.*.*.*.:.:.:.:.<.:.:.*.*.*.:.:.:.:.:.<.7.7.w.u.u.w.w.u.s.h.h.h.z.z.h.z.z.z.z.b.b.b.b.b.m.m.m.B.S.B.B.B.B.S.B.S.S.S.G.S.S.S.S.S.S.S.S.B.B.m.m.m.b.b.b.b.z.h.s.s.u.u.w.w.7.7.5.5.<.:.*.*.#.X.{ ] ~ E P K K K F Z m v l v v v v l g g g g l i i y 7 7 4 < 4 < 4 4 < 4 ",
"0 y y g v m m v m Z K K P ~ ~ ~ ( ( ( ] { { { { { { #.#.*.:.:.<.<.5.5.w.u.u.u.s.h.h.z.b.b.m.m.B.B.S.B.S.B.S.S.S.S.G.S.S.G.S.S.S.B.B.B.B.m.m.m.b.z.z.h.h.h.s.s.s.s.s.s.u.u.w.w.7.5.7.5.5.:.:.:.<.<.5.5.<.:.:.<.<.:.<.<.5.5.5.5.7.5.7.7.<.<.<.5.5.5.5.5.5.5.<.<.<.<.<.5.5.5.5.7.7.5.5.<.<.5.5.5.5.5.7.w.u.s.s.s.s.s.s.h.z.b.b.b.b.m.b.b.m.m.m.m.m.m.m.B.S.S.S.G.S.G.G.G.S.G.G.G.G.P.G.G.G.G.G.G.G.G.G.S.B.B.B.B.B.B.m.b.z.z.h.h.s.u.u.u.u.w.7.7.5.<.:.:.*.#.X.{ ( ~ E E E P K F Z m m Z Z Z m v v v v v v l i i 0 0 0 7 0 0 0 0 0 ",
"g g g v Z Z F Z Z K P ~ ( ( ] ] { { { X.#.#.X.X.#.#.*.:.:.<.5.5.7.w.w.u.s.s.h.h.z.b.m.B.B.B.S.S.S.G.G.G.G.G.G.P.G.G.P.P.P.P.G.G.G.G.G.S.S.S.B.B.b.b.b.z.z.z.h.h.h.h.h.s.s.s.u.u.w.w.w.7.5.5.5.5.7.w.7.7.5.5.7.7.7.7.w.w.7.w.w.u.u.u.u.w.7.7.w.u.u.w.w.7.7.w.7.w.7.w.u.w.w.w.u.w.w.7.7.7.w.w.w.w.7.u.s.h.z.h.z.h.h.z.b.b.b.m.m.m.m.m.B.B.B.B.B.B.B.S.S.G.G.G.G.P.P.G.G.P.G.P.P.P.P.P.P.P.P.P.P.P.P.G.G.G.G.S.S.S.S.B.B.m.b.b.z.h.h.s.s.s.s.u.w.7.7.5.<.:.*.*.X.{ ( ] ] ( ~ E P K Z F K K K K F Z Z Z F m v v l g g i y y g g i i ",
"7 7 0 i g l l l l v Z K K P E E ~ ~ ~ ( ] ] ( ] ] { { X.X.#.*.:.<.<.5.7.w.w.w.u.s.s.h.z.b.b.b.b.m.m.B.B.B.B.B.B.B.S.S.S.S.S.B.S.B.B.m.m.m.b.b.z.h.h.s.s.s.u.u.u.u.u.u.w.w.w.7.5.5.<.<.:.*.*.*.:.<.:.:.:.*.*.:.*.:.:.:.:.:.:.<.5.5.<.<.:.*.:.:.<.<.<.:.:.:.:.:.:.:.:.<.<.:.<.<.<.<.:.*.:.:.<.<.<.<.5.7.w.u.u.u.u.u.s.s.h.h.z.z.z.z.z.z.b.b.z.b.b.m.m.B.B.B.S.B.S.S.S.S.S.S.S.G.G.G.G.G.S.G.S.S.G.S.S.B.B.B.m.B.m.b.b.z.z.h.h.s.s.u.w.w.w.7.7.5.<.*.*.#.X.X.{ ( E E P P P F Z Z v v v v m m v l l l g l g i y 0 7 7 4 4 4 4 4 4 4 ",
"4 4 7 0 i i g g g l m Z F F K K P P E ~ ( ( ( ~ ( ] { X.X.#.#.*.:.:.<.5.7.7.w.u.u.s.h.h.z.z.b.b.b.m.m.m.m.B.B.B.B.B.B.B.S.B.B.B.B.m.m.b.b.z.z.z.h.s.s.s.u.u.u.w.w.u.w.7.7.7.5.5.<.:.:.*.*.#.*.*.*.*.:.*.#.#.*.*.#.*.*.*.*.*.:.:.:.:.:.*.#.*.:.:.:.:.*.#.*.*.*.#.*.*.:.:.*.:.<.:.:.*.#.*.*.:.:.:.:.<.7.7.7.u.w.w.w.u.s.s.h.h.h.h.h.h.z.z.z.z.z.b.b.b.m.m.B.B.S.S.B.B.S.B.B.S.S.S.S.S.S.S.B.S.S.S.S.B.B.m.m.m.m.m.b.b.z.h.s.s.u.w.w.w.w.7.5.<.:.:.*.#.X.X.] ] ~ E P K K F F m v l g l l l l g g g g g i i y 0 7 4 4 < = < < < < < ",
"4 < 4 0 i g g g i l m Z F F K K E E E ~ ( ( ~ ( ( ] { { X.X.#.*.*.:.<.5.7.w.w.w.s.s.s.h.z.z.z.b.m.b.m.m.B.B.B.B.S.B.S.S.S.B.B.B.B.m.m.b.b.b.z.h.h.s.s.u.u.w.w.w.w.w.w.7.7.7.5.<.<.:.:.*.*.#.*.*.*.:.*.*.#.*.*.#.#.*.*.*.#.*.:.:.:.:.:.*.#.*.*.:.:.:.*.*.*.#.#.*.*.*.*.*.*.:.:.:.*.*.#.*.:.:.*.:.:.<.5.w.w.w.w.u.u.u.s.s.h.h.h.h.h.z.z.z.z.b.z.z.b.b.m.B.B.B.B.S.B.S.B.S.B.S.S.S.G.S.S.S.S.S.S.S.S.B.B.B.m.b.b.b.b.z.z.h.h.s.u.u.w.w.7.7.5.<.:.:.*.#.X.X.{ ( ~ E K K K F Z m v l l g l l l l g g i i i y 0 0 4 4 4 < = = < < < < ",
"< 4 4 0 y i g i g l m Z Z F K K P P ~ ~ ( ( ~ ( ( ] { { { #.#.*.:.:.<.5.7.w.w.u.u.s.h.h.z.z.z.b.b.m.m.m.m.B.B.B.B.B.B.B.S.S.B.B.B.B.b.b.b.b.z.h.s.s.s.s.s.u.u.u.w.w.w.7.7.7.7.5.<.<.*.*.*.#.*.*.*.*.*.*.#.#.*.*.*.#.*.#.#.#.:.:.:.:.*.*.#.*.:.:.:.:.*.*.#.*.*.*.*.*.*.*.:.*.:.:.*.*.*.*.*.*.:.:.:.<.7.7.w.w.w.w.w.u.s.s.s.h.h.h.h.z.h.z.z.z.z.b.b.b.m.B.B.B.B.S.S.B.S.B.B.S.S.S.S.S.G.S.S.S.S.S.B.S.B.m.m.m.b.b.b.z.z.h.s.s.s.u.w.7.7.7.5.<.:.:.*.#.X.{ ] ] ~ E K K F Z Z m v l g g l g g g g g g g i y 0 7 4 4 4 < = < < < = < ",
"0 0 y i l v v v v Z F K P E E E ~ ( ] { X.{ { { { X.#.#.*.*.:.<.5.7.7.w.u.u.s.s.h.z.z.b.b.b.m.B.B.S.B.S.S.S.S.G.G.G.G.G.G.G.G.S.S.S.S.B.B.m.m.b.z.z.h.h.h.h.s.s.u.u.u.u.w.u.u.w.7.5.5.<.<.<.<.<.<.<.5.<.<.<.<.<.<.<.<.<.<.<.5.7.7.7.5.5.5.5.7.7.7.7.5.<.<.<.5.5.<.5.5.5.5.5.7.5.5.<.<.<.5.5.5.5.5.7.w.u.s.s.s.h.h.h.h.z.z.z.z.b.b.b.b.b.b.b.m.m.B.B.S.S.S.G.S.G.G.G.G.G.G.G.G.G.G.P.P.G.G.P.G.G.G.S.S.S.B.S.B.B.m.m.m.b.z.z.h.s.s.u.u.w.w.7.7.5.<.:.*.#.#.X.{ ( ~ E E P K F Z Z m v m m m m m m v v l g i i y y y 0 7 7 7 0 7 0 ",
"7 7 7 y i g l l g v Z F K K K P E ~ ( ] ] ] ( ] { { X.X.#.#.*.:.<.<.5.7.w.w.u.u.s.h.h.z.z.b.m.m.m.B.B.B.B.B.S.B.S.S.S.S.S.S.S.B.B.B.B.B.m.b.b.z.h.h.h.h.s.s.u.u.u.u.u.w.w.w.7.7.7.5.:.:.:.:.:.<.:.:.:.:.*.:.:.:.:.:.:.:.*.:.<.5.5.<.<.<.:.<.5.5.5.<.:.:.:.:.<.:.:.:.<.<.5.<.<.<.<.:.:.:.<.<.:.:.<.5.7.w.w.u.w.u.s.s.s.h.h.h.h.z.h.z.z.b.b.b.b.b.m.B.B.B.B.S.S.S.S.S.S.S.S.G.G.S.G.G.G.G.G.S.G.G.S.S.B.S.B.B.m.m.b.b.b.z.z.h.h.s.u.u.w.w.7.5.<.<.:.*.#.X.{ { ] ~ E P P F Z Z m v v l l l v v v l l g i y y y 0 0 0 7 < 4 4 4 4 7 ",
"4 4 4 0 y i g g g l m F F K K K P ~ ( ( ] ( ( ( ] { { X.X.#.#.:.<.<.5.5.7.w.w.u.s.s.h.z.z.b.b.b.m.B.m.B.B.B.B.S.S.S.S.S.S.S.S.B.B.B.B.m.m.b.z.z.h.h.s.s.s.u.u.u.w.w.w.w.7.w.7.7.5.<.:.:.:.*.:.:.*.:.:.*.*.:.*.:.*.*.*.*.#.*.<.<.<.<.:.:.:.:.<.5.<.<.:.*.*.:.:.:.:.:.:.:.<.<.<.:.:.:.:.:.:.<.:.:.:.5.7.w.w.u.w.u.s.u.s.h.s.h.h.h.z.z.z.z.z.z.z.b.B.B.m.B.B.S.B.S.S.S.S.S.S.S.S.G.S.G.G.G.S.G.S.S.S.S.B.B.B.m.m.m.b.b.z.z.h.h.s.u.u.w.w.w.5.5.<.:.*.#.X.X.{ ] ( ~ P P K F Z m v v l g l l g l l l l g i y y 7 7 7 0 7 < = < < < 4 ",
"7 7 7 0 y g l l l v Z F F K P P E ~ ( ] { ] ] ] { { { #.#.*.*.:.<.5.5.7.w.u.u.s.s.h.z.z.b.b.m.m.B.B.B.B.B.S.B.S.S.S.S.S.S.S.S.S.S.B.B.B.m.b.b.z.z.h.h.s.h.s.s.u.w.u.w.w.w.w.w.7.7.5.<.:.<.:.:.:.:.:.:.:.:.:.:.:.<.:.:.:.*.:.<.<.<.5.<.<.<.<.5.5.5.<.:.:.:.:.<.<.<.<.:.<.5.<.<.<.<.:.:.<.<.<.<.<.<.7.7.u.w.u.u.s.s.s.s.h.h.h.z.z.z.z.b.z.b.b.b.m.B.B.B.B.B.S.S.S.G.S.S.G.S.S.S.S.G.G.G.G.G.G.G.G.S.S.B.S.B.B.m.m.b.b.b.z.z.h.h.s.u.u.u.w.7.7.<.<.:.*.#.X.X.{ ] ~ E P K F Z Z m m l v v v v l v l l g i y i 0 0 0 y 7 < 4 4 4 4 4 ",
"4 < < 7 0 y g i i l m Z Z F F K K P ~ ( ( ( ~ ( ] ] ] { X.#.*.*.:.:.<.5.7.w.w.u.u.s.h.h.z.z.z.b.b.m.m.m.m.B.B.B.B.B.S.S.S.B.B.B.B.B.B.m.b.z.z.h.h.s.s.u.s.u.u.w.7.w.w.7.7.7.7.5.5.:.*.*.*.*.*.*.#.*.*.#.*.*.*.*.*.*.#.#.X.#.:.:.:.*.:.*.:.:.<.<.<.:.*.*.#.*.*.:.*.*.:.:.:.:.:.*.*.*.*.*.:.:.:.*.:.<.5.7.7.w.w.u.u.u.s.s.s.s.h.h.h.z.z.z.z.z.z.b.b.m.m.m.B.B.B.S.S.S.S.B.B.S.B.S.S.G.S.G.S.S.S.S.B.B.B.B.B.m.b.b.b.z.z.z.h.s.s.u.w.w.w.7.5.<.:.:.#.X.X.{ ] ( ( E K K F Z m m v l g g g g g g g g i i 0 0 0 7 4 4 7 4 = = = = = < ",
"7 7 7 0 y i l l g v Z F F K P P E ~ ( ( ] ] ] ( { { { #.#.#.*.:.<.5.5.7.w.w.u.u.s.h.h.z.b.b.m.m.m.m.B.B.B.B.S.S.S.S.S.S.G.S.S.S.S.B.B.B.m.m.b.b.z.h.s.h.s.s.s.u.w.w.w.w.w.w.w.7.7.5.<.:.:.:.:.:.:.:.:.:.:.*.:.:.:.:.:.*.#.:.:.<.<.<.<.<.<.<.5.5.5.<.:.:.:.:.<.<.<.<.<.<.5.5.<.<.:.:.:.:.<.<.:.<.<.5.w.w.u.u.u.u.s.s.s.h.h.h.h.z.z.z.z.z.z.z.b.m.m.B.B.B.S.B.S.S.S.S.S.S.S.S.G.S.S.G.G.G.G.G.G.S.S.S.S.B.B.B.m.m.b.b.z.z.h.h.s.s.u.u.w.w.7.5.<.<.:.*.#.X.X.{ ( ~ E P F F Z m v v v l v l v l v l l i i i y 0 7 0 0 7 4 < 4 4 4 7 ",
"4 4 4 0 y i g g g v Z Z F F K P P ~ ~ ] ] ( ( ( ] ] { X.#.#.*.:.<.<.5.5.7.w.w.u.s.s.h.z.z.b.b.b.m.m.m.B.B.B.B.S.S.S.S.S.S.S.S.B.B.S.B.m.b.b.z.z.h.h.s.s.s.s.u.w.w.w.w.w.7.w.7.7.5.<.:.:.:.*.:.*.*.*.*.*.*.*.:.:.:.:.*.*.#.*.:.:.:.<.<.<.<.<.<.5.<.<.:.:.:.:.:.:.:.<.<.<.<.<.<.:.:.:.:.:.<.:.:.:.<.<.7.w.w.u.u.u.s.s.s.h.h.h.h.z.z.z.z.z.z.z.b.b.B.B.B.B.B.S.B.S.S.S.S.S.S.S.S.S.S.G.G.G.G.G.S.G.S.B.B.B.B.B.m.b.b.z.z.z.h.h.s.s.u.u.u.7.7.5.<.<.*.#.#.X.{ ] ( ~ E K F Z Z v v l l l l v l l l g g i y y y 7 7 7 0 7 < = < < < < ",
"4 4 4 7 y i g g l v m Z K K K P E E ( ( ] ] ] ( ] { X.#.#.#.*.:.<.5.5.7.w.w.w.s.s.h.h.z.b.b.b.b.B.B.B.B.B.B.S.B.B.S.S.S.S.S.S.S.S.B.B.m.m.b.b.z.h.h.h.h.s.s.u.u.u.w.w.w.w.7.w.7.7.5.:.:.:.:.:.:.*.:.:.:.:.:.:.:.:.:.:.*.#.*.:.:.<.<.<.<.<.<.5.5.5.<.<.:.:.:.<.<.<.<.<.<.5.<.<.<.:.:.:.:.<.<.:.:.<.5.7.w.w.w.u.u.s.s.s.h.h.h.z.z.z.z.z.z.z.b.z.b.B.B.B.B.B.S.S.S.G.S.S.S.S.S.S.S.S.G.G.G.G.G.G.G.S.S.B.S.B.m.m.b.b.b.b.z.z.h.s.s.u.u.w.w.7.7.<.<.:.*.#.X.{ ] ( ~ E P K Z Z m v v l l l v v v l g g i y y i 0 7 0 0 7 4 < < < < 4 ",
"4 4 4 0 y i g l l v m F F K P P P ~ ~ ] ] ] ( ( ] ] { X.#.#.*.:.<.<.5.5.w.w.w.u.s.h.h.z.z.b.b.b.m.m.m.B.B.B.S.B.S.S.S.S.S.S.B.S.S.B.B.m.m.b.b.z.z.h.s.s.s.s.u.w.w.w.w.w.w.w.7.7.5.5.:.:.:.*.:.:.*.*.*.:.:.:.:.:.<.:.:.*.#.#.:.:.:.<.<.<.5.5.5.5.<.5.<.:.:.:.<.<.<.<.<.5.<.<.<.<.*.*.*.:.<.<.<.:.:.<.7.w.w.u.u.u.s.s.s.h.h.z.z.z.z.z.z.z.z.b.b.b.B.B.B.B.B.B.S.S.S.S.S.S.S.S.S.S.S.G.G.G.G.G.G.S.S.S.B.B.B.B.m.b.b.z.z.z.h.h.s.s.u.u.w.w.7.5.<.<.*.*.#.X.{ { ( ~ E K K Z m m v v v l l v v l l g g y y y y 0 7 0 7 7 4 = = < < < ",
"< < 4 7 0 y i g g v m Z F K K K P P ~ ( ] ( ( ( ( ] { X.X.#.*.:.<.<.5.5.7.w.w.u.u.h.h.z.z.b.b.b.m.m.m.m.B.B.B.B.B.B.B.S.S.S.S.S.S.B.m.b.b.b.z.z.h.h.s.s.s.u.u.w.w.w.w.7.7.7.7.5.5.5.:.:.*.*.*.*.*.*.*.*.*.*.*.:.:.:.*.#.#.X.*.*.*.:.<.:.<.<.<.:.<.<.:.:.*.:.:.:.:.<.<.<.:.<.<.:.*.*.*.:.<.:.:.*.:.<.5.7.w.w.w.u.u.u.s.s.h.h.h.h.z.z.z.h.z.z.z.b.m.B.B.m.B.B.B.S.S.S.S.B.B.S.S.S.S.S.S.G.G.G.G.S.S.B.B.B.m.B.b.b.z.z.z.h.h.s.s.u.u.w.w.w.5.5.<.:.*.#.X.X.{ ] ~ E P K F m v v l l l l l v v l g i i y y 0 y 7 4 7 7 4 < = = = = < ",
"@ @ $ = < 4 7 0 y y i l v m m Z Z F K P E E P E E ~ ~ ( ] { X.X.#.*.:.:.<.<.5.5.7.w.u.s.s.h.z.z.z.z.z.z.b.b.m.b.m.b.m.m.m.m.B.m.m.b.b.z.z.z.h.s.u.w.w.w.w.7.5.5.<.5.<.<.<.:.<.:.:.*.#.X.X.{ X.{ { X.{ X.X.{ { X.X.X.X.{ ( ] { { { X.#.#.#.#.*.#.#.X.X.X.X.X.X.#.X.#.#.#.#.#.#.X.X.{ { X.#.#.X.X.X.#.*.<.<.5.5.5.5.7.w.u.u.u.s.s.s.s.s.s.s.s.h.z.b.m.b.b.m.m.m.m.m.m.m.m.m.m.m.m.B.B.B.S.S.B.S.B.m.m.m.b.b.b.z.h.s.s.s.s.u.w.w.7.7.7.5.<.:.:.*.#.X.{ ] ( ~ E K F F m v l i i y y y y y i i y 0 7 4 < < < < < $ = = $ @ o   o o o ",
"0 7 0 y g l v m m F F P E ~ ~ E ( ( ] { X.X.{ { { X.#.*.:.<.<.5.7.7.7.w.u.u.s.s.h.z.b.m.m.m.B.B.B.B.S.S.B.S.S.S.S.S.G.G.G.S.G.G.G.S.S.B.B.m.m.b.b.z.z.z.z.h.s.s.u.u.u.u.u.u.w.w.w.7.7.5.5.<.<.<.5.<.<.<.5.5.5.5.7.5.5.<.:.:.<.<.5.7.w.w.w.w.w.w.w.7.w.7.7.7.7.7.7.w.w.7.7.7.7.5.5.<.<.7.w.7.5.<.5.7.w.u.s.s.s.h.h.h.h.z.b.b.b.b.b.b.b.b.b.m.m.B.B.S.B.S.S.S.S.G.G.G.G.G.G.G.G.G.P.G.G.P.P.P.G.G.G.S.S.S.S.B.B.m.m.b.b.b.z.z.z.h.s.s.s.s.w.7.7.7.<.<.:.*.#.X.] ( ( ~ P K F Z m Z Z m Z F F Z m v l l g l l i y i i i 0 4 4 7 0 7 ",
"4 4 7 y y i g l m v Z F P E P E E ~ ~ ] { { ] ] ] { X.#.#.*.:.<.<.7.7.7.w.w.u.u.s.h.z.z.b.b.m.m.m.B.B.B.B.S.S.B.S.S.S.S.S.S.S.S.S.S.B.B.m.m.b.z.z.h.h.h.h.s.u.u.w.u.w.w.w.w.7.7.7.7.5.<.:.:.:.:.:.:.:.:.:.:.:.<.5.<.<.:.#.*.*.:.<.5.5.7.7.7.7.7.5.5.5.<.<.5.<.5.5.5.7.7.5.5.5.<.:.:.:.<.5.<.<.:.<.<.7.w.w.u.u.u.s.s.s.h.z.z.z.b.z.z.z.z.z.b.b.m.S.B.B.B.B.S.S.S.S.G.S.S.G.S.S.S.G.G.G.G.G.P.G.G.S.S.S.B.B.B.m.b.b.z.z.z.z.h.s.s.s.u.u.w.7.7.5.<.<.*.*.#.X.{ ( ~ E P K Z m m v v v m m m Z m l g g i i i i i 0 0 0 0 7 < < < 4 4 ",
"0 0 0 y g l l v Z Z Z K E E ~ ~ ~ ( ( { X.{ { { { X.#.*.*.:.<.<.5.7.w.w.w.u.u.s.h.h.z.b.b.m.B.B.B.B.B.S.B.S.S.S.S.S.S.S.G.S.G.G.G.S.S.S.B.m.m.b.z.z.h.h.h.h.s.u.u.u.u.u.u.w.w.w.w.7.5.5.<.:.:.<.<.<.:.<.5.<.<.5.5.5.5.<.*.:.:.<.<.5.7.w.7.w.w.w.7.7.7.7.7.5.7.7.7.w.w.7.5.7.7.5.<.:.:.5.7.7.5.<.<.7.w.u.u.s.s.s.s.s.h.z.z.b.b.b.b.b.b.b.b.b.m.m.B.B.S.S.S.S.S.S.G.S.S.G.G.G.G.G.G.G.G.P.G.P.G.G.S.S.S.S.S.B.m.m.b.b.b.z.z.h.h.h.s.s.u.w.w.w.7.5.<.:.*.*.#.{ ] ( ~ E P K Z m m Z Z m m F F Z v v g g l g l i i y i y 0 7 < 4 4 7 ",
"4 < 7 0 y i i l v v m Z K K P P P E ~ ( ] ] ( ( ] ] { X.#.#.*.:.<.<.5.5.7.w.w.u.u.s.h.z.z.b.b.b.b.m.B.m.m.B.B.m.B.B.B.S.S.S.S.S.S.B.B.m.b.b.b.z.h.h.s.h.s.u.u.w.w.w.7.w.7.7.7.5.5.5.<.:.*.*.*.*.*.:.*.*.:.:.*.:.<.<.:.*.#.#.#.*.:.:.5.5.5.5.5.<.<.<.5.<.<.:.:.<.<.<.5.<.<.<.5.<.:.*.*.<.5.<.:.:.:.<.5.7.w.w.u.u.u.s.s.h.h.z.z.z.z.z.z.z.b.z.b.b.B.B.B.B.B.B.S.S.S.S.B.S.S.S.S.S.S.S.S.G.G.G.S.S.S.B.S.B.B.m.b.b.z.z.z.h.h.s.s.u.u.u.u.7.7.5.<.<.:.*.#.X.{ ] ~ E E K F Z m v v l v l v m m v g i i y y y y y 7 7 0 7 4 < = < < < ",
"= < < 7 0 y i g g l l Z F K K K P E E ~ ] ( ~ ~ ( ( ] X.X.#.#.*.:.<.<.5.5.7.7.w.u.s.s.h.z.z.z.z.b.b.b.m.m.m.m.m.m.B.B.B.B.B.B.S.B.m.m.b.b.z.z.h.s.s.u.u.u.u.w.w.7.7.7.7.5.5.5.5.<.<.:.*.*.#.*.#.*.#.#.#.*.*.*.*.:.*.*.#.X.X.#.#.#.*.:.<.<.<.<.<.:.:.:.*.*.*.:.:.:.<.<.<.:.:.:.*.#.#.#.*.<.:.*.*.*.:.5.7.7.w.w.u.w.u.u.s.h.h.h.h.h.h.h.h.h.z.z.z.m.m.m.m.m.B.B.B.B.S.B.B.B.B.B.B.B.S.S.S.G.G.S.S.B.B.m.m.m.m.b.z.h.h.h.h.s.s.u.u.w.w.w.7.5.<.<.:.*.X.#.{ ] ( ~ E K K Z m l l g l l g l v v l g y 0 y 0 y 0 7 4 4 7 4 < $ $ = = = ",
"$ = = < 7 7 0 i i g l v Z Z Z F F K K E ~ E E P E ~ ( ] { { X.#.*.*.:.:.<.5.5.7.w.w.u.s.s.h.h.z.h.z.z.z.z.b.b.b.m.b.m.m.m.m.B.m.B.m.b.z.z.h.h.s.u.u.w.w.w.w.7.7.5.5.5.5.<.<.<.<.:.:.*.#.X.X.X.#.X.X.X.X.#.#.X.#.#.#.X.X.{ { { #.X.#.#.*.*.*.*.*.*.*.*.#.#.#.#.#.#.*.*.*.#.*.*.#.X.X.X.#.*.#.#.X.#.*.:.<.5.7.w.7.7.w.w.u.s.s.s.h.h.s.s.s.h.h.h.z.m.b.b.b.b.m.m.m.B.m.m.m.B.m.m.B.B.B.B.B.S.S.S.B.B.m.m.b.b.z.z.h.h.s.s.s.s.u.w.w.w.7.7.5.<.:.*.#.X.X.{ ] ( E P P F Z m v g g i g g i i g l i y 0 0 0 7 7 7 4 < < < = $ @ @ @ $ $ ",
"< < < 7 0 y i i g l v m Z F F K K P E ~ ( ( ~ ~ ~ ( ] { X.#.#.*.*.:.<.<.5.5.7.w.u.u.s.h.h.z.z.z.z.z.b.b.b.b.m.m.m.m.B.m.B.B.B.B.B.m.b.b.z.z.h.h.s.u.u.u.u.u.w.7.7.5.7.7.5.5.5.<.<.:.*.*.#.*.#.#.*.#.#.#.*.#.#.*.*.*.*.X.X.X.#.#.*.*.:.:.:.:.<.<.*.:.*.*.*.#.*.:.:.:.:.:.:.:.*.*.*.#.#.*.:.:.*.*.*.:.<.5.7.7.w.w.u.u.u.s.s.s.h.h.h.h.h.h.h.h.h.z.b.m.b.b.m.B.m.B.B.B.B.B.B.B.m.B.B.B.S.S.S.S.B.B.B.B.m.m.b.b.z.z.h.h.h.s.s.u.u.u.w.7.7.5.<.<.:.*.*.X.X.{ ] ~ ~ P K K Z m v l l g g g l l l l g y y 0 0 0 0 7 4 4 7 4 < = $ = = = ",
"4 4 4 7 y i g l l v m Z K K K P P E ~ ( ] ] ( ( ( ] { X.X.#.*.*.:.<.<.5.7.7.w.u.u.s.s.h.z.z.z.z.b.b.b.m.b.m.m.m.m.B.B.S.B.B.B.B.B.m.m.b.b.z.z.h.h.s.u.s.u.u.w.w.w.w.7.7.7.7.7.5.5.<.<.:.*.*.*.*.*.*.*.:.*.*.*.:.:.:.*.*.#.#.*.*.:.:.<.<.<.<.5.<.<.<.:.:.:.:.:.<.:.<.<.<.<.<.<.:.*.*.*.:.<.<.:.:.:.<.7.w.w.u.w.u.u.s.s.s.h.h.h.h.h.h.h.z.z.z.z.b.m.m.m.m.m.B.B.B.S.B.B.S.B.S.S.B.S.S.S.S.S.S.S.B.B.B.m.m.b.b.b.z.z.h.h.h.h.s.u.u.u.w.w.7.5.5.<.:.*.#.X.X.] ] ~ E E K F Z m v v l l v l v v l l g i i y y y 0 7 7 0 7 4 = = < 4 4 ",
"< < < 4 7 y i i i l v Z Z F Z F K P E ~ ~ ~ E ~ ( ( ] { { X.#.#.:.:.:.<.5.5.7.7.w.u.s.s.s.h.z.z.z.z.z.z.z.b.b.b.m.m.m.m.B.B.B.m.m.m.b.b.h.h.h.s.s.u.u.u.u.w.w.7.5.5.7.5.5.5.5.<.<.<.*.*.#.*.#.*.#.#.#.#.#.*.*.*.*.*.#.#.X.X.*.*.*.*.:.:.:.:.:.<.:.:.*.#.#.*.*.*.*.*.*.:.:.:.*.*.#.*.#.*.*.:.*.*.*.:.<.5.7.7.w.w.w.u.u.u.s.s.h.h.h.h.h.s.h.h.z.z.b.b.b.b.m.m.B.B.B.B.B.B.m.m.m.B.B.B.B.S.B.B.S.B.m.m.m.m.b.z.z.z.h.h.h.s.s.u.u.w.w.w.7.5.<.<.:.*.#.X.X.] ] ~ ~ E K F F m v l l l g g g l l g l i i y 0 0 0 7 4 4 7 4 < = = = < = ",
"= = = 4 7 0 y y y i l v m m Z Z F K P E ~ E E E E ~ ( ] { { X.X.#.*.:.:.<.<.5.7.7.w.u.s.s.h.h.h.h.z.h.z.z.b.b.b.b.b.m.m.m.m.b.b.b.b.z.z.h.s.s.s.u.w.w.w.w.7.7.5.5.<.5.<.<.<.<.:.:.*.#.#.#.X.#.X.X.X.X.#.X.X.X.#.#.X.#.{ { X.#.#.#.#.#.*.#.#.*.*.*.*.#.X.X.#.#.#.#.#.#.*.*.*.*.#.#.X.X.#.*.#.#.#.#.:.<.5.5.5.7.7.w.w.w.u.u.s.u.s.s.s.s.s.s.s.s.z.z.b.z.z.b.b.b.m.m.m.m.m.m.m.b.m.m.m.B.B.B.B.B.m.m.b.z.b.b.z.h.h.h.s.s.u.u.w.w.w.5.5.5.<.:.:.*.#.X.] ] ( ( ~ P P F Z m v l g g i i i i i i g y y y 0 7 7 4 4 < < < < = $ $ $ = = ",
"i y i i g v m m m F K P ~ ~ E ~ ( ] { { X.X.{ { X.X.#.*.*.:.:.<.5.5.7.7.w.u.s.s.h.h.z.z.b.b.b.m.m.B.m.m.m.B.B.B.B.S.S.G.S.S.B.S.B.B.m.m.m.b.b.z.z.h.h.h.h.h.s.s.u.u.u.u.w.u.u.w.w.7.5.<.5.<.5.<.5.5.5.<.5.5.5.5.5.5.5.<.<.<.5.7.7.w.7.7.w.w.w.w.w.w.7.5.7.7.7.7.7.7.7.7.w.7.7.5.5.5.5.7.7.7.5.5.7.7.u.u.s.s.s.h.h.z.h.z.z.z.z.b.b.b.b.b.b.b.b.m.B.B.B.B.S.S.S.S.S.S.S.G.S.S.S.S.G.G.G.G.G.G.G.G.S.S.B.B.B.m.m.m.m.m.b.b.z.z.h.h.s.s.u.u.w.7.7.<.<.:.*.*.#.X.{ ] ( ~ E P K F F F Z Z Z Z Z Z Z Z m v l l g g i g g i 0 0 y 0 y y ",
"0 7 0 y i g l g l v Z F F K P P P ~ ( ] ] ( ( ( ] ] { X.X.#.#.*.:.:.<.5.5.7.w.w.u.u.s.h.h.h.z.z.b.b.b.b.b.m.b.m.m.B.B.B.B.B.m.B.m.m.b.z.z.z.h.h.h.s.u.u.s.u.w.w.7.7.w.7.7.7.7.7.5.<.:.:.*.:.:.:.*.:.:.:.*.:.:.:.:.*.:.*.#.*.<.<.<.<.<.<.<.<.5.5.5.<.:.:.:.:.<.<.<.<.:.<.<.<.<.<.:.:.:.:.<.<.:.<.<.5.7.w.w.w.w.u.s.s.s.s.s.h.h.h.h.h.h.h.h.z.z.z.m.m.m.m.m.B.B.B.B.B.S.B.B.B.B.B.B.S.S.S.B.B.S.B.B.m.m.m.b.b.b.z.z.z.h.h.s.s.u.u.w.w.w.7.5.<.<.:.*.#.#.{ { ] ( E P P K F Z m m v v l l v l v v l l g i i i y 0 0 0 0 4 4 4 4 4 7 ",
"y 0 0 i i g v v v m Z K K P P P E ~ ( ] ] ] ] ] { { { X.#.#.*.:.<.<.<.5.7.w.w.u.u.s.s.h.h.z.z.z.z.b.b.b.m.m.m.b.B.B.B.B.S.B.m.m.m.m.b.b.b.z.h.h.s.s.s.u.s.u.u.u.w.w.w.w.7.7.w.7.5.<.:.:.:.:.:.:.:.:.:.:.:.:.:.:.<.:.:.:.*.:.<.5.5.5.<.<.5.<.7.5.5.5.<.<.:.<.<.5.<.<.<.5.5.5.5.<.<.<.<.<.<.<.<.<.<.5.w.w.u.u.u.u.s.s.s.h.h.h.h.h.z.z.z.z.z.z.z.z.m.m.m.m.m.B.S.B.S.B.B.B.B.B.S.B.B.S.S.S.S.S.S.B.B.B.m.m.b.b.b.b.z.b.z.h.h.s.s.u.u.w.w.7.7.5.<.:.*.#.#.X.{ ] ] ~ ~ P P K F Z m m v v v v v v v v v l g i i i y y i 0 7 7 7 7 7 0 ",
"4 7 4 0 y i l g g l m Z F F F K P P ~ ~ ( ~ ~ ~ ( ( ] ] { #.X.#.*.*.:.<.5.5.7.w.w.u.u.s.s.h.h.h.z.z.z.z.z.z.b.b.b.b.m.m.B.m.b.b.b.z.z.z.h.h.s.s.u.u.w.u.u.w.7.7.7.7.7.5.5.5.5.<.<.:.*.#.*.*.#.*.#.*.#.*.#.*.*.*.*.*.*.#.#.#.:.:.:.:.*.*.*.:.:.<.<.:.*.*.#.*.*.*.*.*.*.:.<.:.:.:.*.*.*.*.:.:.*.:.:.<.5.7.w.7.w.w.u.u.u.s.u.s.s.s.h.h.h.h.h.h.h.h.b.b.b.b.b.b.m.m.B.m.m.m.m.m.m.m.B.B.B.B.m.B.B.m.m.m.b.z.z.z.z.h.h.h.h.s.s.u.w.w.7.7.7.5.<.:.*.*.#.X.X.{ ] ( ~ E K K F Z Z v v l g g l l g g l g l i y y 0 0 7 7 0 4 < < 4 4 < 4 ",
"0 7 0 y i g l l l m Z F F K K P E ~ ~ ] ] ] ( ( ] ] { { X.X.#.*.*.:.<.<.5.7.7.w.u.u.s.s.s.h.h.z.z.z.z.z.b.b.b.b.m.m.m.m.m.m.b.m.b.b.b.z.z.h.h.s.s.u.u.u.u.w.w.w.7.7.w.7.7.7.5.5.5.<.:.*.:.*.:.*.*.:.:.*.*.:.:.*.*.:.:.*.*.:.:.<.<.<.<.:.:.<.<.5.<.<.:.:.:.:.:.:.:.:.:.<.<.<.<.:.:.:.:.:.:.:.:.:.:.5.7.w.w.u.w.u.u.u.s.s.s.h.h.h.h.h.h.z.z.h.z.z.b.b.b.b.m.m.m.B.B.B.B.m.m.m.B.B.B.S.B.B.B.B.B.B.B.m.b.b.b.b.z.z.z.z.h.h.s.s.u.u.w.w.7.7.5.<.:.:.*.#.X.X.{ ] ( ~ P K K F Z Z m v v l l v v v v v v l g i i y y 0 y 7 4 4 7 7 7 7 ",
"0 7 0 y g l l l l v Z F F K P P P E ~ ( ( ( ( ( ] ] { X.X.X.#.*.*.:.:.<.5.5.7.w.w.u.u.s.h.h.h.h.z.z.z.z.z.z.b.b.b.b.m.m.m.m.b.b.b.z.z.z.z.h.s.s.s.u.w.u.u.w.w.w.7.7.7.7.5.5.5.5.<.:.*.*.*.*.*.*.*.*.:.*.*.*.*.:.*.*.*.*.*.*.<.<.<.<.<.:.:.:.<.5.<.<.:.*.:.:.:.:.:.:.:.:.<.<.<.<.:.:.:.:.:.:.:.:.:.<.7.w.w.w.w.u.u.u.s.s.s.s.h.h.h.h.h.h.h.z.h.z.z.z.b.b.b.m.m.m.B.m.m.m.m.m.m.B.B.B.B.B.B.m.B.B.m.m.b.b.z.z.z.z.z.h.h.s.s.u.u.w.w.7.7.5.5.<.:.*.#.#.X.{ { ] ( ~ P P K F Z Z m m v l v v l v l v l g g g i y 0 0 0 0 4 4 7 7 7 7 ",
"7 7 7 y i g l l g v m Z F K K P P E ~ ( ( ( ~ ~ ( ( ] ] { X.X.#.*.*.:.<.<.5.7.7.w.w.u.s.s.s.h.h.h.h.h.h.z.z.z.z.b.b.b.m.b.b.z.b.z.z.z.h.h.h.s.u.u.w.w.w.w.7.w.7.7.7.7.7.5.5.<.<.<.:.*.*.#.#.*.*.*.*.*.*.#.#.*.*.*.*.*.*.#.*.:.<.:.:.:.*.*.*.:.:.<.:.*.*.*.*.*.:.*.*.*.:.:.:.:.:.:.*.*.*.*.:.*.:.:.<.5.7.w.w.w.w.w.u.u.s.s.s.s.s.s.h.h.s.h.h.h.z.z.z.z.z.b.b.m.m.m.m.m.m.m.m.m.m.m.B.B.m.m.m.m.m.m.m.b.z.z.h.z.h.h.h.s.s.u.u.u.7.7.5.5.5.<.:.*.*.#.X.X.{ ] ( ~ P P K F F Z Z v v l l l l l l l l l g i i y y 0 0 0 7 4 4 4 4 4 4 ",
"7 0 7 y g g l g l v Z F F K K P E E E ~ ( ( ~ ( ( ( ] ] { X.X.#.#.*.:.<.<.5.5.7.7.u.u.s.s.s.h.h.h.z.z.h.z.z.z.z.z.b.b.b.b.b.z.z.z.h.h.h.h.s.s.u.u.w.w.w.7.w.7.7.w.7.7.5.5.5.<.<.<.:.*.*.#.#.*.*.*.*.:.*.#.#.*.*.*.*.*.*.*.*.:.:.<.:.:.:.*.:.:.:.:.:.*.*.:.*.*.*.*.:.:.:.:.:.:.:.:.:.*.*.*.:.:.:.:.<.5.7.w.w.w.w.w.u.s.u.s.h.h.s.s.s.h.h.h.h.h.h.z.z.z.z.b.b.b.m.m.b.b.b.b.b.b.m.m.m.m.m.b.b.m.b.b.b.z.z.z.z.h.h.h.h.s.s.u.u.w.7.7.5.5.<.<.:.:.*.#.X.X.{ ] ] ~ P P K K F Z m m v l l v l v l l l l g g i i 0 0 0 0 7 4 4 4 7 4 7 ",
"< = < 4 7 y y y y i g v v m Z Z Z F K P P P K K P E E ~ ~ ( ] ] { { X.#.*.*.:.:.<.5.5.7.w.w.w.u.u.u.u.u.u.s.s.s.s.s.s.h.h.h.s.s.s.s.s.u.u.u.w.7.5.5.5.5.<.<.<.:.<.<.<.:.*.*.*.#.#.X.X.{ ] ] { { { X.X.{ { { { { { { X.{ X.{ X.#.X.#.X.{ ] { X.X.#.X.X.{ X.{ { { { { X.{ X.X.X.#.X.{ { { X.X.X.X.X.*.:.<.<.<.5.<.5.5.7.w.w.w.u.u.u.u.u.u.u.u.u.u.s.s.s.s.h.h.z.z.h.z.z.h.h.h.z.z.z.b.z.z.z.z.z.z.z.h.s.s.u.u.s.s.u.u.u.7.7.5.5.5.<.:.:.*.*.#.X.{ { ] ( ~ E P K F Z m m v v g g i y y i i i i y y 0 y 0 0 7 4 < = = = $ $ $ = = $ ",
"0 y y g l m v v v m F K P P E E ~ ~ ~ ( ] ] ( ] ( ] { { X.X.#.*.*.:.:.<.5.5.5.7.w.u.u.s.h.h.h.h.z.z.z.z.z.z.z.b.b.b.b.b.b.b.b.b.z.z.h.z.z.h.h.s.s.u.u.w.w.w.w.w.w.w.7.7.5.5.5.<.<.:.:.:.*.*.*.:.:.<.<.:.:.*.:.:.:.:.:.<.:.<.<.<.5.5.<.<.:.:.<.5.5.<.<.<.<.<.:.:.:.:.<.<.<.5.5.5.<.<.:.:.<.<.<.<.<.5.7.w.u.u.u.u.u.u.s.h.h.h.h.h.h.h.h.z.z.h.z.z.h.z.b.b.b.m.m.m.b.b.b.b.m.m.m.m.B.B.m.m.b.m.m.m.m.b.z.z.z.z.z.h.z.h.h.s.u.u.w.w.7.7.7.5.5.<.<.:.*.#.#.X.{ { ( ~ E P P P K F Z m m m Z m m m v v v v v l l i y y y 0 7 0 0 0 0 0 ",
"4 < 4 7 y i i i i g l m m F F F F F K P P E P P E E ~ ~ ( ] { { X.X.X.#.*.:.:.<.<.5.7.w.w.w.u.u.u.s.u.u.u.s.s.s.s.s.h.h.h.h.s.s.s.s.u.u.u.u.u.7.7.5.5.5.5.<.<.<.<.<.<.<.:.:.*.*.#.#.#.X.{ { { X.#.X.X.X.{ X.{ X.{ X.#.X.#.X.#.*.*.#.#.X.{ X.X.#.#.#.X.X.X.#.X.X.X.#.#.#.X.#.#.#.#.X.X.X.#.#.#.#.#.*.:.<.5.5.5.5.5.5.w.w.u.u.u.u.u.u.u.u.s.s.s.u.u.s.s.h.h.z.z.z.z.h.z.h.h.z.z.b.b.z.z.z.z.z.b.b.z.z.h.s.s.u.s.s.s.u.w.w.7.5.5.5.<.:.:.*.*.#.#.X.{ { ] ( ~ E P F Z Z Z Z m v l g i i g l g g i y i i i i 0 7 4 < < < = < < < < < ",
"g g l m Z Z F Z F F P E ~ ~ ( ( ( ] ] { X.{ { { { X.X.#.#.*.:.<.:.<.5.7.7.w.w.w.u.s.s.h.h.z.z.z.z.b.b.b.b.b.b.b.b.m.m.m.B.m.m.b.b.z.b.z.z.b.h.h.h.s.s.u.u.u.w.u.u.u.u.u.w.w.w.7.5.5.5.<.<.<.<.5.5.5.7.<.<.<.5.5.5.5.5.7.5.7.7.w.w.w.7.5.5.5.7.w.7.7.7.7.7.7.5.5.5.7.7.7.7.w.w.7.7.5.5.5.5.7.7.7.5.w.w.s.s.h.s.s.s.h.h.z.z.z.b.z.z.b.z.z.z.b.b.b.b.b.b.m.m.B.B.B.m.m.m.B.B.B.m.B.B.S.m.B.B.B.B.B.m.m.m.m.b.z.b.z.b.b.z.h.h.s.s.u.u.w.w.w.7.7.5.<.<.:.*.*.#.X.{ ] ~ ~ ~ ~ E P K K F F K K F F Z Z Z F Z Z m v l g l i i i g i i g ",
"7 4 7 y g g g g i l m Z Z F K K K P P P E E E E E E ( ( ] ] { { X.X.#.*.:.:.:.<.5.7.7.w.w.u.u.u.u.s.u.s.s.s.s.s.s.s.h.h.z.h.s.s.s.s.s.u.u.u.u.7.7.7.5.5.5.<.<.5.<.5.<.<.:.:.:.*.*.#.#.X.{ { { X.#.#.#.#.X.X.X.X.X.#.#.#.#.*.*.*.*.:.*.#.#.X.#.*.*.#.*.#.#.#.X.X.#.#.*.*.#.*.:.:.*.#.X.#.*.*.*.*.#.*.:.5.7.7.7.7.5.7.w.w.u.u.s.s.u.u.s.s.s.s.s.s.s.s.s.h.h.z.z.z.h.z.h.h.h.z.z.b.z.b.z.z.z.z.z.z.z.h.h.s.s.s.s.s.s.u.w.w.7.7.5.5.<.<.:.:.:.*.*.#.X.X.] ] ( ~ P K F F F Z Z m v l g l l l l g g g g i g i i 0 7 7 4 4 < 4 4 4 < 4 ",
"y y i l v m v m v Z F K P P E E ~ E ~ ~ ( ( ( ( ( ] { { { X.#.#.#.*.*.:.<.5.5.5.7.w.u.u.u.s.s.h.h.h.h.h.h.h.z.h.h.z.z.z.b.z.h.h.h.h.h.h.h.s.s.u.w.w.w.w.7.7.7.7.7.w.7.7.5.5.<.<.:.:.:.*.*.#.#.*.:.:.:.*.*.*.:.*.*.:.<.:.<.<.<.5.5.5.<.<.:.:.<.<.<.<.<.:.<.:.:.:.:.<.<.<.<.<.5.<.<.:.:.:.<.<.<.<.<.<.7.w.w.w.u.w.w.w.s.s.s.h.h.h.h.h.h.h.h.h.h.h.h.h.z.z.z.b.b.b.b.z.z.z.b.b.z.b.m.m.b.b.b.b.b.b.b.z.z.h.h.h.h.h.h.s.s.u.w.u.w.7.7.5.5.5.<.<.:.*.*.#.X.X.X.] ( E P P P P K F Z m m m Z Z Z m v v v v v v l g i y y 0 0 0 y y 0 y ",
"g i i v m m Z m m Z K P E E ~ ~ ~ ~ ( ( ] ] ( ] ] { { X.X.#.#.*.*.*.:.<.5.5.5.7.7.w.u.u.s.s.s.h.h.h.h.h.z.h.z.z.z.z.z.z.z.z.z.z.h.z.s.h.h.s.s.u.u.w.w.w.w.w.w.7.w.w.w.7.5.7.5.<.<.<.:.:.*.*.*.:.:.<.<.:.*.:.:.:.:.<.<.5.<.5.5.5.5.5.5.<.:.<.<.5.5.5.<.<.<.<.:.:.<.<.5.5.5.5.5.5.5.<.:.<.<.5.5.<.<.5.w.w.u.u.u.u.w.u.s.s.h.h.z.h.h.h.h.z.z.z.z.h.h.z.z.z.z.b.b.b.b.b.b.b.b.b.b.m.m.m.m.b.b.b.b.b.b.b.z.z.h.h.z.h.z.h.s.s.u.w.u.w.7.5.5.5.5.<.<.:.*.*.#.#.X.{ ( ~ ~ E ~ E P K F Z m Z Z F Z Z Z m m m Z v v l g g i i y y y i y i ",
"g l l m Z Z F Z Z F P E ~ ~ ~ ~ ( ( ( ] ] { ] { { X.X.X.#.*.*.*.:.:.:.<.7.7.7.w.w.u.u.s.s.h.h.h.h.z.h.z.z.z.z.z.z.z.b.b.b.z.z.z.z.h.h.h.h.h.s.s.u.w.u.w.w.w.w.w.u.w.w.u.7.7.7.5.5.<.5.:.*.:.:.<.<.5.5.<.<.<.<.<.<.5.5.7.5.5.7.w.7.w.7.5.5.5.7.7.7.7.5.5.5.<.<.<.<.5.7.7.7.7.7.7.7.5.<.5.5.5.7.5.5.7.w.u.s.u.u.u.u.s.h.h.h.z.z.h.z.z.h.z.z.z.z.z.z.z.z.b.b.m.m.b.b.b.b.b.b.b.m.m.m.m.m.m.b.b.m.m.b.b.z.z.z.h.z.z.z.h.h.s.u.u.u.w.w.7.7.7.7.5.<.<.:.:.*.#.#.{ ] ] ~ ~ ~ E E P K F Z F F K F F Z Z Z Z Z m m v l g g g i g i g i g ",
"i i g v m Z m m m Z F P P E E E ~ ~ E ~ ( ( ( ( ( ] X.{ { #.#.#.#.*.*.<.<.<.<.5.7.7.w.u.u.u.s.s.s.h.s.s.s.s.h.z.h.h.h.h.z.z.h.h.h.s.s.s.s.u.u.w.w.7.w.7.7.7.7.7.7.7.7.7.7.7.5.<.<.:.:.*.*.#.#.*.<.:.:.:.*.*.*.:.:.:.<.5.<.5.5.5.5.5.5.<.:.<.<.<.5.<.<.:.:.:.:.:.:.<.5.5.5.5.5.5.<.<.:.<.<.<.5.5.<.5.7.w.w.u.u.w.w.u.s.s.s.h.h.h.h.h.h.h.h.h.h.h.h.h.h.z.z.b.b.b.b.z.z.b.z.z.b.b.b.b.b.b.b.b.b.b.z.z.z.h.s.h.s.h.h.h.u.u.w.w.w.7.7.7.5.<.<.<.:.:.*.*.#.X.{ { ( ~ ~ E P E K K Z Z m Z Z Z Z Z m m m m m m v l g g g i y y i i y i ",
"Z Z F K E E E E E ~ ( ] X.{ { X.X.X.X.#.*.*.*.*.*.*.:.:.<.<.5.7.7.7.w.w.u.u.u.s.s.h.h.z.z.b.b.b.b.b.b.b.m.m.m.m.m.m.m.B.m.B.m.m.b.b.b.b.b.z.z.h.z.h.h.s.s.s.h.s.h.s.h.s.s.s.u.u.w.w.w.7.5.7.7.w.w.u.w.w.w.w.w.w.w.u.s.s.s.s.s.h.h.h.s.s.u.s.s.s.s.s.s.u.w.w.u.w.u.u.s.h.h.s.h.s.s.s.u.u.u.s.s.u.u.s.h.z.z.z.z.z.z.z.b.b.m.m.b.m.m.m.m.m.m.m.m.m.m.m.m.B.B.S.B.B.B.B.B.B.B.B.B.S.S.S.S.S.B.B.B.S.B.B.B.m.b.b.m.m.m.b.b.z.z.h.h.s.s.s.u.s.u.w.7.w.7.7.5.<.<.:.*.#.X.{ X.{ ] ( ( ~ ~ E ( ( ~ E E E E E E E P P K F Z Z Z Z m Z Z m ",
"v v m Z K K P K K K E ~ ( ( ( ] ] ] ] ] X.X.X.X.X.#.#.#.*.*.:.:.<.<.<.5.7.7.7.w.u.u.u.s.s.h.h.z.z.z.z.z.z.z.z.z.b.b.b.b.b.b.b.z.h.h.h.h.h.h.s.s.u.u.w.u.w.w.w.u.u.u.w.w.u.w.w.7.7.5.5.5.:.<.<.5.5.5.7.5.5.5.<.5.5.7.w.w.w.w.u.w.w.u.w.w.7.w.7.w.w.w.7.7.5.5.5.5.7.7.w.w.u.w.w.w.w.7.7.7.7.7.w.w.7.w.u.s.s.s.u.s.s.h.h.z.z.z.z.z.b.z.z.b.b.b.b.z.b.z.b.b.m.m.m.m.m.m.m.b.b.b.m.b.m.m.m.B.m.m.m.b.m.m.m.z.z.z.z.z.z.h.h.s.s.u.u.u.w.w.w.7.7.5.<.5.<.<.<.*.*.#.X.{ ] ] ( ( ~ ~ P K K P P P K K K K F K F F Z F Z m m v v v v v l v ",
"i i g l m Z m m v Z F K P P E P E E E ~ ( ( ( ( ] ] ] { X.X.X.X.#.#.#.*.:.:.:.<.5.7.7.w.w.u.u.u.u.u.u.u.u.u.u.s.h.s.s.s.h.s.s.u.u.u.w.w.u.w.w.7.7.5.5.5.5.5.5.5.5.5.5.5.5.5.<.<.:.:.*.#.#.#.#.*.:.:.:.*.*.*.*.*.:.<.5.<.<.<.5.5.5.5.<.<.<.:.:.<.<.<.:.*.*.*.*.*.:.:.<.5.5.5.<.5.<.<.:.:.:.<.<.<.<.<.7.w.w.w.w.7.w.w.u.s.s.s.u.s.s.s.s.s.h.s.s.s.s.s.s.h.h.z.z.z.z.h.h.h.s.h.h.z.z.z.z.z.z.h.z.z.z.h.s.s.s.u.u.s.s.u.u.w.w.7.7.5.<.5.<.<.:.*.*.*.*.#.X.X.] ] ( ~ E P P P P F Z Z Z Z Z Z Z m m m v v v v v l l g g g g i y y i y ",
"i i g l m m m m m m Z K P P P P E P P E ~ ( ( ] ] ( ] { { X.X.#.#.#.#.*.:.:.:.<.<.5.7.7.w.w.w.u.u.u.u.u.u.u.u.s.s.s.s.s.s.s.s.u.w.w.w.w.w.7.7.5.5.5.5.<.<.<.5.5.5.5.5.5.<.5.<.<.:.*.*.#.#.X.#.*.*.:.*.:.:.*.*.*.*.:.<.<.<.5.5.<.<.<.<.<.<.<.:.<.<.<.<.*.#.#.#.*.*.:.<.5.5.5.<.<.<.<.:.:.:.<.<.<.:.5.7.7.w.7.7.7.w.u.u.u.u.s.u.s.s.s.s.s.h.s.s.s.s.s.s.h.h.h.h.z.h.h.h.h.s.s.h.h.z.z.h.z.z.h.h.z.h.h.s.s.u.u.u.u.u.u.u.w.w.7.5.5.<.<.<.<.:.*.*.#.#.#.X.X.] ] ] ~ E E E P K F Z Z m Z Z m m m m m m m m v l v v g g i g i y i i i ",
"g g g v m Z m m m Z F P P P P E E E E ~ ~ ( ( ] ] { { { X.X.X.X.#.#.#.*.*.:.:.<.5.5.7.7.w.w.w.u.u.u.u.w.u.u.u.s.s.s.s.s.s.s.s.u.w.w.w.w.w.w.7.7.5.5.5.5.<.<.5.5.7.5.5.5.5.5.<.<.:.:.*.#.#.#.#.*.:.:.*.:.:.*.*.*.:.:.5.5.<.5.5.5.5.5.5.5.<.<.<.<.<.<.<.:.*.*.*.*.:.<.5.5.7.7.5.5.<.<.:.:.:.<.<.5.<.5.7.7.w.w.7.w.w.u.u.s.s.s.u.s.h.s.s.s.h.s.s.u.h.s.s.h.h.h.h.h.h.h.h.s.s.s.s.h.h.z.z.z.z.h.h.z.z.h.s.u.u.u.u.u.s.u.u.w.w.7.7.5.5.<.<.<.:.*.*.#.*.#.#.X.{ { ] ( ~ E E P P K F Z Z Z F Z Z m Z m m m m v m m v v g g g g i i i g ",
"l v v Z F K K F F F P E ~ ~ E ~ ( ~ ~ ( ] ] { X.{ X.X.#.*.#.#.*.*.*.:.:.<.<.<.5.5.7.7.w.u.u.u.s.s.s.s.s.s.s.s.s.h.h.h.h.h.h.s.s.u.u.u.u.u.w.w.w.7.7.7.7.7.5.7.7.7.7.7.7.7.7.7.5.<.<.:.:.*.*.:.:.<.<.<.<.5.<.:.<.<.5.w.w.7.w.7.7.7.7.7.7.7.7.5.7.7.5.5.<.:.<.:.<.<.5.7.w.w.w.7.7.7.5.5.5.5.7.7.7.5.7.u.u.u.u.w.u.u.s.s.s.s.s.s.h.h.h.h.h.z.h.h.h.h.h.h.h.z.z.z.z.z.z.z.h.h.h.z.z.z.z.b.z.z.z.z.z.z.z.h.s.s.s.s.s.s.s.s.u.w.w.w.7.7.7.7.<.<.<.:.:.:.*.*.*.X.X.X.] ( ( ~ ~ ~ P K K K K K K F F F F F F F Z Z Z Z m m m m v v l l l ",
"g l l m Z Z Z Z m F F P E E P E ~ E E ~ ~ ( ] ] { { { { X.X.X.#.#.#.#.*.*.:.:.<.<.5.5.7.w.w.w.u.u.u.w.u.u.u.u.u.s.s.s.s.s.u.u.u.w.7.w.7.7.7.7.5.7.5.7.5.<.<.5.5.5.5.5.5.5.5.5.<.:.:.*.*.#.*.*.*.:.:.:.:.:.:.*.*.<.<.5.5.5.5.7.5.5.5.5.5.5.<.<.5.5.<.<.:.*.*.*.:.<.<.5.7.w.7.5.5.5.5.<.<.<.<.5.5.5.5.7.w.w.w.7.7.u.u.u.u.s.u.s.s.s.s.s.s.h.h.s.s.s.s.s.s.h.h.h.h.h.h.h.s.u.s.s.h.h.h.z.z.h.h.h.z.h.s.s.u.u.u.u.u.s.u.u.w.7.7.7.5.5.5.<.<.:.*.*.*.*.*.#.X.{ { { ( ( ~ E E P K F F F F F F Z Z Z Z Z Z Z m m m m v l v l l g g g g ",
"m m Z F K K K K K K E ~ ( ~ ~ ( ( ( ( ( { { X.X.#.#.#.*.*.*.*.*.:.:.:.:.<.<.5.5.5.7.w.u.u.u.u.s.s.s.s.s.s.s.s.s.h.s.h.h.h.h.h.s.u.u.u.u.u.u.w.w.w.7.7.7.5.7.7.7.w.7.7.w.7.7.7.7.5.5.<.<.:.:.:.<.5.<.5.5.5.5.5.5.7.7.w.u.u.w.u.w.w.w.w.w.w.w.7.w.7.w.7.5.5.<.5.5.7.7.w.u.s.u.w.7.w.7.7.7.7.w.w.w.7.w.u.u.s.s.u.s.s.s.h.h.h.s.s.h.z.z.h.z.z.z.h.h.z.h.z.h.z.z.z.z.z.b.z.h.h.h.h.z.z.z.b.z.z.b.z.z.b.z.h.h.s.s.s.s.h.s.s.u.u.w.w.w.7.7.7.7.5.<.<.<.<.:.:.*.#.#.#.X.{ ] ] ( ( ~ P E E P E P P P K K K K K K K K K F Z Z Z Z m m m m ",
"l l v m Z Z Z Z Z F K P E E P E E ~ E ~ ( ( ] { { X.{ X.#.X.X.#.#.#.#.*.*.*.:.:.<.5.5.7.w.7.w.w.u.u.u.w.w.w.u.u.u.u.u.u.u.u.u.w.w.7.7.7.7.7.7.5.5.5.5.<.<.<.5.5.5.5.5.5.5.5.<.<.:.:.*.*.*.#.*.*.:.*.:.:.<.:.:.:.<.<.5.7.7.7.7.5.5.5.5.5.7.5.5.5.5.<.<.:.*.:.:.:.<.5.7.7.w.7.7.5.5.5.<.<.<.5.7.5.5.7.7.w.u.w.7.w.w.u.u.u.u.u.u.s.s.s.s.s.s.s.s.s.s.s.s.s.h.h.h.h.h.h.s.s.u.s.s.s.s.h.h.h.h.h.h.h.h.s.u.u.u.u.u.u.u.u.w.w.7.7.5.5.5.5.5.<.:.*.*.*.*.*.#.#.{ X.{ ] ( ( ~ ~ E P K K K K K K F F F F Z Z F Z Z Z Z m v v v v l l l l ",
"m Z Z F K K K K K P E ~ ~ ~ ~ ~ ( ( ( ( ] { { X.X.#.X.#.*.*.*.*.*.*.*.:.:.:.<.<.5.5.7.7.w.w.u.u.u.u.u.u.u.s.s.s.s.s.s.s.s.s.s.u.u.w.w.w.w.w.7.7.7.7.5.5.5.5.5.5.7.7.7.7.7.7.7.5.5.<.<.:.:.:.:.:.<.<.5.5.5.5.<.5.5.7.w.w.w.u.w.w.7.w.w.w.w.w.7.7.7.7.5.5.5.<.<.5.7.7.w.u.u.w.w.w.w.w.7.7.7.7.w.w.7.w.u.u.u.u.u.u.s.s.s.s.h.s.s.h.h.h.h.h.z.h.h.h.h.h.h.h.h.h.z.z.z.h.h.s.s.s.h.h.h.z.z.z.z.z.z.z.z.h.h.s.u.s.s.s.s.s.u.w.w.w.w.w.7.7.5.5.5.<.:.<.<.:.*.*.#.#.#.{ { ] ( ( ( ~ E E E P E P P P K P K K K K K K K F Z Z Z m m Z m m ",
"Z Z F K P P P P K E ~ ( ( ( ~ ( ] ( ] ] { { X.X.#.#.#.#.*.*.*.*.:.:.:.:.:.<.<.5.5.7.w.w.u.u.u.u.s.s.u.s.s.s.s.s.s.s.s.s.s.s.s.u.u.u.w.w.w.w.w.w.7.w.7.5.5.7.7.7.7.7.w.w.w.7.7.5.5.5.5.<.<.<.<.<.<.5.5.7.7.7.5.5.7.7.w.u.s.u.u.w.w.u.u.u.u.u.w.w.w.w.7.7.5.5.5.7.7.w.u.u.s.u.u.w.u.w.w.w.7.w.u.w.w.w.u.s.s.u.u.s.s.s.s.h.s.h.s.h.h.z.h.z.z.z.h.h.z.h.h.h.h.z.z.z.z.z.h.h.s.s.h.h.h.z.z.z.z.z.z.z.z.h.h.h.s.s.s.s.h.s.u.u.w.w.w.w.w.7.7.7.5.<.<.<.<.<.:.*.*.#.#.#.X.{ ] ] ( ( ~ E E E ~ E P E E P P P E P P P P K F F F Z Z Z Z Z ",
"Z Z F F K K P K P E E ~ ( ( ( ~ ( ( ( ] ] { X.X.#.#.#.#.*.*.*.*.*.*.*.*.:.:.:.<.5.5.7.7.w.w.w.w.u.s.u.u.u.u.u.s.s.u.s.u.s.s.u.u.w.7.w.7.7.7.7.7.7.7.5.5.5.<.5.7.7.7.7.7.7.5.5.5.5.<.<.<.<.:.:.:.<.<.5.7.5.5.5.5.7.7.7.w.u.u.w.w.7.w.w.u.u.w.w.7.w.7.7.5.5.5.5.5.7.w.u.u.u.w.w.w.w.7.7.w.7.w.w.w.w.w.u.u.s.u.u.u.s.s.s.s.s.s.s.h.h.h.h.z.z.h.h.h.h.h.s.h.h.z.h.z.h.h.s.s.s.s.s.h.h.h.z.z.z.z.h.h.h.h.s.s.s.s.u.s.s.u.u.w.w.7.7.w.7.7.5.5.5.<.:.<.<.<.:.*.#.#.X.X.{ { ] ( ( ( ~ E E E E E E E P E E P P P E P P K F F Z Z Z Z Z Z ",
"l v v m Z Z m Z Z F K P P P P P P P E E E ~ ] ] ] ] ] { X.X.X.X.X.X.X.X.X.X.#.#.*.*.:.<.<.5.5.7.7.7.7.7.7.7.7.7.w.7.7.7.7.7.7.5.5.<.<.<.<.:.:.<.5.:.:.*.*.:.*.:.:.<.:.:.<.:.:.:.*.*.*.#.#.#.#.#.#.*.:.:.:.:.:.:.<.<.<.5.7.7.5.<.<.5.5.5.5.5.5.<.<.:.:.:.:.*.:.:.<.5.7.7.7.7.5.5.5.5.5.<.<.5.5.5.<.5.5.7.7.w.7.w.w.w.w.w.w.w.7.u.u.u.u.s.s.s.u.u.u.u.u.w.u.u.u.s.u.u.w.w.7.w.w.u.w.u.s.s.s.s.u.u.u.u.w.w.7.7.7.w.w.7.5.5.5.<.<.<.<.<.:.:.*.*.#.#.*.#.X.X.{ { { ] ( ( ~ E E P K K F F K F F F F F F Z F F F Z Z m v v v v l v v l ",
"Z Z K K K K K K P E ~ ~ ~ ~ ~ ~ ~ ~ ( ] ( ] { X.X.#.X.#.#.#.#.#.*.#.#.*.*.*.*.:.<.<.5.7.7.w.7.w.w.w.u.w.u.w.w.u.u.w.w.u.u.u.u.w.7.7.5.5.5.5.5.5.5.5.<.<.<.<.<.<.5.5.5.5.5.5.<.5.<.<.<.:.:.:.:.*.:.<.<.5.5.5.5.5.5.7.7.w.u.u.w.w.7.7.w.u.u.w.7.7.7.5.5.5.5.5.<.5.7.w.u.u.w.w.w.7.7.w.w.7.7.w.w.w.7.7.w.u.u.u.u.u.u.u.s.s.s.u.u.s.s.h.h.h.h.h.s.h.h.s.s.s.s.s.h.h.h.s.s.u.u.u.s.s.s.s.h.h.h.s.h.s.s.u.s.u.s.u.u.u.s.u.w.w.7.7.5.7.7.7.5.<.<.:.:.:.:.:.:.*.#.#.#.X.{ { ] ] ( ~ ~ E E E E E P P P E P E P P E P P K F Z Z Z Z F Z Z ",
"Z F K K K K K P P E ~ ~ ~ ( ~ ~ ~ ( ( ] ] ] { X.#.#.X.#.#.*.*.#.*.*.#.*.*.*.*.:.<.<.5.5.7.7.w.w.w.w.w.w.w.w.u.w.w.w.w.u.u.w.w.w.7.5.5.5.5.<.5.5.7.5.<.<.<.<.<.<.5.5.5.5.5.5.<.<.<.<.<.:.<.:.:.:.:.<.5.5.5.5.5.5.7.5.5.w.u.u.w.w.7.w.w.u.u.w.w.7.7.7.7.5.5.5.5.5.7.w.u.u.w.w.w.w.w.w.w.w.7.w.u.w.7.w.u.u.u.u.u.u.s.s.s.s.s.u.u.s.h.h.h.h.z.h.s.h.h.s.s.s.s.h.h.h.h.s.s.u.w.u.s.s.s.h.s.h.h.h.s.s.s.s.s.u.u.u.u.u.s.u.w.7.7.5.5.5.7.5.5.<.<.<.:.:.<.:.:.*.#.#.#.X.X.{ ] ] ( ( ~ ~ E E ~ E E E P E E E P E E E P K K F F F F F Z Z ",
"l v m Z m Z m Z F F K K P K K K K P E P P ~ ( ( ] ] ( ] { { { { { { ] { { ] { X.#.#.*.:.:.:.:.<.<.5.5.<.5.<.<.5.5.<.5.<.5.5.<.<.:.:.*.*.*.*.*.*.*.*.#.#.#.#.#.*.*.*.*.*.*.*.*.*.*.*.#.X.#.X.X.X.X.#.*.*.:.:.*.:.:.:.:.5.7.5.5.<.:.<.5.5.5.5.<.<.:.:.:.*.*.:.*.:.<.<.7.5.5.5.5.<.<.5.<.<.<.<.5.<.<.<.5.5.7.5.7.7.7.7.w.7.w.7.7.w.w.w.u.u.u.u.w.w.w.w.7.7.w.w.w.w.w.w.7.5.5.5.7.7.7.w.w.u.u.u.w.w.7.w.7.7.7.5.5.5.7.7.<.:.:.:.:.:.:.*.*.*.#.#.X.#.#.X.X.{ { ] ] ( ( ~ E E E P K K F F F F Z F F F F Z Z F F F F m v v v v v v v v ",
"K P E E ~ E ~ ~ ~ ( ] ] ] ] ] ] ] ] { X.{ X.#.*.*.*.*.:.:.:.:.:.:.:.:.:.:.:.:.<.5.5.5.7.w.w.w.w.u.u.u.u.u.u.u.u.u.u.u.u.u.u.u.w.7.7.7.7.7.7.5.7.7.7.5.5.5.5.5.5.7.7.w.7.7.w.7.7.7.5.5.5.<.5.5.<.<.5.7.w.w.w.7.7.w.w.w.u.h.h.s.u.u.s.s.s.h.s.u.u.u.w.w.w.w.w.w.w.u.s.h.s.s.s.s.s.u.s.s.s.u.u.s.u.u.u.s.s.s.s.h.h.h.h.h.h.h.s.h.h.h.h.z.z.z.z.h.h.z.h.h.h.h.h.z.z.h.h.s.s.u.s.s.h.h.h.h.z.z.h.h.h.h.h.h.s.s.u.u.s.s.s.u.w.w.7.w.w.w.w.7.5.5.5.<.5.5.<.<.<.:.:.*.*.#.#.X.X.X.{ ] ] ( ] ( ( ( ( ( ( ( ( ( ( ( ( ~ ~ E P P P P P P P ",
"F F K K K K K K P E E ~ ~ ~ ~ ~ ~ ~ ( ( ( ] ] X.X.X.{ X.X.#.#.#.X.#.X.#.X.#.#.*.*.:.<.<.5.5.5.7.7.7.7.7.7.7.7.7.7.5.5.5.7.7.5.5.<.<.<.<.<.:.:.<.<.:.:.:.:.*.:.:.<.<.5.<.<.<.<.:.<.:.:.:.:.:.*.:.:.:.<.5.<.5.5.5.5.5.5.w.u.w.w.w.7.7.w.w.u.w.7.7.5.5.5.5.5.5.5.5.7.w.w.u.w.w.w.7.w.7.7.7.7.w.w.7.7.7.w.u.w.u.u.w.u.u.u.u.u.u.u.u.s.s.s.h.h.s.s.s.s.u.w.u.u.u.s.u.u.u.w.w.7.w.w.w.w.u.u.u.s.s.u.u.u.w.w.w.w.w.w.w.w.7.7.5.<.5.<.5.5.<.<.:.:.:.*.*.:.:.*.#.#.X.X.X.{ ] ] ( ( ~ ~ E E E E E E P E E E P E P E E P K F K F F K F F F ",
"F F K K P P P P P E ~ ~ ~ ~ ~ ~ E ~ ( ( ( ] ] { X.X.X.X.X.#.#.X.#.X.X.X.X.#.#.#.*.*.:.<.<.<.<.5.5.5.5.5.5.5.5.7.7.5.5.5.5.5.5.<.<.:.:.:.:.:.:.:.<.:.*.*.*.*.:.:.<.<.<.<.<.<.:.:.:.:.*.:.:.*.*.:.*.*.<.5.<.5.<.5.5.5.5.7.u.u.w.7.7.w.w.w.w.w.7.7.7.7.5.5.5.5.5.5.7.w.u.w.w.u.w.w.7.w.w.7.7.7.w.w.w.w.w.w.w.u.u.u.u.u.u.u.u.u.u.u.u.u.s.s.s.s.u.u.u.u.u.w.u.u.u.s.u.u.w.7.7.7.w.w.w.u.u.u.s.u.u.w.w.w.w.w.w.7.7.w.w.w.7.5.<.<.<.5.<.<.:.:.:.:.*.*.:.*.#.#.#.X.X.X.{ ] ] ( ( ~ ~ ~ E E ~ E E E E E E E E E E E E P K F F F F F K F ",
"F F K K K K P P P E E ~ ~ ~ E E E ~ ~ ( ( ( ] { { X.{ { X.X.#.X.X.X.X.X.X.X.X.#.*.*.:.:.<.<.<.<.5.5.5.5.<.5.<.5.<.<.<.5.5.5.5.:.:.*.*.*.*.*.*.:.:.*.*.*.*.#.*.*.:.<.<.:.:.:.:.:.:.:.*.*.*.*.*.*.*.:.<.<.5.5.<.<.<.<.5.w.u.w.7.7.7.7.w.w.w.w.7.7.7.5.5.5.5.5.<.5.7.7.w.u.w.w.w.7.7.7.w.7.7.w.w.w.7.7.7.w.w.w.w.w.w.w.u.u.w.w.w.u.u.u.u.s.s.s.u.u.u.u.w.w.w.w.u.u.u.u.7.7.7.7.w.w.w.w.w.u.u.u.u.u.w.w.w.7.7.7.7.7.7.7.5.5.<.<.<.<.<.<.:.:.*.*.*.*.*.*.#.#.#.X.X.{ { ] ( ( ( ~ E E E ~ E E E P P E E P P E E P P P K F F F F F F F ",
"Z Z F F F K K K K P P E E P P E P E E ~ ~ ~ ~ ( ] ] ] ] { { { { { { ] ] ] { { X.X.#.#.#.*.*.:.:.:.:.:.:.:.:.:.:.:.:.:.:.:.:.:.:.*.#.#.#.#.#.#.#.*.#.#.X.X.#.#.#.*.*.*.*.*.*.#.#.#.#.#.#.#.#.X.#.#.#.:.:.:.:.:.:.<.:.<.5.7.7.5.5.<.5.7.7.7.7.5.5.5.5.5.<.5.<.:.<.5.7.7.w.w.7.7.5.5.5.5.5.5.5.7.5.7.5.7.7.7.7.7.w.w.w.w.7.w.w.7.7.w.w.u.u.u.w.w.w.w.7.7.7.7.7.7.w.w.7.5.5.<.5.7.7.7.7.7.w.w.w.w.7.7.5.7.5.5.<.<.<.5.5.<.:.:.*.*.:.*.*.#.#.*.#.X.#.#.#.X.X.X.{ ] ] ( ( ~ ~ E E P E E P P P K K K K K K K K K K K F F Z Z Z Z Z Z Z ",
"K K P P P P E P E E ~ ~ ( ( E ~ ~ ~ ( ( ( ] ] ] { { { X.#.X.#.X.X.X.X.X.X.X.X.#.#.*.*.:.<.:.:.<.<.5.5.<.<.<.<.<.<.:.:.<.<.<.<.:.:.*.#.*.*.*.*.:.:.*.*.*.#.*.*.:.:.:.:.:.:.:.:.:.:.*.*.*.*.:.*.*.*.:.<.<.5.<.<.<.5.5.5.w.u.w.w.7.7.w.w.u.w.w.7.7.7.7.7.7.7.5.5.5.7.w.u.u.u.u.u.w.7.w.w.w.7.w.w.w.w.7.w.w.w.u.u.w.u.u.u.u.u.w.u.u.u.u.u.s.u.u.u.u.w.u.w.w.u.u.w.u.w.w.7.5.5.5.7.7.w.w.w.u.w.w.w.w.7.w.7.7.7.5.5.5.5.5.5.<.:.<.<.:.:.:.*.:.:.*.*.*.*.*.#.#.X.#.X.X.{ ] ] ( ( ~ ~ ~ ~ ~ ~ ~ E E E E E E E E E E E P P K K K K K K K ",
"m Z m Z Z F F F F K K K P P K K K P P P P E E E ~ ~ ~ ~ ( ( ( ] ( ( ( ( ( ( ( ] ] { { X.X.X.#.#.#.#.#.#.#.#.X.#.#.X.#.X.#.#.#.X.{ { { X.{ { X.X.X.X.{ { { { { { X.#.X.#.X.X.X.X.X.X.{ X.X.{ X.X.{ #.#.*.*.*.*.*.*.*.:.<.5.5.<.:.:.:.<.5.<.<.<.<.<.<.<.:.:.:.:.:.:.<.5.5.7.5.5.<.<.<.<.<.<.5.<.5.<.<.<.<.5.5.5.5.5.7.5.5.5.5.<.5.5.7.7.7.7.7.7.5.5.5.<.<.5.<.5.5.5.<.<.:.*.*.<.<.<.<.<.5.5.5.5.5.<.<.<.:.*.*.*.*.:.:.*.*.#.#.#.#.#.X.X.X.X.X.{ { X.X.] ] ] ( ( ~ ~ E E P P K K K K K K K F F K F F F K F F F F Z Z m m m m m Z m ",
"E E E ~ ( ~ ~ ~ ~ ( ] ] ] ] ( ] ( ] { ] { { { X.X.X.X.#.#.*.#.#.#.#.#.X.X.#.#.*.:.:.:.:.<.<.<.<.5.5.5.5.<.5.<.<.<.<.<.<.<.5.<.<.:.:.*.:.*.:.<.:.:.:.*.:.*.:.:.<.<.<.<.<.<.<.<.:.<.:.:.:.<.<.<.<.:.5.7.5.7.5.7.7.7.7.w.u.s.u.w.w.w.u.u.u.u.u.u.w.u.w.u.w.w.w.w.w.w.u.s.h.h.s.u.u.w.w.w.u.u.u.u.u.u.u.u.w.u.u.u.u.s.s.s.s.s.s.u.s.s.s.h.s.s.s.s.u.u.u.u.w.u.u.u.u.u.u.w.7.7.7.w.w.w.u.w.u.u.w.u.w.w.w.w.7.7.5.7.7.7.7.7.5.<.<.5.5.<.<.<.:.<.:.:.<.<.:.*.*.*.*.*.#.X.{ { { ] ] ( ] ] ] ( ( ( ( ( ~ ~ ( ( ( ~ ( ( ~ ~ ~ E E E ~ E E ",
"m v v v m Z m Z m Z Z F K F Z Z F Z K F K K K K P P P E E ~ ~ E E P P E P E E ~ ~ ( ( ] ] ] ] ] { { { { ] ] ] ] ] ( ] ] ] ] ] ] ( ( ( ~ ( ( ( ] ] ( ( ( ( ( ( ( ] ] ] { { ] ] ] ( ] ( ] ] ] ] ] ] { X.X.X.X.#.#.#.#.*.:.<.:.*.#.*.:.:.:.:.*.*.:.*.*.:.*.*.*.*.*.*.:.<.<.5.<.<.:.*.*.*.:.:.<.:.:.<.:.*.*.:.:.:.:.<.<.<.<.<.:.:.:.:.<.<.<.<.<.<.:.:.:.*.:.:.:.:.:.:.*.#.#.X.#.*.*.*.*.:.*.*.:.:.*.*.*.#.X.X.{ X.X.X.#.X.{ { { { { ] ] ( ] ] ] ( ] ] ( ( ~ ~ ~ E P P K K K F Z Z Z F F F Z Z Z m Z m Z Z m m m Z m v m v v v v v m ",
"~ ~ E ~ ( ( ( ( ( ( ] ] { ] ] ] ( ] { { { { { { X.X.X.#.#.#.#.#.#.#.#.X.#.#.#.#.*.*.*.:.:.:.:.<.<.<.5.<.:.:.<.:.:.:.:.*.:.:.<.:.:.*.*.*.*.*.:.:.:.:.*.*.*.*.:.:.<.<.<.<.<.<.:.:.<.:.<.:.:.:.<.<.<.<.5.5.7.7.7.7.7.7.w.u.s.u.u.w.w.w.u.u.w.u.u.u.u.u.u.u.u.u.w.w.w.s.s.s.h.h.s.u.u.w.u.u.u.u.u.u.u.u.w.u.u.u.u.u.s.s.s.s.s.u.u.u.u.u.s.s.s.s.s.u.u.w.w.w.w.w.u.u.u.w.7.7.7.7.7.w.w.w.w.w.w.w.u.w.w.7.7.5.5.5.5.5.7.5.7.5.<.<.5.<.<.<.<.<.<.:.:.:.<.:.*.*.*.#.#.#.X.X.{ ] ] ] ( ] { ] ] ( ( ( ] ( ( ( ] ( ( ] ( ( ~ ~ ~ ~ E ~ ~ ~ ",
"F Z Z F F F K K K K P P E P P P K P P P P E P E E E E ( ~ ( ( ( ~ ~ ~ ~ ~ ~ ( ( ( ] ] ] { { { { X.X.{ X.{ { { { ] ] ] ] { { { { ] ] ] ] ( ] ] { ] ] ] ] ( ] ] { { { X.X.{ { { { { { { { { { X.X.{ #.#.*.#.*.*.*.:.:.<.<.7.5.<.:.:.<.5.<.<.<.<.<.<.<.5.<.<.<.:.<.<.5.5.7.7.7.7.<.<.<.<.5.5.5.5.<.5.<.:.<.<.<.<.5.5.5.5.5.5.5.<.<.5.5.5.5.5.5.<.5.<.<.:.:.:.<.<.<.<.:.:.*.#.*.*.:.:.:.:.:.:.:.<.:.*.*.#.#.X.#.X.#.#.#.#.X.{ X.X.X.X.{ { { X.{ { { { { ] ] ] ] ( ( E E P P P K K K E P P K K K K K K K K K K F K K F F F Z Z Z Z Z ",
"E E E ~ ~ ~ ~ ~ ( ( ( ( ( ] ( ( ( ( ( ] ( ] ] ] ] { { { X.X.X.X.X.X.X.{ { X.X.X.X.#.X.#.#.*.#.*.*.*.:.*.#.*.#.#.#.X.X.#.#.#.*.*.X.#.X.X.X.#.#.#.#.#.#.#.#.#.*.*.:.*.*.*.*.*.:.*.*.*.*.*.:.:.:.:.:.<.<.<.<.<.5.5.7.7.w.u.u.u.7.w.7.w.w.w.w.w.w.w.w.u.w.w.w.w.w.w.w.u.u.s.s.s.u.w.7.7.u.u.u.u.u.w.w.w.7.w.w.w.w.u.u.u.u.u.u.w.w.w.w.w.w.w.u.w.w.w.7.7.5.7.7.7.7.w.7.7.5.<.<.<.5.5.7.5.5.5.5.7.7.7.5.5.<.:.:.:.:.:.:.:.:.:.:.*.:.:.:.*.:.:.*.*.*.*.*.*.#.#.#.X.X.{ { ] ] ( ( ( ~ ( ( ] ( ( ( ~ ( ( ~ ~ ( ~ ~ ~ ( ~ ~ ~ E E E E E E ",
"P K K P P P E E P E E E ~ E P P P E E E E ~ E ~ ~ ~ ( ( ( ] ] ( ( ( ( ( ( ( ] ( ] ] ] { { { { { { X.X.{ { { { { ] ] ] ] { { { { { { ] ] ] ] ] { { { { { { { { { X.X.X.X.X.X.{ { X.X.X.X.X.X.#.#.#.#.*.*.*.:.:.:.<.<.5.5.7.7.5.5.5.5.5.5.5.5.5.5.5.7.7.5.7.5.5.5.5.7.w.w.w.w.7.5.5.5.5.7.w.7.7.5.5.5.<.5.5.5.5.7.7.7.7.7.7.7.5.5.5.5.5.5.7.7.5.5.5.<.:.<.<.5.<.<.<.:.:.:.#.*.*.:.:.<.:.:.:.:.:.:.:.*.*.#.#.X.X.#.X.#.#.X.X.X.X.X.X.X.X.X.X.X.X.X.X.X.{ ] ] ] ] ( ( ~ E E E E P E ~ E E E E P E P P E E P P E E P K P K K K K K K ",
"~ ~ ~ ( ( ] ( ( ( ] ( ] ] ] ] ( ] ( ] ] ] ] ] ] ] ] { X.X.X.X.X.X.{ X.{ X.{ X.X.X.#.X.#.#.#.#.#.#.*.*.#.#.#.#.X.X.X.{ #.X.#.*.#.#.X.X.#.#.#.#.#.#.#.#.#.*.#.*.#.*.*.*.*.*.*.*.*.*.*.*.*.:.:.:.:.:.<.<.5.<.<.5.7.w.w.w.u.u.u.w.w.w.w.w.u.u.w.w.u.u.u.u.u.u.w.w.w.u.u.s.s.h.s.u.u.w.w.u.s.s.s.u.u.u.w.w.w.w.u.w.u.s.u.u.u.u.u.w.w.w.w.w.u.w.w.w.w.7.7.7.5.5.7.7.7.5.5.5.<.<.<.5.5.5.5.5.5.5.5.7.5.5.<.<.:.:.:.*.:.:.:.:.*.*.*.*.:.:.*.*.*.:.*.*.*.*.*.#.#.#.#.#.X.{ { ] ] ( ( ( ] ] ] ] ] ( ] ] ( ] ( ] ( ( ( ( ] ( ( ~ ~ ~ ~ ~ ~ ",
"~ ~ ~ ~ ~ ~ ( ~ ~ ( ( ( ( ( ( ( ( ( ( ( ( ] ( ( ] ] ] { { { X.{ ] ] { { ] { { { X.X.{ X.X.X.{ X.X.X.#.#.X.X.X.{ { ] { { { X.X.X.X.{ { X.X.X.{ X.X.#.X.X.#.X.X.X.#.#.#.#.#.#.#.#.#.#.*.*.#.*.:.:.:.:.:.:.<.<.<.5.7.w.w.w.u.w.w.7.7.w.w.w.w.w.w.w.u.w.u.w.w.w.w.w.w.u.u.s.s.u.u.w.w.w.u.u.s.u.u.w.w.7.7.7.w.w.w.u.w.u.w.w.u.w.w.w.7.7.7.7.w.7.w.7.5.5.<.<.5.<.<.5.5.<.:.:.:.:.<.<.:.<.<.<.<.<.:.<.<.:.:.*.*.*.#.*.#.*.*.#.X.#.#.#.#.*.#.#.*.#.#.#.#.#.#.X.#.X.{ { ] ] ( ~ ~ ~ ( ( ( ] ( ] ( ( ( ( ( ( ( ( ( ~ ( ( ( ~ ~ ~ E E E ~ ",
"E E E ~ ~ ~ ~ ~ ~ ~ ( ( ( ~ ~ ~ ~ ~ ~ ~ ( ( ( ( ( ( ] ] ] ] ] ] ] ( ] ( ] ] ] ] { ] ] ] ] ] ] { { X.{ { { { ] ] ( ] ( ] ] ] { { { { { ] { { { ] { { { X.X.X.X.X.X.X.X.X.{ X.X.X.X.X.X.#.#.#.*.*.*.*.:.*.*.:.:.5.7.7.w.w.w.w.7.7.7.7.7.w.w.7.w.w.w.w.w.7.w.7.w.w.7.w.u.u.u.u.w.7.7.w.w.u.u.u.u.7.w.7.7.7.7.7.w.7.w.w.w.w.w.7.7.7.7.7.5.5.7.7.5.5.5.<.<.:.:.<.<.<.<.:.:.:.*.:.*.:.:.:.:.:.:.*.:.:.:.*.*.#.#.X.#.X.X.X.X.X.X.X.X.#.#.#.#.#.#.#.#.X.X.X.X.X.X.{ { ] ( ( ( ~ ~ ~ ~ ~ ~ ( ( ( ( ( ( ( ( ~ ( ~ ( ~ ~ ( ( ~ ~ ~ E ~ E E ",
"~ E ~ ~ ~ ( ( ( ~ ( ( ( ( ( ~ ( ~ ( ~ ( ( ( ( ( ( ( ] ] ] ] { ] ] ] ] ] ] ] ] ] ] ] ] { ] ] ] ] X.{ { X.{ { ] ] ] ( ] ( ( ] { { { { ] { { { ] { { { { X.X.X.X.X.#.X.X.X.X.X.X.X.X.X.#.#.#.*.*.:.:.:.:.*.:.:.<.5.7.w.w.w.u.w.7.7.7.w.7.w.w.w.w.w.w.u.u.w.w.w.w.w.w.u.u.s.s.s.u.w.7.w.u.s.s.s.u.w.7.7.7.7.7.7.w.w.w.w.w.w.w.w.w.7.7.5.5.5.7.5.5.5.<.<.<.:.:.:.<.<.:.:.:.:.*.:.:.:.:.:.:.:.*.*.:.:.:.*.#.#.#.#.#.#.#.X.#.X.X.{ X.#.*.#.#.*.#.#.X.X.#.X.X.X.X.{ { ] ] ( ( ~ ~ ~ ( ( ( ( ] ( ( ( ] ( ( ( ( ( ( ( ( ( ( ( ( ~ ~ ~ E ~ ",
"#.#.#.*.*.*.*.*.*.*.*.*.*.:.*.*.*.*.#.*.*.*.:.*.*.:.<.<.<.<.<.:.:.:.:.:.:.:.<.:.<.<.:.:.:.:.:.:.<.<.5.<.<.<.:.:.*.*.*.*.*.:.<.<.<.<.<.<.<.<.:.<.<.<.5.5.5.5.<.5.5.5.<.5.5.5.5.5.5.7.7.7.7.w.w.u.w.u.u.u.w.u.u.s.z.z.z.b.b.b.z.z.h.z.z.h.z.z.z.b.b.b.b.z.z.z.b.b.b.b.b.m.m.b.z.z.z.z.b.m.m.m.b.z.z.z.z.h.z.z.z.z.z.z.z.z.b.z.z.h.z.h.s.h.h.h.h.s.s.u.u.u.u.u.u.u.u.u.u.w.w.w.w.w.u.u.w.w.w.w.w.u.u.u.7.7.7.7.5.5.5.5.5.5.5.5.5.7.7.7.w.7.7.7.5.7.5.5.5.5.5.5.<.:.:.*.*.#.*.*.:.*.*.:.:.:.:.:.:.:.:.:.:.:.*.:.*.:.:.:.*.*.#.#.#.#.",
"( ( ] ( ] ( ( ] ( ] ] ( ] ] ( ] ( ( ( ( ] ( ] ] ] ] { { { { { ] { ] ] { ] { { ] ] ] ] ] ] ] ] ] { ] { { { { ] ] ( ( ( ( ( ( ] ] ] { { { { { ] ] ] { X.X.X.X.X.X.X.X.X.{ X.X.X.X.X.#.#.#.#.*.:.:.:.<.:.:.:.<.5.7.w.w.w.u.u.u.w.7.7.7.w.w.w.w.w.u.u.u.u.w.w.u.u.u.w.u.s.s.s.s.u.w.w.u.u.s.s.h.s.w.w.7.7.7.w.w.w.u.w.w.w.w.u.w.w.7.7.5.5.7.7.5.5.5.<.<.:.:.:.:.:.:.:.:.:.:.:.*.:.*.:.:.*.*.*.*.*.:.:.*.#.#.#.X.#.X.X.X.X.{ { { X.#.#.#.#.#.#.#.#.X.X.#.X.#.X.X.{ { ] ] ( ( ( ( ] ] ( ] { { ] ] { { ] { ] ] ] ] ] ] ] ] ] ] ( ( ( ( ",
"] { X.{ { { { { { { { { { { { { { { ] ] { { { { { { X.X.X.X.X.{ { { X.{ X.{ X.X.X.{ { { { ] ] { X.X.X.X.{ X.{ ] ] ( ] ] ] ] { X.X.{ X.{ X.X.{ { { X.#.#.#.#.#.#.*.#.X.#.#.#.#.#.#.*.*.*.:.:.5.<.<.5.<.<.<.<.5.w.u.u.s.s.s.s.u.u.u.u.u.u.u.u.s.s.s.s.s.s.u.u.s.s.s.s.h.h.h.h.s.u.u.u.h.h.z.h.s.u.u.u.u.u.u.u.u.u.u.u.u.u.u.u.u.w.u.w.7.7.w.w.7.7.5.5.5.<.<.<.<.5.<.<.<.<.<.:.:.:.:.<.<.:.*.:.:.<.<.:.*.*.*.*.#.*.#.#.#.#.X.#.#.*.*.*.:.*.*.*.*.*.*.#.#.#.*.#.X.X.{ { ] ] { ] { { { X.X.X.X.X.X.X.X.X.X.X.X.{ { X.X.X.X.X.{ { ] { ",
"] { { { { { { { { ] { { { { { { { ] ] ] ] { ] ] ] ] X.{ { { X.{ { ] { { { { { X.{ { ] ] ] ] ] ] { { { { { ] ] ( ( ~ ~ ( ( ( ] ] { { { { { { ] { { { X.X.X.#.X.X.#.X.X.X.X.X.#.#.#.#.*.*.*.:.<.<.<.<.<.<.<.<.5.7.w.u.u.u.s.s.u.w.w.w.u.w.u.u.u.s.s.s.s.s.u.u.s.s.u.s.s.h.h.s.s.u.u.u.s.h.h.h.s.u.w.u.w.w.w.u.u.u.u.u.u.u.u.u.u.w.7.7.7.7.7.7.7.5.5.<.<.:.<.:.<.:.:.:.:.:.:.*.*.:.:.:.:.*.*.*.*.:.:.*.#.#.X.#.X.X.X.X.X.{ X.{ X.#.*.*.*.*.#.#.#.X.#.#.#.#.#.X.{ X.{ ] ] ] ] ] { { ] { X.X.{ X.X.{ X.{ X.{ { { { { X.{ X.{ { { ] ] ",
"X.X.X.X.X.X.X.X.X.X.X.X.X.X.{ { { X.] { { X.{ X.{ X.X.X.X.X.X.X.{ X.X.X.{ X.X.{ { { { { ] { ] ] { { X.X.{ { ] ( ( ( ( ( ( ( ] { { { { { X.{ { { { X.X.#.#.#.#.#.#.#.X.#.X.#.#.#.#.*.*.*.:.<.<.5.5.5.5.<.<.5.7.w.s.s.s.s.h.s.u.u.u.u.s.u.u.u.s.s.s.h.h.s.s.s.h.h.s.h.h.z.z.h.s.s.s.s.h.h.z.z.h.s.u.u.u.u.s.u.u.u.s.u.u.u.s.u.u.w.w.w.7.w.w.w.7.7.5.5.<.<.<.<.<.<.<.<.<.:.<.:.:.:.:.:.:.:.*.:.:.:.<.:.*.*.#.*.#.#.#.#.#.X.X.X.#.#.*.*.*.:.*.*.*.*.#.#.#.*.#.#.#.X.X.X.{ { { { X.X.X.X.#.#.X.#.#.#.#.X.#.#.#.#.#.#.#.#.#.X.#.X.{ X.",
"*.*.:.*.*.:.:.*.*.*.*.:.*.*.*.*.#.#.#.#.#.*.*.#.#.*.*.*.*.*.*.*.*.#.*.*.*.*.*.*.#.#.#.#.#.#.X.#.#.*.#.#.#.#.X.{ { { { { { X.X.X.#.#.#.#.#.#.#.#.#.*.*.:.:.:.<.:.:.:.:.:.:.:.:.<.<.<.5.5.5.7.w.w.w.w.w.w.w.w.u.s.h.h.z.z.z.z.h.h.h.h.h.h.h.z.z.z.z.b.z.z.z.z.b.z.z.b.b.b.b.b.z.z.z.z.b.b.b.b.b.h.h.h.h.h.h.h.h.h.z.z.h.h.z.h.h.s.s.s.u.u.s.u.u.w.w.w.w.7.7.7.7.7.7.7.7.w.7.7.5.5.5.5.5.5.<.5.5.5.5.5.<.<.:.<.<.:.:.*.:.*.*.*.:.<.5.<.5.5.<.5.<.<.<.<.<.<.<.:.:.:.:.*.#.#.#.#.*.*.*.:.:.:.:.:.:.:.:.<.<.:.:.:.:.<.:.<.:.:.:.:.*.*.",
"{ { X.{ X.{ { { X.{ { { { { { { ] ] ] ] ] ( ] ] ( ] { ] ] { ] ] ] ] ] ] ] ] { ] ( ( ( ~ ~ ~ ~ ~ ( ( ] ( ( ~ ~ E E P E E E E ~ ~ ( ( ( ( ( ] ( ( ] ] ] { { X.{ { X.X.{ { { X.X.X.#.#.#.*.*.:.:.<.<.<.<.<.<.<.5.7.w.u.u.u.s.u.u.u.u.w.u.w.u.w.u.u.s.s.s.s.u.s.s.s.s.s.h.h.h.s.s.u.u.u.s.h.h.h.s.u.w.u.w.w.u.w.u.u.u.w.u.w.u.u.7.w.7.7.5.5.5.5.5.<.<.:.:.*.*.*.:.:.:.*.*.*.*.#.#.*.*.*.*.#.#.#.#.#.#.#.#.X.{ X.{ { { { { { ] { { X.X.#.#.#.#.#.#.#.X.#.X.X.#.X.X.{ { ] ] ] ] ] { { { X.X.X.X.X.X.X.X.X.X.X.X.X.X.X.#.X.X.X.X.{ X.{ ",
"{ { { X.{ { X.{ { { { { { { { ] ] ( ] ( ( ] ] ( ( ( ] ] ] ] ] ( ( ( ] ( ( ( ] ( ( ( ~ ~ ~ E ~ ~ ( ( ( ~ ~ ~ ~ P K P P P P P E ~ ~ ~ ~ ~ ( ~ ( ~ ( ( ] { { { { { { { { ] { { { X.X.X.#.#.#.:.:.:.<.:.:.<.<.<.5.7.w.u.u.u.s.u.u.w.w.w.u.w.u.w.u.s.s.s.s.s.u.s.s.s.s.s.h.s.h.s.u.u.u.u.s.h.h.h.s.w.w.w.7.w.w.w.w.w.w.w.w.w.w.w.w.7.5.5.<.<.5.<.<.:.:.*.*.#.#.#.*.*.*.#.*.#.#.#.X.#.#.#.#.X.X.X.X.#.#.X.{ { { { { { ] { ] { ] ] ] X.X.#.#.X.X.#.X.X.X.X.X.X.X.{ { { ] ] ] ] ] ] { { { { X.X.{ X.X.X.X.X.X.X.X.X.X.X.X.X.X.X.X.{ { X.",
"#.#.#.#.#.#.X.#.#.X.X.X.X.X.X.{ X.{ { { { { { { { { { X.{ { { ] ] ] ] { ] ] ] ] ] ( ( ( ( ( ~ ( ( ( ] ( ( ( ~ ~ E E E E E E ( ( ( ( ( ( ] ] ( ( ( ] { X.X.X.X.X.X.X.{ X.X.#.X.#.#.#.*.*.*.:.<.5.5.<.5.<.<.5.7.w.u.s.s.h.h.s.s.u.u.u.s.s.s.s.s.h.h.h.h.s.s.h.h.h.s.h.h.z.z.h.h.s.s.s.h.h.z.h.h.s.u.u.u.u.u.u.s.u.u.u.u.u.u.u.w.w.7.7.5.5.7.5.5.5.<.:.:.:.:.*.*.*.*.:.*.*.*.*.#.#.*.*.*.#.#.#.#.*.*.#.#.X.X.X.X.{ { { { { ] { X.X.#.#.#.*.#.#.#.#.#.#.#.#.*.#.X.X.X.{ { { { { X.X.X.X.#.#.#.#.#.*.#.*.*.#.#.*.#.#.*.*.#.*.#.#.#.X.",
"#.#.#.#.#.#.#.X.X.X.#.X.X.X.X.X.{ { { { { { { { ] { { { { { { { ] ] ] { ] ] ] ] ] ( ( ( ( ~ ~ ~ ( ( ] ( ( ( ~ E P E E E E E ~ ( ( ( ( ( ( ( ( ( ] ] { { X.X.X.{ X.X.{ X.X.X.X.#.#.#.*.*.*.<.<.5.5.5.5.5.5.5.7.w.s.s.s.h.h.h.s.u.u.s.s.s.s.s.h.h.h.h.z.h.s.h.h.z.h.h.z.z.z.z.h.s.s.s.h.z.z.z.h.s.u.u.w.u.u.u.u.u.u.u.u.u.u.w.w.w.w.7.5.5.5.5.5.<.<.:.:.*.*.*.*.:.*.*.*.*.#.#.#.#.#.#.#.#.X.#.#.#.*.#.X.X.X.X.{ X.{ { { ] ] ] { #.#.#.*.#.*.#.#.#.#.#.#.#.#.#.X.X.X.X.{ { X.{ X.X.X.#.#.#.#.#.*.*.*.*.*.#.*.*.#.*.*.*.*.*.#.#.#.#.",
"*.*.*.:.*.*.*.*.*.*.*.#.*.#.#.#.#.#.X.X.X.X.#.X.X.X.#.#.#.X.X.X.{ { { { { X.{ { { ] ] ] ( ] ( ] ] ] ] ] ] ( ( ~ ~ ~ ~ E E ~ ] ] ] ] ] ] ] ] ] ] ] { X.X.#.#.X.X.#.#.#.#.#.#.*.*.*.*.:.:.<.<.7.7.7.7.7.7.7.w.w.u.s.h.z.z.z.z.h.h.h.h.h.h.h.h.z.z.z.b.b.z.z.z.z.z.z.z.b.b.b.b.z.h.h.h.z.b.b.b.z.h.s.s.s.u.s.s.s.s.s.s.u.u.s.s.u.w.u.7.7.7.w.7.7.5.5.<.:.:.:.:.:.:.:.:.:.:.*.*.*.*.:.*.*.*.#.*.*.:.:.*.#.#.X.#.#.X.#.X.X.X.X.X.#.#.*.*.*.:.*.*.*.*.*.:.*.*.:.*.#.#.#.#.X.#.#.#.#.*.#.*.:.:.:.*.:.:.:.:.:.:.:.:.:.:.:.:.:.:.:.*.*.*.",
":.<.<.<.<.<.<.<.:.:.:.:.:.:.*.*.*.*.*.*.*.*.*.*.*.#.*.*.*.#.#.#.X.X.#.X.X.X.X.X.X.{ { { { { ] { { X.X.X.X.{ ] ] ] ( ( ] ( ] { { { { { X.X.X.{ { X.X.#.*.*.*.*.*.*.*.*.*.*.:.:.:.<.<.5.5.5.7.w.w.u.w.w.u.w.u.s.h.z.z.z.b.b.b.z.z.z.z.z.b.z.b.b.b.m.m.m.b.b.b.m.b.b.m.m.m.m.m.b.z.z.b.b.m.m.m.b.z.h.h.h.h.h.h.h.h.h.h.h.h.h.s.s.s.u.u.w.u.u.w.w.w.7.7.5.5.<.<.5.5.<.<.<.<.<.:.:.:.:.<.<.:.:.:.:.<.<.:.*.*.*.*.*.*.#.#.*.#.#.*.*.:.:.<.<.<.<.<.<.:.:.<.<.<.<.<.:.:.:.*.*.*.*.*.:.<.:.<.5.<.<.5.<.5.5.<.5.5.<.5.5.5.5.5.5.<.<.<.<.<.",
"*.*.*.*.*.*.*.*.*.*.#.*.#.#.#.X.#.X.X.{ { X.X.{ { { { X.{ X.{ ] ] ] ] ] ( ] ] ( ] ( ( ~ ( ~ ~ ( ( ( ( ( ( ~ ~ E P E P E P E ~ ~ ( ( ~ ( ( ( ~ ( ( ] ] { X.{ { X.X.X.X.X.X.X.#.*.#.*.*.:.:.<.5.7.5.7.7.7.7.7.w.u.s.h.h.h.z.h.h.h.s.h.z.h.h.z.z.z.z.z.z.z.h.z.z.z.z.z.b.b.b.b.z.h.h.h.z.z.b.z.z.s.s.u.u.u.u.u.u.s.u.u.u.u.u.u.w.w.7.7.5.7.7.5.5.5.<.<.:.*.*.*.*.*.*.*.#.#.#.#.#.#.#.#.#.#.X.X.#.#.*.#.X.{ X.{ { X.{ { { { { { { X.#.#.#.*.#.*.#.#.*.*.*.*.*.#.#.#.#.X.X.X.X.#.#.#.#.*.:.:.*.*.:.:.:.:.:.:.:.:.:.:.<.:.:.:.:.*.*.*.",
":.:.:.:.:.:.*.:.*.*.*.:.*.*.#.#.#.X.#.X.X.#.X.X.X.X.X.X.X.X.X.{ ] { ] ] ] ] ] ] ( ] ( ( ( ( ( ( ( ( ] ( ( ( ~ E E P E E E ~ ~ ( ( ( ( ( ] ( ( ( ] ] { X.X.X.{ X.#.#.#.X.#.#.#.*.*.*.:.:.<.<.7.7.7.w.w.7.w.w.u.s.h.h.z.z.z.z.z.h.z.h.z.z.z.z.z.b.b.b.b.b.z.z.b.b.z.b.m.m.m.b.z.z.h.h.z.b.b.z.z.h.s.s.s.s.u.s.s.s.s.u.u.u.s.u.u.w.w.7.7.7.7.7.5.5.<.<.:.:.*.:.*.:.*.*.*.#.#.#.#.#.#.#.#.#.#.#.#.*.*.#.#.{ X.{ X.X.X.X.X.X.{ { X.*.#.*.*.*.*.*.*.*.*.*.*.*.:.*.*.#.#.*.#.#.#.#.*.*.*.:.:.<.:.<.<.<.<.<.<.<.<.<.<.<.<.<.<.<.:.:.:.:.",
"<.<.<.<.<.<.<.:.:.:.:.:.:.*.*.*.*.*.#.#.#.#.#.X.X.X.X.#.X.X.X.X.{ { ] ] ] ( ] ] ] ] ( ( ] ( ( ( ] ] ] ] ] ( ~ ~ ~ E E ~ E ~ ( ( ( ( ( ( ( ] ( ] ] ] { X.#.X.X.#.#.#.#.#.#.*.*.*.:.:.:.<.5.5.7.7.w.w.u.w.w.u.u.s.h.z.z.b.b.b.z.z.z.z.b.b.b.b.b.b.b.b.b.b.z.b.b.b.b.m.m.m.m.m.b.z.z.z.b.b.b.b.z.h.h.s.s.s.s.s.s.h.s.s.s.s.s.u.u.w.w.w.7.w.w.7.7.5.5.<.:.:.:.:.:.:.:.*.*.*.#.*.#.*.*.*.*.*.#.#.*.:.*.#.#.X.X.X.X.X.X.X.X.X.X.#.#.#.*.:.*.*.:.:.*.:.:.:.:.:.:.:.:.*.*.*.#.*.*.*.*.*.:.<.<.<.<.<.<.5.5.<.5.5.5.5.5.5.5.5.5.<.5.<.<.<.",
"*.*.*.*.#.*.*.#.#.#.#.#.#.X.X.{ { { { { ] ] ] ] ( ( ] ] ( ] ( ( ~ ~ ~ E P E E E E P P P E P P P E P P E P P K K F F F F K K P P P P P P P P E P E ~ ~ ~ ( ( ( ( ] ] { { { { X.X.X.#.#.*.*.:.<.<.<.5.5.5.7.7.7.u.u.s.s.h.z.h.h.s.s.h.z.h.h.h.z.z.z.b.z.z.z.z.h.z.z.z.b.b.b.b.h.h.s.s.h.h.z.h.s.s.u.u.w.w.w.w.w.w.w.w.w.w.7.7.5.5.5.<.<.<.<.<.:.:.*.#.#.X.X.#.X.#.X.X.{ ] ] ] ] { { { ] { ] { { { { { ] ( ( ( ( ( ] ] ( ( ( ( ] { { { { X.X.X.X.X.X.#.X.#.#.X.#.X.X.X.{ { { X.X.#.#.#.*.*.*.*.*.*.*.:.*.:.:.:.:.:.:.:.*.:.*.*.*.*.",
"5.5.5.<.5.5.5.<.<.5.<.<.<.:.:.:.*.*.*.*.#.#.#.#.#.#.X.#.#.#.#.X.X.{ ] ] ] ] ( ] ] ] ] ] ] ( ] ] ] ] ] ] ( ( ~ ~ E ~ E E ~ ( ( ] ( ( ( ( ( ] ] ] { { { { X.X.X.#.#.*.*.*.:.*.:.:.:.<.<.<.5.5.7.w.w.w.u.u.u.u.h.h.z.z.b.b.m.b.b.b.b.b.b.m.b.m.m.m.m.m.m.m.m.m.m.m.b.m.B.B.B.m.b.b.z.b.b.m.b.b.b.z.z.h.s.h.h.h.h.h.h.h.s.s.s.s.u.w.w.w.w.w.w.7.7.7.5.<.<.:.:.:.:.<.:.*.*.#.#.#.#.*.*.*.*.*.*.*.*.:.*.*.#.X.X.X.#.X.X.#.#.#.#.#.#.*.*.*.:.:.:.:.:.:.<.<.:.:.<.<.:.:.:.*.:.:.:.:.:.<.<.5.<.5.5.5.5.7.5.7.7.7.7.7.7.7.7.7.7.5.5.5.5.5.",
":.:.:.:.<.:.:.:.:.:.*.:.*.*.#.#.#.X.#.X.X.{ { { { { ] { { { { ] ( ( ~ ~ E E ~ E E E ~ ~ ~ E E E E ~ ~ E P E P K K F K K K P E E P P P P P E E ~ ~ ~ ~ ( ( ] ] ] X.X.X.#.X.#.#.#.#.*.*.:.:.<.5.5.5.7.w.w.w.u.u.u.s.h.h.z.b.b.z.h.z.z.z.z.b.z.z.b.b.b.b.b.b.z.b.z.b.b.b.m.m.m.b.z.h.h.z.z.z.z.h.h.s.s.u.u.u.u.u.u.u.u.u.u.w.w.7.7.7.5.5.5.5.<.<.:.:.*.#.#.#.#.#.#.#.#.X.{ ] { { X.X.X.X.X.X.X.#.X.X.{ ] ] ( ] ] ] { { { ] ] ] { X.X.X.X.#.#.#.#.#.*.*.#.*.*.*.*.#.#.#.#.#.#.#.#.*.:.:.:.:.:.<.<.<.<.<.<.5.<.<.5.<.<.<.5.<.<.<.<.<.",
":.:.:.:.:.:.:.*.*.*.*.*.*.#.#.X.X.{ { X.X.{ { ] ] ] ( ] ] ] ( ( ~ E E P P P E P E P P E E E P P P E E P K K K K F F F K K K P K K K K K P P P E E E E E ~ ~ ( ( { { { { X.X.X.X.#.*.*.*.:.:.<.<.5.7.7.7.w.w.u.u.s.s.h.z.z.z.h.h.z.z.z.b.z.b.z.z.b.b.b.b.b.z.z.z.z.b.b.b.m.b.z.h.h.h.h.h.h.h.h.s.s.u.w.w.u.u.w.w.w.w.w.w.w.7.5.5.5.<.5.<.<.<.:.:.#.#.X.#.#.X.#.X.X.{ { ( ( ( ] { { { { { { { { { { ] ] ( ~ ~ ( ( ] ] ] ] ( ] { { { { { X.X.X.X.X.#.#.#.#.#.#.*.#.X.#.X.#.#.#.#.*.*.*.:.:.:.:.:.<.<.<.<.<.<.<.<.<.<.<.<.:.<.:.:.:.",
"*.*.#.#.#.*.#.#.#.X.#.X.X.{ { { ( ] ] ( ( ( ( ~ ~ E E ~ ~ E E E P K F F Z Z F Z F Z F F F F F F F F F F Z m Z m v m v m m Z Z Z m m m m m Z Z F F K F K K K P E ~ ( ( ( ] ] ] { { { X.X.#.#.*.:.*.:.5.5.5.7.w.w.w.u.u.h.z.h.h.s.s.h.z.z.h.h.z.z.z.z.z.z.h.z.h.h.z.z.z.z.b.z.h.s.u.s.s.u.s.s.u.w.w.w.7.7.7.7.7.7.7.7.7.5.<.<.:.:.:.*.*.*.*.#.#.X.X.{ ] ] ] ] ] ] ] ( ~ P P E E ~ ~ ~ ~ ~ ~ ~ ( ~ ~ ~ E E P P P E ~ ~ ~ E E E ( ( ~ ~ ( ( ] ] ] ] { { { { { { X.{ { { { { { { { X.#.#.#.#.#.#.*.*.*.:.*.*.:.:.:.:.:.*.:.*.*.:.*.*.",
"7.7.5.7.7.5.5.5.5.5.<.5.5.<.:.:.*.*.*.*.#.#.X.#.X.X.X.X.X.X.{ { ] ] ( ~ ~ E ~ ~ ~ ~ ~ ~ ( ~ ~ ~ ( ( ( ( E E E E E P P E E E ~ E E E P P E ~ ~ ( ( ( ( ( ] ] { X.X.#.*.#.*.:.*.:.:.:.<.<.5.5.7.7.7.u.u.s.s.s.h.h.h.z.b.m.m.m.b.b.m.m.m.B.B.B.B.B.m.B.B.B.m.B.m.m.m.B.B.B.S.B.m.b.b.z.b.b.b.z.b.z.z.h.h.h.s.s.h.s.h.s.s.u.u.w.w.w.7.w.w.7.7.7.5.5.<.:.*.*.*.*.:.*.*.#.#.{ ] { X.X.X.#.X.#.#.#.#.#.X.X.X.{ { { X.{ X.X.#.X.{ X.#.#.#.#.#.#.:.*.*.:.<.:.<.:.:.:.<.:.:.:.:.:.<.<.:.<.5.5.5.5.7.7.7.7.7.7.w.w.7.w.w.w.w.7.w.7.7.7.7.7.",
"7.7.7.5.7.5.5.5.<.<.<.5.<.<.:.*.*.#.#.#.#.X.X.X.X.X.X.{ X.X.{ ] ( ( ~ E E E E E ~ E E ~ ~ ~ ~ ~ ~ ~ ~ E E E E P P P P P E E E P P K P K P E E ~ ~ ~ ~ ~ ( ( ] { X.X.#.*.*.*.#.*.:.:.:.<.5.5.5.7.7.w.u.u.s.s.s.h.h.z.z.b.m.B.m.b.m.m.B.B.B.B.B.B.B.B.B.B.B.m.m.m.m.B.B.B.S.B.B.m.z.z.b.b.b.z.z.z.z.h.s.s.h.s.s.s.s.s.u.u.u.w.w.7.7.7.7.w.7.5.5.<.:.:.*.*.*.#.*.*.#.#.{ { ] ] { { X.X.X.X.#.X.#.#.X.X.{ ] ] ] ] { X.X.X.X.{ X.X.#.X.X.#.#.*.#.#.*.:.:.*.:.:.:.:.:.:.*.:.:.:.:.:.<.5.5.<.5.5.7.7.7.7.7.7.w.7.w.w.w.w.7.w.7.7.7.7.w.",
"7.7.5.7.5.7.5.5.<.5.5.5.<.<.:.*.*.*.*.#.#.#.X.X.X.X.{ { { { { ] ( ( E E P P E P E E E E ~ ~ E E ~ ~ ~ ~ P P E P P P K K P E E P K K K K K P E ~ ~ ~ ~ ~ ~ ( ] { { #.#.#.#.*.*.*.:.:.:.<.<.5.5.7.7.w.u.u.s.s.s.h.h.z.b.m.m.m.b.m.m.m.B.B.B.B.B.B.B.B.B.B.B.m.B.m.m.m.S.B.B.B.m.m.b.b.z.z.z.z.z.h.h.h.s.s.s.s.s.u.u.u.u.u.u.7.7.7.w.7.7.7.7.5.<.:.:.*.#.#.#.#.#.#.#.X.{ ] ( ( { { { { X.X.X.X.X.X.{ { { ] ] ] ] { { X.X.{ { { X.X.X.X.X.#.#.#.#.*.:.*.:.:.:.:.:.:.:.:.*.:.:.:.:.<.5.5.5.5.7.7.7.7.7.w.w.7.w.w.w.w.w.w.7.7.w.7.7.7.",
"u.w.w.w.w.w.w.7.7.w.7.7.7.5.<.<.:.:.:.:.*.*.*.*.#.*.#.#.#.#.X.{ { ] ( ~ E ~ ~ ~ ~ ~ ( ( ( ( ( ( ] ( ( ( ~ ~ ~ ~ ~ E E E ~ ~ ( E E E P P E ~ ~ ( ( ( ( ( ] ] { X.#.*.*.:.:.:.:.<.<.5.5.5.7.w.w.w.u.u.s.h.h.z.h.z.z.b.b.B.S.B.B.B.B.S.S.S.S.S.S.B.S.B.S.S.S.B.S.B.B.S.S.S.G.S.B.B.m.m.m.b.b.b.b.b.z.z.z.z.z.h.h.h.h.h.s.s.s.u.w.u.u.w.w.w.w.7.7.7.5.<.:.:.:.:.:.:.*.#.X.{ ] { X.#.X.#.#.#.*.#.*.#.X.#.#.X.{ { X.#.#.#.#.X.X.X.#.#.#.*.#.*.:.:.:.:.<.<.<.<.<.<.5.<.5.<.5.<.5.5.5.7.7.w.7.w.w.w.w.u.u.u.u.s.u.s.u.u.u.u.u.u.u.w.u.u.",
"w.u.u.w.w.w.w.7.7.7.7.7.7.5.<.<.:.*.:.:.*.*.#.#.#.#.X.#.X.X.X.{ ] ( ~ ~ E E E E ~ ~ ~ ~ ( ~ ~ ( ( ( ( ~ ~ ~ E ~ E E E E E ~ ~ E P P P P P P E ~ ( ( ~ ~ ( ( { { X.#.*.*.:.:.:.<.<.<.<.5.5.7.w.7.w.u.s.h.h.h.z.z.z.b.b.m.B.S.B.B.B.B.S.S.G.S.S.S.S.S.S.B.S.S.B.B.S.S.S.S.S.S.B.B.m.m.m.b.b.b.b.b.z.z.h.h.h.h.h.s.h.s.s.s.u.w.w.w.w.w.w.w.w.7.5.5.<.:.*.*.*.*.*.*.*.X.X.] ] ] { { X.X.X.#.#.#.#.X.X.X.X.X.{ { { X.#.#.#.X.X.X.#.#.#.#.#.*.*.*.*.:.<.<.<.<.<.<.5.<.<.<.5.<.<.5.5.5.w.7.w.w.w.w.w.u.u.u.u.u.u.u.s.u.u.u.u.u.u.u.u.u.",
":.<.:.:.:.:.*.*.*.*.*.*.#.#.X.{ { ] ] ] ( ( ( ( ~ ~ E E E P P K F F Z m v v v v v m m Z Z m m Z Z Z Z m v m m v v v l v v m m l l g g l l v v m Z Z m Z F F F P E ~ ( ( ] ] ] ] { X.X.X.#.*.*.:.:.<.7.7.w.w.w.u.u.u.h.z.b.b.z.z.z.b.b.m.m.m.b.b.b.b.b.z.b.z.z.z.b.m.m.m.m.b.z.z.h.h.s.s.u.s.s.u.u.w.w.7.w.7.7.7.7.7.5.5.<.:.*.*.*.*.*.*.*.#.X.{ { ] ( ( ( ~ ( ( ~ E K F Z F K K P P P E E E E P P P P P K K P P E E E P P E E E ~ ~ ~ ( ( ( ( ] { { { { { { X.X.{ X.X.X.X.X.#.#.*.*.:.*.:.:.<.:.<.<.<.5.5.<.5.5.<.<.5.<.<.<.<.<.",
"7.7.7.7.7.5.5.<.<.<.<.<.<.:.*.*.#.#.#.X.X.X.X.{ X.{ ] ] ] ] ( ~ ~ P K F F F F F F K K K P K K P P P P P F K K F F F F F K K K F Z m m Z Z Z F K P K K K P P E ( ] ] { X.#.X.#.#.*.:.*.:.:.<.<.5.5.7.u.s.u.s.s.h.h.z.z.m.B.B.m.b.m.B.B.B.S.B.B.B.B.B.m.m.B.m.m.m.m.B.B.B.B.B.m.b.b.b.b.z.z.z.h.h.s.s.s.s.s.u.u.s.u.w.w.w.7.5.5.5.5.5.5.5.5.:.:.*.#.#.{ { { X.{ { { ( ~ E P P ~ ~ ~ ( ( ] ] ] ] ( ( ( ( ~ ( ~ ~ ] ] ] ] ( ( ( ] ] { { { { X.X.{ #.*.*.#.*.*.*.:.*.*.:.:.:.:.:.:.5.<.<.5.5.5.5.7.7.7.w.w.w.w.w.w.w.w.w.w.7.7.w.w.7.",
"s.u.u.u.u.u.w.w.w.w.w.7.7.7.5.<.<.:.:.:.:.*.*.:.*.#.X.#.X.X.X.{ ] ( ~ ~ E P P P E E E ~ ( ~ ~ ( ( ( ( ~ E E E E E E E E ~ ~ E P P K K K P P P E ( ~ ~ ~ ( ] ] { X.*.*.:.:.:.:.<.<.<.5.5.7.7.w.w.u.u.s.h.z.z.z.b.b.b.m.B.S.S.S.B.S.S.S.G.G.G.S.G.S.S.S.S.S.S.S.S.S.S.G.G.G.S.S.B.B.B.m.m.b.b.b.b.z.z.z.z.z.h.z.h.h.s.h.s.s.u.w.u.w.w.w.w.w.7.5.<.<.:.*.*.*.*.*.*.#.X.{ ] ( ( ] ] ] { X.X.#.#.#.X.X.{ X.{ { X.{ X.#.#.X.{ { X.X.#.#.#.#.*.*.*.*.:.<.<.<.<.<.5.5.5.5.5.5.5.7.7.7.7.7.w.u.w.u.u.u.s.s.s.s.s.h.h.h.s.h.s.s.s.s.s.s.u.",
"w.w.w.w.7.w.7.5.5.5.5.5.5.<.:.:.*.#.*.#.#.X.X.#.X.X.{ ] ] ] ( ~ E P P K F F F F F F K P P P P P P P P K K K K K K F F F K K K F m Z m m Z Z F K P K K K P P ~ ( ] { X.X.#.#.#.*.:.:.:.:.<.5.5.5.7.w.u.s.s.h.h.h.z.b.b.B.B.S.B.B.B.B.S.S.S.S.B.S.S.S.B.B.B.B.B.B.S.B.S.S.B.B.B.m.m.b.b.b.z.z.z.h.h.h.s.h.s.s.s.u.u.u.w.w.7.7.5.5.7.5.5.5.5.<.*.*.*.#.{ X.X.{ X.X.{ ] ~ E P P ~ ~ ~ ~ ] ] ] ] ( ] ( ( ] ( ( ( ( ] ] ] ] ( ( ( ] ] X.X.{ { X.X.X.#.*.*.*.*.*.*.:.:.:.:.:.:.<.<.5.<.5.5.7.7.7.w.w.w.w.w.u.u.u.u.u.w.u.u.w.u.w.u.w.w.",
"w.w.u.w.w.w.7.7.7.7.7.7.5.5.:.:.*.*.*.#.#.X.#.X.#.X.{ { ] ] ( ( E E K K F F Z Z F K K P P P K P P P P P K K K K K F F K K P K F Z m m Z Z Z F K P P K P P E ~ ( { { X.X.#.#.*.*.:.:.:.<.<.5.5.7.7.w.u.s.h.h.h.z.z.b.b.m.B.S.S.B.B.S.S.S.G.S.S.S.S.B.S.B.S.B.B.S.B.S.S.S.B.B.S.B.m.m.b.b.z.z.z.z.h.s.h.h.s.s.s.u.u.u.u.w.w.7.7.7.5.5.7.5.5.<.:.:.*.#.{ X.{ { X.X.{ ] ~ E P P ~ ~ E ( ( ] { ] ] ( ( ( ] ( ( ( ( ] { { ] ( ( ] ] { X.X.X.X.X.X.X.#.*.:.*.*.:.:.:.:.:.:.<.<.5.<.<.5.5.7.7.w.w.w.w.u.u.u.u.u.s.s.u.u.u.u.u.u.u.u.u.w.",
"u.u.w.u.w.w.w.w.7.7.7.7.5.5.<.:.:.*.*.#.#.#.#.#.#.X.{ { { ] ( ( ~ E P F F F Z F F F K P P P P P E P P P F K K K K K F F K P K F Z Z m Z Z Z Z K P P K P E E ~ ( { X.X.#.#.#.*.*.:.:.<.<.5.5.5.7.7.u.s.s.h.h.z.z.b.b.b.m.S.S.S.B.B.S.S.G.G.G.S.S.S.S.S.B.S.S.B.S.S.S.G.S.S.S.B.B.B.m.b.b.z.b.b.z.h.h.h.h.h.s.s.s.u.u.u.w.w.7.7.7.7.7.7.5.7.<.*.*.*.#.X.X.X.X.X.X.{ ] ( E P E ~ ~ ~ ~ ] ] { ] ] ( ( ( ( ( ( ( ( ] { ] ( ( ( ( ] { X.{ { X.X.#.X.*.*.*.*.:.*.:.:.<.<.<.<.<.5.5.5.5.7.7.w.w.w.w.u.u.u.s.u.s.s.s.s.s.u.s.s.s.u.u.u.u.",
"w.w.w.w.w.7.7.7.7.5.5.5.<.<.<.:.*.*.#.#.X.#.X.X.X.X.] ] ] ( ( E P P K F Z Z Z Z Z Z F F K K F K K K K F F F F Z F F Z F F F F Z m v v m m Z m F K K F K K P E ~ ] ] X.X.#.#.#.#.:.:.:.:.<.5.5.5.7.w.u.s.s.h.h.z.b.z.b.B.B.S.B.S.B.B.S.G.G.S.S.S.B.S.S.B.S.S.B.B.B.S.S.S.S.B.B.B.m.m.m.b.z.z.z.h.s.s.s.h.s.s.u.u.u.w.w.w.7.7.<.5.5.5.<.5.<.:.*.#.#.X.{ ] ] { { ] ] ~ E P K K P E E ~ ~ ( ] ( ( ~ ~ ~ ~ ~ ~ ~ ~ ( ] ] ( ~ ~ ( ( ] { { { X.X.{ X.#.#.*.*.*.*.*.:.*.:.:.<.<.<.<.<.5.5.5.w.7.w.w.u.w.u.u.u.u.s.u.u.u.u.u.u.u.u.u.u.w.",
"u.u.u.w.w.w.w.7.7.7.7.5.5.<.<.:.*.*.*.#.#.X.X.X.X.{ ] ] ( ( ~ E E P F F Z Z m Z Z Z Z F K F F F K F F F F Z F F Z Z Z F K K F m m m v v m m Z Z F F F F K P E ~ ] ] { X.X.#.#.*.*.*.:.:.<.<.5.5.7.u.s.s.h.h.h.z.z.b.m.B.S.S.S.B.S.S.S.G.G.G.S.S.S.S.S.B.B.B.B.S.S.S.S.G.S.B.B.B.B.m.m.b.z.z.z.h.h.s.h.s.s.s.u.u.u.u.w.w.7.5.5.5.5.<.5.<.<.:.#.#.#.X.{ ] { { ] { ] ~ E K K K E P P E ~ ( ( ( ~ ~ ~ ~ ~ E E E ~ ~ ] ( ~ ~ ~ ~ ( ] { { { { X.X.{ X.#.*.#.*.*.*.:.:.:.:.<.<.<.<.5.5.5.7.7.7.w.w.w.u.u.u.u.s.s.s.s.s.s.s.u.u.u.u.u.u.",
"u.w.w.w.w.7.7.7.5.5.5.5.5.<.:.:.*.#.#.X.X.X.{ X.{ ] ] ( ( ~ ~ P P K F Z m m m m m m Z Z Z Z Z F F Z Z Z Z m Z Z Z Z m Z Z Z Z m v l l l v v v Z F Z Z F F K P E ( ] ] { X.X.#.#.*.*.*.:.:.<.<.5.7.7.u.s.s.h.h.h.z.z.b.B.B.S.B.S.B.S.S.G.G.G.S.S.S.S.B.S.S.B.B.B.S.S.S.S.S.B.B.m.m.b.b.b.z.z.h.h.s.s.s.s.s.u.u.w.w.w.7.7.7.5.<.<.<.<.:.<.:.*.#.X.#.{ ] ] ( ] ] ( ( ~ P K F F K P P E ~ ~ ~ ~ ~ E E E E P E P E ~ ( ( ~ E E ~ ~ ( ] { ] ] ] { { X.#.#.#.#.#.*.*.*.*.*.:.:.:.<.<.<.5.5.7.7.w.w.w.w.w.u.u.s.u.s.u.u.u.u.u.u.u.u.u.w.",
"s.s.u.u.s.u.w.u.w.w.w.7.7.5.<.<.:.:.*.*.#.#.#.#.#.X.{ ] ] ] ~ ~ E P K K F Z Z Z F F F K K K K K K K F K F F F F F F F F K K K Z Z m m m m Z Z F K K F K K P ~ ( ] { X.#.#.*.*.:.:.:.<.<.5.5.7.w.w.u.s.h.h.z.z.z.b.b.m.B.S.S.G.S.S.G.G.G.G.G.G.G.G.G.G.S.S.S.S.S.S.S.G.G.G.S.S.B.B.m.m.b.b.b.b.z.h.h.h.h.h.s.s.s.u.u.u.u.w.7.5.5.5.5.<.5.5.:.*.#.#.X.{ { { { X.{ ] ( ~ P K P E E E ~ ( ( ] ( ( ( ( ( ~ ~ ~ ~ ~ ( ] ] ( ( ( ( ] ] { { { X.X.X.X.#.*.*.*.*.:.:.:.:.<.<.<.5.5.5.7.7.7.w.w.u.w.u.u.s.s.s.s.s.h.h.h.h.h.h.s.h.h.s.s.s.",
"u.u.s.u.u.u.u.w.7.7.7.7.7.5.<.<.:.:.*.*.#.#.#.X.X.{ ] ] ( ( ~ E E P K F F Z m Z Z Z Z F K F F F K K F Z Z Z Z F F F F F F K F m m v v v m m m Z F F F K K P E ( ] ] { #.#.#.*.*.:.:.:.<.<.<.7.7.w.u.s.s.h.z.h.z.b.b.B.B.S.S.S.S.S.S.G.G.P.G.G.G.G.G.G.S.S.S.S.S.S.S.G.G.G.S.S.S.B.m.b.b.b.z.z.z.h.h.h.h.h.s.u.u.u.u.w.w.w.7.5.5.5.5.<.<.<.:.#.#.#.X.] ] ] ] ] ] ] ~ E P F K P P P E ~ ( ( ( ~ ~ ~ ~ E E E E E ( ] ( ( ( ~ ~ ( ] ] { { { { X.X.#.*.*.*.*.*.*.:.:.:.<.<.<.<.5.5.7.7.7.w.u.u.u.u.u.s.s.s.s.s.h.h.s.s.s.s.s.s.h.s.s.",
"w.w.w.w.7.7.5.5.5.5.5.<.<.:.*.*.*.X.X.{ { { ] ] ] ( ~ E E E K K F Z m v v v l l l l l l m v v m m v v l l l l l v v v v v m v l g i i g g l g l l v v m m Z K P E ~ ( ] ] { X.X.X.#.#.#.*.:.:.5.7.7.w.u.s.s.s.h.z.b.m.m.B.S.B.S.B.S.S.S.S.S.S.S.S.S.S.S.B.B.B.B.B.S.S.S.S.B.m.m.m.b.z.h.h.h.h.s.s.u.s.u.u.u.w.7.w.7.7.5.5.:.:.:.:.*.#.#.#.X.{ ] ] ( ~ E ~ ~ E ~ P K K Z v m Z F Z K K P P K K K P K F Z F F K P E E P P P P P E E ~ ~ ( ( ( ( ] X.X.X.X.X.X.#.#.#.#.*.*.:.:.:.<.<.5.5.5.7.7.w.w.w.w.u.u.u.u.u.u.u.u.u.u.u.w.u.w.",
"h.s.s.s.s.s.u.u.w.u.w.w.7.7.7.5.<.<.*.*.*.#.#.#.#.X.{ { ] ( ( ~ E P K K F F Z F F F F F K K K K K K F F F Z Z K K F F K K K K Z m m m m Z Z Z F F F F K K P ~ ] ] { X.#.*.*.:.:.:.<.<.<.<.5.7.w.u.s.h.h.z.z.z.b.b.m.B.S.S.G.G.G.G.G.P.G.P.G.P.G.P.G.G.G.G.G.S.G.G.G.G.G.P.G.S.S.B.B.m.m.b.b.b.z.z.h.z.z.h.h.u.s.s.u.u.u.u.7.7.7.7.5.<.<.<.:.#.#.#.X.{ { { { { { ] ( ~ P K K P E E ~ ( ( ( ( ( ( ( ( E E E ~ ~ ( ] ] ] ( ( ( ] ] { { X.{ X.X.X.*.*.*.:.:.:.:.:.<.<.<.5.5.5.7.7.w.w.u.u.u.u.s.s.s.s.h.h.h.z.h.h.z.z.h.h.h.h.h.h.h.",
"s.s.u.u.u.u.u.w.7.7.7.7.7.5.<.<.:.:.#.*.#.X.X.X.{ { ] ] ( ~ E P K K F F Z m m m m m m Z Z Z Z Z F Z m m v m m m Z Z Z Z Z Z Z v l l v v v v v m m Z Z F F K E ~ ( ] { { X.#.*.*.*.*.:.:.<.<.5.7.w.u.s.s.h.h.h.z.b.b.B.S.S.S.S.S.S.G.G.P.G.G.G.G.G.P.G.G.S.G.S.S.S.S.G.G.G.S.S.B.B.B.b.b.b.z.z.z.s.h.h.h.h.s.u.u.u.u.w.w.7.7.<.5.5.<.:.:.:.*.X.X.{ ] ] ( ] ] ] ( ~ E E K Z F K K K P ~ E E E E ~ ~ E P K K P P E ( ( ~ ~ E ~ ~ ~ ( ] { { { { { X.#.#.#.#.#.*.*.:.:.:.:.<.<.<.5.7.7.7.w.u.w.u.u.s.s.s.h.s.h.h.h.h.h.h.h.h.h.s.s.s.",
"h.h.h.h.h.s.s.s.u.u.u.u.u.w.7.7.5.<.:.:.:.*.*.*.#.#.{ { { ] ( ~ ~ E K K K K F F F F F K K P P P P K K F F F F F K K K K K K K F m Z m Z F Z Z F F F P P P E ( ] { X.#.*.*.:.:.:.<.<.<.5.5.7.w.u.s.s.h.z.b.z.b.b.B.B.S.G.S.G.G.G.G.P.P.P.P.P.P.P.P.P.P.G.G.G.G.G.G.P.P.P.P.G.S.S.S.B.B.m.m.b.b.b.z.z.z.z.z.h.s.s.s.s.s.u.u.w.w.w.w.7.<.5.5.:.*.#.#.#.{ X.X.X.{ { ] ] ( E P P E E E ( ( ] ( ( ( ] ] ] ~ E ~ E ( ( ] ] ] ] ] ] ] ] { { X.X.X.X.#.*.*.:.:.:.:.:.<.<.<.<.5.7.7.w.7.w.u.u.s.s.s.s.h.h.h.z.z.z.z.z.b.z.z.z.z.z.z.z.z.z.",
"s.s.u.s.u.u.u.w.w.w.7.7.7.5.5.<.<.:.*.#.#.#.X.{ { ] ( ( ~ ~ P P K F Z Z Z m m m v m v Z Z m Z Z Z Z v v v l v v m Z Z Z Z Z Z v l l l l v v v v v m m Z Z K P ~ ( ] ] { X.#.#.*.*.*.:.:.:.<.5.7.w.u.u.s.h.h.h.b.b.m.B.S.S.G.G.G.G.G.G.G.P.G.G.G.G.G.P.G.S.G.S.S.S.G.G.G.G.S.S.S.S.m.m.b.z.b.z.h.h.h.h.h.s.s.u.w.u.w.w.w.w.7.<.<.5.:.*.*.*.#.X.{ { ] ( ] ] ( ( ( ~ E P K Z F F K K P E E E P P E E P K F F K K E ~ ~ ~ E E E E ~ ~ ( ] ] ] ] ] { X.#.#.*.#.*.:.*.:.:.:.<.5.<.5.5.7.7.w.w.u.u.u.s.s.s.s.h.h.h.h.h.h.h.h.h.s.h.s.s.",
"b.b.z.z.b.z.h.h.s.s.s.s.s.u.u.w.w.7.5.<.<.<.:.:.*.#.#.X.X.{ ] ( ( E E E E E P K P K P P E E E E E P P K K F K P P E E E E E E K F F F K K K K K K P E E E ( ] X.#.#.*.*.<.<.5.5.5.5.7.7.7.w.u.s.h.z.z.b.b.m.m.B.B.S.G.G.P.G.P.P.P.P.P.Y.Y.P.Y.Y.Y.Y.Y.P.P.P.P.P.P.P.P.P.P.P.G.G.G.S.S.B.m.B.B.m.b.b.b.m.b.b.h.z.h.h.h.h.s.s.w.u.u.w.7.5.7.5.:.*.*.*.#.#.#.#.#.X.{ { { ( E ~ ( ( ( ] { { ] ] ] { X.] ( ( ~ ( ( { X.X.X.X.{ { X.X.X.#.*.#.#.*.*.:.<.<.<.5.<.5.5.7.7.7.w.w.w.w.u.u.s.s.h.h.h.z.z.z.b.b.b.b.m.m.m.B.m.m.m.m.b.b.b.b.",
"b.b.z.b.z.z.z.h.s.h.s.s.s.u.w.w.w.7.5.5.5.<.:.:.*.#.X.X.X.{ ] ( ( ~ E E P P P K K P P E E E P E E P P K F K F K P P E E P E E P F F F K K K K F K P E E E ( { X.X.#.*.:.<.<.5.5.5.5.7.7.7.w.u.h.h.z.z.b.b.m.m.B.S.G.G.P.G.P.P.Y.P.Y.Y.P.Y.Y.P.Y.Y.Y.Y.P.P.P.P.G.P.P.P.P.P.P.P.G.G.S.S.S.B.B.B.m.b.b.m.b.b.z.h.h.h.h.h.h.h.u.u.u.u.w.7.7.7.5.:.*.*.#.#.X.#.#.#.X.X.{ ] ( E ~ ~ ( ( ] { ] ] ] ] { { { ( ~ ~ ( ] { X.X.X.{ { X.{ X.X.X.#.#.#.#.*.:.<.<.<.5.5.5.7.5.5.7.w.w.w.u.u.u.s.s.h.h.z.z.b.b.b.b.b.m.B.m.B.m.B.B.m.B.m.m.m.b.",
"b.b.b.z.b.z.z.h.h.s.s.s.s.u.w.u.w.7.7.5.<.<.:.*.*.#.#.X.{ ] ] ( ~ ~ E E E P P K P K P P P P P E E P K K F F F K P E P P E E E K F F F K P K K K K P P E ~ ~ ] X.#.#.*.:.<.<.<.5.5.5.7.7.w.w.u.s.h.z.z.b.m.m.m.B.B.S.G.G.P.P.P.P.P.Y.P.Y.P.Y.Y.Y.Y.Y.Y.Y.P.P.P.P.P.P.Y.P.P.P.P.G.G.S.S.B.B.B.B.B.b.b.b.b.b.z.h.h.h.h.h.h.s.s.u.u.u.7.7.7.7.<.:.*.*.#.#.#.#.#.#.X.{ { ] ( E ~ ( ( ( ] ] ] ] ( ] { X.] ( ~ ~ ( ( { X.X.{ { { { { X.X.#.#.#.*.*.*.*.<.<.<.<.<.5.5.7.7.7.7.w.u.w.u.u.s.s.h.z.z.z.z.b.b.b.m.m.m.m.B.m.m.B.m.m.m.m.m.b.",
"z.z.z.z.z.z.h.h.s.s.s.s.s.u.w.w.w.5.5.<.<.:.:.#.X.X.{ { { ] ~ ~ E P P P P K F F F F K K P P K K K K F Z Z Z Z Z K F K K K K K F Z Z Z F F K F F F F P P P ~ ( ] X.X.#.*.:.:.<.<.<.5.5.5.7.7.w.s.h.h.z.z.b.b.b.m.B.S.G.G.G.G.P.P.P.Y.P.Y.P.Y.Y.Y.Y.Y.Y.P.P.P.P.P.P.P.P.P.P.P.G.G.G.S.B.S.B.m.m.m.z.z.b.b.b.z.h.h.s.s.s.s.s.u.w.w.w.7.5.5.<.:.*.#.X.X.X.X.X.X.{ { ] ( ~ E E P E ~ ~ ( ( ~ ~ ~ ( ( ] ( E E E E ( ( ] { ] ] ] ] { { ] { X.X.X.#.#.*.:.:.:.<.<.<.<.<.<.5.7.w.7.w.w.u.u.s.s.h.h.h.z.z.b.b.b.m.m.m.m.m.m.m.b.m.m.b.b.b.",
"h.s.s.s.s.s.u.u.w.w.w.7.7.7.5.5.<.:.*.*.#.X.X.{ ( ( ~ E E P P K F Z Z m m m v l v v v m m m m m m v l l l g l l l v m m m m v v l l l v v m v v l v m Z Z F K E ~ ] ] { X.X.#.#.#.*.*.:.:.:.5.7.u.u.s.s.h.h.z.b.m.m.B.S.S.S.G.G.G.G.P.G.G.P.P.P.P.P.P.G.P.G.G.G.G.G.G.G.G.S.S.S.B.B.m.b.b.b.z.h.h.h.h.h.h.s.u.w.w.w.w.w.7.7.5.5.<.:.*.#.#.X.{ ] ( ( ~ ~ ~ ~ ~ E P P K F Z Z F F K K K K F F K K P K F Z Z F K P E E E P P E E E E ~ ( ( ( ] { { X.X.X.#.#.#.#.#.*.:.:.<.<.5.5.5.7.w.w.u.u.u.s.s.s.s.h.h.h.h.z.h.z.h.h.z.h.z.h.h.",
"z.z.h.h.h.h.s.u.u.u.u.u.u.w.7.7.5.<.:.:.:.*.#.X.{ ] ] ( ~ ~ E P K K Z F F Z m m m Z Z Z Z Z Z F Z Z m m v v v m m m m Z F F Z m m m m Z Z Z Z m m Z F K K P E ~ ] ] X.X.#.#.*.*.:.:.<.<.<.5.7.u.u.s.h.h.z.z.z.b.m.B.S.S.S.G.P.G.P.P.P.P.P.P.P.P.Y.P.P.P.P.P.G.P.G.P.P.P.G.P.G.S.G.B.B.m.m.b.b.z.h.h.h.z.z.h.s.u.u.u.u.u.u.w.7.5.5.<.:.:.*.*.#.{ { ] ] ] ( ] ( ( E E P K K K P P P E P P P P E E ~ P K K K K E ~ ( ( ~ ~ ~ ~ ~ ( ( ] ] { { X.X.#.#.#.*.#.:.*.:.:.:.:.5.5.7.7.7.w.w.u.s.s.s.h.h.h.z.z.b.z.z.z.z.b.b.b.b.z.z.z.z.z.",
"h.h.h.s.s.s.s.u.w.u.w.w.w.7.7.7.<.<.:.*.*.#.X.{ ] ( ~ ~ E P E K F Z Z Z Z m v v v m m m m m m m m m v l l l l l l v v m m Z m v v v v m Z m m m v v m F F F K E ( ] { X.X.X.#.#.#.*.:.:.:.<.7.w.u.s.s.s.h.h.z.b.m.B.B.S.S.G.G.P.P.P.P.P.P.P.P.P.P.Y.P.P.P.G.G.G.G.G.P.G.G.G.G.S.B.B.m.m.b.b.b.h.h.h.h.h.h.h.s.u.w.u.w.w.w.7.7.5.<.:.*.*.#.X.{ ] ( ( ~ ( ~ ( ~ E P K K F Z F F K P P K F F F K P P P F F F F K P E E P E E E E E E ~ ( ( { { { X.X.X.#.#.#.*.*.*.*.:.:.<.5.5.5.7.7.w.u.u.s.s.s.h.h.h.z.z.z.z.z.z.z.z.z.z.z.z.z.h.",
"z.h.h.h.h.s.s.u.u.w.u.w.w.w.7.5.5.<.:.:.*.#.X.{ ] ( ( ~ E E P K F Z Z Z Z Z v v v m Z m Z m Z m m m v v l l v l l v v Z Z Z m v m m m m Z Z m m m m Z F F K P E ( ] { { X.#.#.#.*.*.:.<.:.<.7.w.u.s.h.h.h.z.b.b.m.B.S.S.S.G.G.P.P.P.P.P.G.P.Y.P.Y.P.Y.P.P.P.P.P.P.P.P.G.G.G.G.G.S.S.m.m.m.b.b.z.h.h.h.z.h.h.s.u.w.w.u.w.w.w.w.7.<.:.:.*.*.#.X.{ ] ( ( ( ( ( ( ~ E P K F F F K K P P F F K K P P P P F F F K P E ~ ~ E E E E ~ ~ ~ ( ] ] { { { X.X.#.#.#.*.*.*.*.*.:.<.5.5.7.7.w.w.w.u.s.s.h.h.h.h.z.z.z.b.z.z.b.z.b.z.b.z.z.z.z.",
"b.b.b.b.b.z.z.h.h.h.s.s.s.u.u.w.w.7.7.5.5.:.*.#.X.{ { { ( ( ( E E P P K P K Z Z F F K K F K K K K F F Z m Z Z Z m Z F K P P K F F F F K P P K F F K P E E E ~ ] X.X.#.*.*.*.:.:.<.5.5.7.7.w.w.s.h.h.z.z.b.b.m.B.B.S.S.G.G.P.P.P.P.Y.Y.P.P.Y.Y.Y.Y.Y.Y.Y.Y.Y.Y.P.P.P.P.P.P.P.G.G.G.S.S.B.B.B.m.b.b.z.z.b.b.z.z.h.s.s.s.s.s.u.s.w.7.7.5.5.<.:.*.#.X.{ X.{ X.{ X.{ ( ~ ~ E E E E ~ ( ~ E E E ~ ~ ( ( ~ E E E E ~ ] ] ] ] ( ( ] ] ] ] { X.X.#.#.*.*.:.*.:.<.<.<.<.<.5.5.7.w.w.u.u.u.u.s.h.z.z.z.z.b.b.m.m.m.m.B.m.B.m.B.B.m.m.m.m.m.",
"b.b.b.b.z.z.z.h.h.s.h.s.s.s.u.u.w.7.5.5.<.<.*.#.X.X.{ ] ( ( ( ~ P P K P P K Z F F F K F K K K K F F Z Z m Z Z Z Z Z F K P P F F F F K K P P K F F F P P E E ~ ] { X.#.#.*.:.:.<.<.5.7.7.7.7.u.s.h.z.z.b.b.b.m.B.S.S.G.G.G.P.P.P.Y.Y.Y.Y.Y.P.Y.Q.Y.Q.Q.Y.Y.Y.Y.Y.Y.Y.Y.Y.P.P.P.P.G.S.B.S.B.B.B.m.b.z.b.b.b.z.z.h.u.s.h.h.s.u.s.w.7.5.5.<.<.:.*.#.X.X.X.{ { X.{ ] ( ~ E E E E E ~ ( ( E E E E ~ ( ( ~ E E E ~ ( ( ] { ( ] ( ] ] { ] { { #.#.#.*.*.*.:.:.:.<.<.<.<.<.5.7.w.w.w.u.u.s.s.h.z.z.z.b.b.b.m.m.m.B.m.B.m.B.B.B.m.B.m.m.B.",
"h.h.s.s.s.s.u.u.w.7.w.7.7.7.7.5.<.:.:.*.#.X.{ ] ~ ~ ~ P K K K F Z m v v m l g g g l l v l l l l l g g g i i g g i g l l v v l l l l l v m m v l l l m m m Z F P ~ ~ ] ] { { X.X.X.#.*.:.:.:.5.7.w.u.s.s.s.h.z.b.b.m.B.S.S.G.G.G.P.P.P.G.P.P.P.P.P.P.P.P.P.P.G.P.G.P.G.G.S.G.S.S.B.B.m.b.m.b.z.h.s.s.h.h.h.s.u.w.7.w.w.7.7.7.5.<.:.*.#.X.X.{ ] ( ~ E E E E E E P K Z Z m Z m Z Z F F Z m m Z F F F F m Z m Z F K E P P K K P E P P E ~ ~ ( ] ] { { { X.X.X.#.X.#.*.*.:.<.<.5.5.5.7.w.w.u.s.s.s.s.h.h.h.z.z.z.z.z.z.b.z.z.z.z.z.z.",
"b.z.z.z.z.h.h.h.s.s.s.s.u.u.w.7.7.5.<.<.:.*.#.X.{ ] ] ( ~ E E P K F F F F Z m m Z m Z Z Z Z Z Z Z m m v v v v v v m m Z K F Z m Z Z Z Z K K F Z m Z F K K P E ~ ] { X.X.X.#.*.*.:.<.<.<.5.5.7.u.s.h.z.z.z.b.m.m.B.S.S.G.G.G.P.P.P.P.Y.Y.P.Y.Y.Q.Y.Y.Y.Y.Y.Y.P.Y.P.P.P.P.P.P.G.G.S.S.B.B.m.m.b.b.z.z.z.z.z.z.h.s.u.u.u.u.u.w.w.7.5.<.:.:.*.*.#.{ ] ] ] ] ] ] ( ( ~ P P K K K P P E P K K K K P E E P K K K P E ~ ( ( ~ ~ ~ ~ ( ( ( ] ] { X.X.#.#.#.#.*.*.:.:.:.*.:.<.5.7.7.7.w.w.u.u.s.h.h.h.z.b.b.b.b.b.m.b.b.m.m.m.m.m.b.b.b.b.",
"m.m.m.m.m.b.b.z.z.z.h.h.h.s.h.u.u.w.w.7.7.<.<.*.#.X.X.{ ] ] ( ( E E P E P P K K K K P P P P P P K K K F Z F F F F F K P ~ E K K K K P E E E P P K K E E ~ ( ( { X.#.*.*.:.<.<.<.5.7.7.w.w.u.u.h.z.b.b.b.m.m.B.S.G.G.G.G.P.P.P.Y.Y.Y.Y.Q.Y.Y.Q.Q.Q.Y.Q.Q.Y.Q.Y.Y.Y.Y.Y.Y.P.P.P.P.P.G.S.S.S.B.B.B.b.b.m.m.m.b.b.z.h.h.h.h.s.h.s.u.w.7.7.5.<.<.:.*.#.#.#.X.#.X.#.{ ] ( ( ~ ~ E ~ ( ] ( ~ ~ ~ ~ ( ] ( ( ~ ~ ~ ( ] ] { X.{ { { { { X.X.X.#.#.*.*.:.:.:.<.<.<.5.5.5.5.5.7.w.u.s.u.s.s.h.h.z.b.b.b.m.m.B.B.B.B.B.S.B.S.B.S.S.S.B.B.S.B.",
"b.b.z.z.z.z.h.h.s.s.s.u.u.u.w.7.7.5.5.<.<.:.#.X.{ ] ] ( ~ E E P K F F F F Z m m m m Z Z Z Z Z m m m v v l v v v v m Z Z F F m Z Z Z Z Z F Z Z Z m Z F F K P E ~ ] ] { X.#.#.*.:.:.<.<.5.5.7.w.u.s.h.h.z.z.b.m.B.B.S.G.G.G.G.P.P.P.Y.Y.Y.Y.Y.Y.Y.Q.Y.Y.Y.Y.Y.Y.Y.P.P.P.P.P.P.G.G.G.S.B.B.B.m.m.b.z.z.b.z.z.h.h.s.s.u.u.u.w.w.w.7.5.<.<.:.*.#.X.{ { ] ] ] ] ] ( ~ E E P P K K K P P E P K K K E E E P P K K P E ~ ( ~ ~ ~ ~ ( ( ( ( ] ] { X.X.X.X.#.#.*.*.*.:.:.:.:.<.5.7.7.7.w.w.u.u.s.h.h.z.z.z.b.m.m.b.m.m.m.m.m.m.m.m.m.m.m.m.",
"z.z.h.h.h.s.s.s.u.w.u.w.w.7.7.5.5.<.<.:.*.#.X.] ] ( ~ E P P K K Z Z m m m m v l l l v v v v v v v l g i g g g g g l v m Z m v v v v v v m m v v v v m Z F F K E ~ ( ] { { X.#.#.*.:.:.:.<.5.7.w.u.s.h.h.z.z.b.m.m.B.B.S.G.G.P.P.P.P.Y.P.Y.P.Y.Y.Y.Y.Y.P.P.Y.P.P.P.P.P.P.G.G.G.S.S.B.B.m.m.b.z.z.h.h.h.h.h.h.s.u.w.w.w.w.7.7.5.<.:.:.*.#.X.X.] ] ( ( ~ ~ ~ E E E P K K Z m Z Z F F K F Z Z Z K K K K Z Z F F F P E E P E E E E E ~ ~ ( ] ] { { { X.X.X.#.#.*.#.*.*.:.<.5.5.5.7.7.w.w.u.s.s.h.h.h.z.z.b.b.b.b.b.b.b.b.b.b.b.b.b.z.",
"b.b.b.z.z.z.z.h.s.s.s.s.u.u.u.w.7.7.7.5.<.:.*.X.X.{ ] ( ~ E E P P K F F F Z Z Z Z Z Z F Z Z m m Z m v v l v v v m Z Z F K F Z Z Z Z F F F F Z Z Z Z F K P E E ~ ( { X.X.#.*.:.:.<.<.<.5.7.w.u.u.s.h.z.z.b.m.B.B.B.S.G.G.G.G.P.P.Y.Y.Y.Y.Y.Y.Y.Q.Q.Y.Y.Y.Y.Y.Y.Y.P.Y.P.P.P.P.P.G.G.S.S.B.m.m.b.b.z.b.b.z.z.z.h.s.s.s.s.s.u.u.w.7.5.<.<.:.*.#.X.X.X.{ ] ] ] ] ] ( ~ E E P K K K P P E P P K P E E E P P P P P E ~ ( ( ( ( ( ( ( ] ( ] { X.X.X.#.#.#.#.*.*.:.:.:.<.<.<.5.7.w.w.u.u.u.s.s.h.h.z.b.b.m.b.m.m.m.m.B.B.B.B.B.B.m.m.m.m.",
"b.b.z.z.z.h.h.s.s.u.s.u.u.w.7.7.7.5.5.5.<.*.#.X.{ ] ( ~ E E P K K F F Z Z m m m m m m m m m v m v v l g l l v l v m m F F Z m m m Z m Z Z m Z m m m Z F K P E ~ ~ ] ] { X.*.:.*.:.:.<.<.5.7.w.u.s.h.h.z.z.b.m.B.B.S.S.G.S.G.P.P.P.Y.Y.Y.Y.Y.Y.Y.Y.Y.Y.Y.Y.Y.Y.Y.Y.P.P.P.P.P.P.G.S.S.S.B.m.m.b.b.z.z.z.z.z.h.s.s.s.u.u.w.w.7.7.5.5.:.:.*.#.X.{ { { ] ] ( ( ( ~ ~ ~ P P K F F F K K P K K F K P P K K K K P K P E E ~ ~ ~ ~ ( ( ( ( ( ] { { { X.X.X.#.#.*.*.:.:.:.<.<.5.5.5.7.7.w.u.u.s.s.h.z.z.b.b.b.b.b.m.m.m.m.m.m.m.m.m.B.m.b.",
"m.m.m.m.b.b.z.z.z.h.h.h.s.s.s.u.w.w.7.7.5.5.*.*.#.X.X.{ ] ( ~ ~ ~ P P P K K F K F K K K K K F F F Z m m m m Z Z Z F K P P P K K K K K K K K K F K K K E ~ ( ( ] { { #.#.*.:.<.5.5.5.5.w.u.u.s.h.h.z.b.m.b.m.B.S.S.G.G.G.G.P.Y.Y.Y.Q.Y.Y.Y.Q.Q.Q.Q.Q.Q.Q.Y.Q.Y.Y.Y.Y.Y.Y.P.P.P.P.G.G.S.S.S.B.B.m.b.b.b.b.b.b.z.z.z.h.h.s.s.u.u.w.w.7.5.<.<.*.#.#.*.#.X.X.X.X.{ { ] ] ~ ~ P P P E E ~ ~ ~ E E ~ ( ~ ~ E E ~ ~ ~ ( ] ] ] { { { { { { X.#.#.*.#.*.:.*.:.:.<.<.<.5.5.5.7.w.w.w.u.u.s.s.h.z.z.z.b.m.m.m.B.B.B.B.B.S.B.S.S.S.S.B.B.B.B.",
"B.B.m.m.m.b.b.b.z.h.z.h.h.s.s.s.u.u.w.w.7.5.:.*.*.#.X.{ ] ] ( ( ~ E P P P K P K K K K P K K F F K F Z Z Z Z Z F F K P E E E P P P P E P P P P P P P P E ( ( ] ] { X.#.:.:.<.5.5.7.7.7.w.u.s.s.h.z.z.b.m.B.B.S.S.G.G.G.P.P.P.Y.Y.Y.Q.Y.Q.Y.Q.Q.Q.Q.Q.Q.Y.Q.Q.Y.Q.Q.Q.Y.Y.Y.Y.P.P.P.G.G.S.S.S.B.m.m.m.m.m.b.b.b.z.z.z.z.h.s.s.u.w.w.7.5.5.<.:.*.*.*.*.#.X.X.X.X.{ { { ] ~ E E E E ~ ~ ( ~ ~ ~ ( ( ( ~ ~ ~ ( ( ( ] ] { X.{ X.X.X.X.X.#.*.#.*.*.*.:.:.:.<.<.5.5.5.5.7.7.w.w.u.s.s.h.h.h.z.b.b.m.m.m.B.B.S.S.S.S.S.S.S.S.S.S.S.B.S.S.",
"b.b.z.z.z.h.h.s.s.s.u.u.u.w.7.7.5.5.5.5.:.:.X.X.{ ] ( ~ ~ P P K K F Z Z Z m m m m m v m m m v v v l g g g l g l v v m Z Z Z m Z Z m Z m m m m m m m m F K P E E ~ ( ] { X.#.*.:.<.:.<.<.5.7.w.u.s.s.h.z.b.m.m.B.B.S.S.S.S.G.P.P.P.Y.Y.Y.Y.Y.Q.Y.Q.Y.Y.Y.Y.Y.Y.Y.P.P.P.P.P.P.G.G.S.S.S.B.B.m.b.b.z.z.z.b.z.h.s.s.s.u.u.w.w.7.7.5.<.:.:.*.#.{ { { { ] ] ( ( ~ ~ ~ E P P F Z Z Z Z F K K K F K P K K K F F K K K P E E ~ ~ ~ ~ ~ ( ~ ] { { { { { X.X.X.#.#.*.*.:.:.:.<.5.5.7.7.7.w.u.u.s.s.h.z.z.z.b.b.b.b.m.m.m.m.B.m.B.m.m.m.m.b.",
"m.b.b.b.z.z.z.h.h.s.s.s.u.u.u.7.7.7.7.5.5.:.#.#.X.{ ] ( ( ~ E E P K F F F Z Z Z Z Z Z Z F Z m Z m m v l v v v v m m F K K K Z F F F F F Z Z Z Z Z Z F K E ~ ~ ~ ( ] X.X.#.*.<.<.<.5.<.5.7.w.u.u.s.z.z.z.b.m.m.B.S.S.G.S.G.G.Y.P.Y.Y.Y.Y.Q.Y.Y.Q.Q.Y.Q.Y.Y.Y.Y.Q.Y.Y.Y.P.Y.P.P.G.G.S.S.S.B.m.m.b.b.b.b.z.z.z.h.h.h.s.s.u.u.w.w.7.5.5.<.:.#.#.X.X.#.X.{ ] ] ( ( ( ( ~ E P K K F K K P E P P P E E P P K P E P E E ~ ~ ( ( ] ( ] ] ] { X.X.X.#.#.#.#.*.*.*.:.:.<.<.<.5.5.7.w.w.u.u.u.s.h.z.z.z.b.b.b.m.m.m.m.B.B.B.B.B.B.B.B.B.m.m.",
"b.b.z.z.h.h.h.s.s.u.u.u.w.w.w.7.5.5.5.<.:.*.#.{ ] ] ( ~ ~ P K K K F Z m m m v v v v v m m v v v v l g i g g g l l v m m Z m m m m Z m m m m m v m m m F P P P E E ~ ] { { #.*.*.:.:.<.<.7.7.w.u.u.s.h.z.z.b.m.B.B.S.S.S.S.G.P.P.Y.P.P.Y.Y.Y.Q.Y.Y.Q.Y.Y.Y.Y.Y.Y.Y.Y.P.P.P.P.G.G.S.S.B.B.B.b.b.z.z.h.z.z.z.h.s.s.s.u.u.w.7.7.7.5.<.:.*.#.X.{ { { { { ( ( ( ~ ~ E E E P F Z m Z m Z F K K K K K K F K F K K K K P P E E ~ ~ ~ ~ ( ( ] ] { { { { X.X.X.#.#.*.*.*.:.:.<.<.5.5.7.7.w.w.u.s.s.h.h.h.z.b.z.b.b.m.m.m.m.m.m.m.m.m.m.b.m.",
"b.b.z.z.z.z.z.h.s.h.s.u.u.u.w.w.w.7.5.5.5.:.#.#.{ { ] ( ~ ~ E E P P F F Z Z m Z Z m Z Z Z m m m m v v l l l v l v m Z F F F F F F F F F F Z Z Z Z Z F K P E E ~ ~ ( { X.#.*.:.:.<.5.5.5.7.w.u.u.s.h.h.z.b.m.B.B.S.S.S.S.G.G.P.P.Y.Y.Y.Y.Q.Y.Q.Y.Q.Y.Q.Y.Y.Q.Q.Y.Y.Y.Y.P.P.P.P.G.G.S.S.B.S.m.b.b.z.z.z.b.z.z.h.s.s.s.s.u.u.w.7.7.5.<.:.*.*.X.{ X.#.X.{ ] ( ( ( ( ~ E P P F F F F K K P E E P E P P P K K P P E P E ~ ~ ( ( ] ] ] ] { X.X.X.X.X.#.#.#.*.*.*.:.:.<.<.5.5.5.7.w.w.u.u.s.s.h.z.z.z.b.b.m.m.m.m.B.B.B.B.B.B.B.B.B.m.m.",
"m.b.b.b.z.z.h.h.h.s.s.s.s.u.w.w.7.7.7.7.<.:.*.X.X.{ ] ] ~ ~ E E E P F F Z Z Z m m Z Z Z F Z m Z m v v l l l v v v m Z F F F F K K F F F F F Z Z Z Z F K E E E ~ ( ] { X.#.*.:.:.5.<.5.7.7.w.u.s.s.h.z.b.m.B.B.B.S.S.G.G.G.G.P.P.P.Y.Y.Q.Y.Q.Q.Q.Q.Q.Q.Y.Y.Y.Y.Y.Y.Y.Y.Y.P.P.P.G.G.S.S.S.B.B.m.b.z.z.b.z.z.z.h.h.h.s.u.u.u.u.w.w.5.5.:.*.#.#.X.X.#.X.{ ] ] ( ( ( ~ ~ E K F F F F K K P E E ~ E E P P P P E P E E E ~ ~ ( ( ( ( ] { { X.X.X.#.#.#.#.*.*.*.:.:.<.<.<.5.5.5.7.w.w.u.s.s.h.h.z.z.b.b.m.m.m.m.B.m.B.m.B.B.B.B.B.B.m.m.",
"b.z.z.z.h.h.h.s.s.u.s.u.w.w.w.7.5.5.<.<.:.*.#.X.{ ] ( ( ~ E P P K F F m m m v v v v m Z m m m v v l g g g g l g l l v m Z Z Z Z F Z Z m Z m Z m m m m F P P P E E ~ ] { X.#.*.*.:.<.<.<.5.7.w.u.u.s.h.z.z.b.m.B.B.S.S.S.S.G.G.P.P.P.Y.Y.Y.Y.Q.Y.Y.Y.Y.Y.Y.Y.Y.Y.Y.P.P.Y.P.P.G.G.S.B.B.B.B.m.m.z.z.z.h.z.h.h.h.s.s.u.u.w.w.7.7.7.<.:.*.#.X.X.{ { X.{ ] ( ~ ~ E ~ E P P F Z Z m Z Z Z K K P E P K K K K K K K K P P P E ~ ~ ~ ( ( ] ] ] { { { X.X.X.#.#.#.*.*.*.:.:.<.<.5.5.7.7.w.w.u.s.h.h.z.z.z.z.b.b.b.b.b.b.m.m.m.m.b.m.m.m.b.",
"b.b.z.z.z.h.h.s.s.s.u.u.u.w.w.7.5.5.<.<.<.*.#.{ ] ] ( ( ~ E E P P K F Z m m v v m m m Z m Z m m v l l g g l l l g v m Z Z Z F F F F Z Z Z Z Z Z Z m Z F P E P E ~ ( ] { X.*.*.:.<.<.<.5.5.7.w.u.s.s.h.z.b.b.m.B.B.S.S.S.S.S.G.P.P.Y.Y.Y.Q.Q.Y.Y.Y.Q.Q.Y.Q.Y.Y.Y.Y.Y.Y.P.P.P.G.G.S.S.B.S.B.m.b.z.z.h.z.z.z.h.h.s.s.u.u.u.w.w.7.7.5.<.*.*.#.X.{ X.X.{ ] ( ( ~ ~ ~ E P K K F Z Z Z F F K P P E E P K K K K K K K P K P E E ~ ( ( ( ( { { { { X.#.X.#.#.#.*.*.*.:.:.:.<.<.<.5.7.w.w.u.u.s.h.h.z.z.z.z.b.b.b.b.m.m.m.m.m.m.m.m.m.m.b.",
"z.z.h.h.h.s.s.s.u.u.u.w.u.7.7.7.5.<.<.:.:.*.X.{ ( ( ~ ~ E P P K K F Z m m v l l l v v m m v v v g g g g i g i i i g l v m m Z Z F Z Z m m m m m v v m F K K K P E ~ ( { { X.#.*.*.:.:.<.<.5.7.w.u.s.s.h.z.b.b.m.S.B.S.S.S.S.G.P.G.P.Y.Y.Y.Y.Y.Q.Y.Y.Q.Y.Y.Y.Y.Y.P.P.P.P.P.G.G.S.S.B.B.m.m.m.z.h.h.h.h.h.h.h.s.u.u.w.w.w.w.7.7.5.<.:.*.X.X.{ ] ] X.{ ( ~ E E E E P K F Z Z m m m m Z Z K P P K K Z F F F F K F K F K P E E E ~ ~ ~ ( ] ] { { { X.X.X.X.#.*.*.*.*.:.:.<.<.<.5.7.7.w.u.u.s.h.h.h.h.z.z.z.z.b.b.b.b.m.b.b.b.b.b.b.z.",
"h.s.s.s.u.u.u.w.w.7.7.7.7.5.5.<.:.*.*.#.#.X.] ~ ~ E P P K F F Z Z m v l l i i y i i g l g g g i y 0 y 0 0 0 0 y 0 y i g g l l v m v l l l l l g g g l v Z Z m F F P E ( ( ] { X.#.*.*.*.:.:.5.5.7.w.u.s.h.h.z.b.B.B.B.B.B.B.S.S.G.P.P.Y.Y.Y.Y.Y.Y.Y.Y.P.P.P.P.P.P.P.P.P.G.G.G.B.B.m.b.m.m.z.h.h.u.u.s.s.u.u.u.w.7.7.7.5.7.5.<.:.*.#.{ ] ] ( ~ ~ ( ~ E P K K K F F Z v v v l g l l l v Z F F Z Z m m m m m m m m v Z F F K K P P E ~ ~ ~ ( ( ] ] ] ] { X.{ X.X.X.#.#.*.*.:.<.<.5.7.w.w.w.u.u.s.s.s.h.h.h.h.h.z.h.z.z.z.z.h.z.h.z.",
"b.b.z.z.z.z.h.h.h.s.s.u.u.u.u.7.7.5.5.5.<.:.#.X.{ ] ] ( ( ~ E E P P K F Z m v v m Z Z Z F Z F m v v v l l l v l l v m Z Z F K K P P F F F F F Z Z Z F K E E E E ~ ( { X.#.*.*.:.<.5.5.5.5.7.w.u.s.h.h.z.b.m.B.B.S.S.S.G.S.G.G.P.P.Y.Y.Y.Q.Q.Y.Q.Y.Q.Y.Q.Y.Y.Q.Y.Y.Y.Y.P.P.P.P.G.S.S.B.S.B.B.b.z.z.z.z.z.z.h.h.s.s.s.u.s.u.u.w.7.5.<.:.*.#.X.X.#.#.X.{ ] ] ( ( ( ~ E P K K F Z F F F K E ~ ~ ~ P P P E P P P E P P E ~ ~ ~ ( ( ] ] { X.X.X.#.#.#.#.*.*.:.:.:.:.:.<.<.<.5.5.7.w.u.u.s.s.h.z.z.z.b.b.b.b.b.m.m.m.m.m.m.m.B.m.m.m.m.",
"b.z.z.z.h.h.s.s.s.u.u.u.u.w.w.7.5.5.<.<.<.*.#.X.{ ( ( ~ ~ E E P P K F Z m m v v v v m Z m Z m m l l v l g g l l g l m m Z Z F K K F F Z F F F m m m Z F P P P E E ( ] { X.#.*.*.:.<.<.5.5.7.w.u.u.s.h.h.b.m.m.m.S.S.S.G.S.S.G.G.P.P.Y.Y.Y.Y.Q.Y.Y.Y.Q.Y.Y.Y.Y.Y.P.Y.Y.P.P.G.G.G.S.B.B.B.B.m.z.z.h.z.h.h.h.h.h.s.u.u.w.u.w.w.w.7.5.:.*.#.#.X.{ { X.X.] ( ~ ~ ~ ~ E P K F F Z m Z F F F E ~ E E P K K K K P P K K K K E E ~ ~ ( ( ] ] { { { X.X.#.#.#.#.*.*.*.*.:.:.<.<.<.5.5.7.w.u.u.s.h.h.h.h.z.z.z.b.b.m.m.m.b.m.m.b.m.m.m.b.b.",
"h.h.s.s.s.u.u.u.w.w.w.7.7.7.5.5.<.:.*.:.*.#.] ( ( ~ ~ E P K K F F Z m v v l i g g l l v v l v g i i i i y y i i y i g l l v m Z Z Z m v v m v v l v v Z F F F F P E ( ] { { X.#.*.*.:.:.<.5.5.7.w.u.u.h.z.z.b.m.B.B.B.B.B.S.S.G.G.P.P.Y.Y.Y.Y.Y.Y.Y.Y.Y.Y.Y.P.P.P.P.P.P.G.G.G.S.B.m.m.m.B.m.z.h.s.s.s.h.s.s.s.u.w.w.7.7.w.7.5.5.<.*.#.{ { ] ] ] ] ( ~ E E P P P K F Z m m v l v v m m F P K K F Z F Z F F Z F Z Z F K K E P E E ~ ( ( ] ] { { { { { X.X.X.#.#.#.*.*.:.:.:.<.5.5.7.w.w.u.s.s.s.s.h.h.h.z.z.z.z.z.b.b.z.z.z.z.z.z.",
"b.z.z.z.z.h.h.s.s.s.u.u.u.u.w.7.7.5.<.<.<.:.#.X.] ] ] ( ~ ~ ~ P P K K F Z m v v m m Z F Z Z Z m v v l l l l l l l v m Z Z F K K P K F F F F F F Z Z F K P E E E ~ ( ] { #.#.*.:.<.5.<.5.5.7.w.u.s.s.s.z.b.b.m.B.S.S.G.S.S.S.G.P.P.P.Y.Y.Y.Q.Y.Q.Y.Q.Y.Y.Y.Y.Y.Y.Y.Y.Y.P.P.G.P.G.S.S.B.B.B.B.b.z.z.h.h.z.z.h.h.s.s.u.u.u.u.w.w.7.5.<.*.*.#.X.{ X.X.X.] ] ] ( ~ ( ~ P P K K F Z F F K K E ~ ~ E P P P E P P P P P K P ~ ~ ~ ~ ( ] ] { X.{ { X.#.#.#.*.*.*.*.:.*.:.<.<.<.5.5.7.w.w.u.s.s.h.z.z.z.z.z.z.b.b.b.m.b.m.m.m.m.m.m.b.b.b.",
"z.h.h.h.s.s.s.u.u.u.u.w.w.w.7.5.5.<.<.:.:.*.X.{ ] ( ( ~ E E P P K F Z m m v l l l v m m Z m v v l l g g i g l g g l v m m Z Z F F F Z m Z Z Z m v m Z F K P K P E ~ ( ] { X.*.*.:.:.<.<.5.5.7.w.u.u.s.z.z.z.b.B.B.B.S.S.S.S.G.G.G.P.P.Y.Y.Y.Y.Y.Y.Y.Y.Y.Y.Y.P.Y.P.P.P.P.P.G.G.G.B.B.B.m.m.b.z.z.h.s.h.h.s.h.s.u.u.w.w.w.w.w.7.5.<.:.*.X.X.{ { { X.{ ] ~ ~ ~ E E E P F F F Z m m Z Z F K E P P K K F F K K K K F K P P E E ~ ~ ~ ( ] ] ] { { { X.X.X.#.#.#.*.*.*.:.:.:.<.<.5.5.7.w.u.u.s.s.h.h.h.h.z.h.z.z.b.z.z.z.b.z.b.b.b.z.z.",
"z.h.h.h.h.s.s.s.u.u.w.u.u.w.7.7.5.<.<.<.:.*.X.{ ] ( ( ~ E E P P K F F Z m m v v v m m Z m m m v l l l g g l g l g l m m Z Z Z F K F Z Z Z Z Z m m m m K P P P E E ( ] { X.#.#.*.:.:.<.<.5.5.w.u.u.s.s.h.z.b.b.m.S.S.B.S.B.S.G.P.P.P.Y.Y.Y.Y.Q.Y.Y.Y.Y.Y.Y.P.Y.P.Y.P.P.P.G.P.G.S.S.B.B.B.B.b.z.h.h.h.z.h.h.h.s.s.u.u.u.u.w.7.7.5.<.:.*.#.#.X.{ { X.{ ] ( ( ~ ~ E E P K F Z Z Z Z F F F P E E E P K K K K K K K K K P E E ~ ~ ~ ( ( ] { { { X.X.X.X.#.#.*.*.*.*.*.:.:.<.<.5.5.7.w.w.u.s.s.h.h.h.h.z.z.z.z.b.z.b.b.b.b.b.b.b.z.z.z.",
"s.s.s.s.u.u.u.w.w.w.7.7.7.5.5.<.<.:.*.*.*.X.] ( ~ ~ E P P K F F Z Z m v l l g g g g l l v l l g g i i y i i i i i g g v v m v m m m v l v v v l l l v Z F F F K K E ~ ( ] { X.#.*.*.*.:.:.<.5.7.w.u.u.h.z.z.b.m.m.B.B.B.B.B.S.G.G.P.P.Y.P.Y.Y.Y.Y.Y.Y.P.P.P.P.P.P.P.G.P.G.G.G.S.B.m.b.m.m.b.h.h.s.s.s.s.s.s.u.u.u.7.7.7.5.5.5.<.:.*.#.{ { ] ( ( ] ( ~ P E P P P K F F m m v l v v m Z F F F F Z Z Z m Z Z Z Z Z F F K P P E E E ~ ~ ( ~ ( ] ] ] { { { X.X.X.#.#.#.*.*.:.:.<.5.5.5.7.w.u.u.u.s.s.s.h.h.h.z.z.h.z.h.z.z.z.h.z.h.h.",
"b.b.b.z.z.h.z.h.s.s.s.s.s.u.w.w.7.7.7.5.5.<.*.#.X.X.{ ] ( ( ~ ~ ~ P K K K F Z Z F F F K K F F F Z Z m m m m m m Z Z K P P P P P E P P K K K K F K F K E ~ ~ ~ ( ] ] X.#.*.:.<.5.5.5.5.7.w.w.u.s.s.h.z.z.m.m.m.B.S.S.S.G.G.G.P.P.P.P.Y.Y.Y.Y.Y.Q.Y.Y.Q.Y.Y.Y.Y.Y.Y.Y.Y.Y.P.P.G.G.S.S.S.S.B.m.b.b.b.z.b.b.z.z.z.h.h.h.s.s.u.u.w.w.7.7.<.:.*.#.#.#.*.#.X.X.{ ] { ] ] ( ~ E P P P P P E E ( ~ ~ ~ ~ E ~ E E ~ ~ ~ ~ ~ ( ] ] { { { { { X.#.#.#.*.*.*.*.*.:.:.:.<.<.<.<.5.7.7.7.7.w.u.u.s.h.h.z.z.z.b.b.b.b.m.m.m.m.m.m.m.m.m.m.m.b.b."
};
