/* XPM */
static char *south[] = {
/* columns rows colors chars-per-pixel */
"256 256 119 2 ",
"   c gray32",
".  c #535353",
"X  c gray33",
"o  c #555555",
"O  c #565656",
"+  c gray34",
"@  c #585858",
"#  c gray35",
"$  c #5A5A5A",
"%  c #5B5B5B",
"&  c gray36",
"*  c #5D5D5D",
"=  c gray37",
"-  c #5F5F5F",
";  c #606060",
":  c gray38",
">  c #626262",
",  c gray39",
"<  c #646464",
"1  c #656565",
"2  c gray40",
"3  c #676767",
"4  c #686868",
"5  c DimGray",
"6  c #6A6A6A",
"7  c gray42",
"8  c #6C6C6C",
"9  c #6D6D6D",
"0  c gray43",
"q  c #6F6F6F",
"w  c gray44",
"e  c #717171",
"r  c #727272",
"t  c gray45",
"y  c #747474",
"u  c gray46",
"i  c #767676",
"p  c #777777",
"a  c gray47",
"s  c #797979",
"d  c gray48",
"f  c #7B7B7B",
"g  c #7C7C7C",
"h  c gray49",
"j  c #7E7E7E",
"k  c gray50",
"l  c #808080",
"z  c #818181",
"x  c gray51",
"c  c #838383",
"v  c #848484",
"b  c gray52",
"n  c #868686",
"m  c gray53",
"M  c #888888",
"N  c #898989",
"B  c gray54",
"V  c #8B8B8B",
"C  c gray55",
"Z  c #8D8D8D",
"A  c #8E8E8E",
"S  c gray56",
"D  c #909090",
"F  c gray57",
"G  c #929292",
"H  c #939393",
"J  c gray58",
"K  c #959595",
"L  c gray59",
"P  c #979797",
"I  c #989898",
"U  c gray60",
"Y  c #9A9A9A",
"T  c #9B9B9B",
"R  c gray61",
"E  c #9D9D9D",
"W  c gray62",
"Q  c #9F9F9F",
"!  c #A0A0A0",
"~  c gray63",
"^  c #A2A2A2",
"/  c gray64",
"(  c #A4A4A4",
")  c #A5A5A5",
"_  c gray65",
"`  c #A7A7A7",
"'  c gray66",
"]  c #A9A9A9",
"[  c #AAAAAA",
"{  c gray67",
"}  c #ACACAC",
"|  c gray68",
" . c #AEAEAE",
".. c #AFAFAF",
"X. c gray69",
"o. c #B1B1B1",
"O. c #B2B2B2",
"+. c gray70",
"@. c #B4B4B4",
"#. c gray71",
"$. c #B6B6B6",
"%. c #B7B7B7",
"&. c gray72",
"*. c #B9B9B9",
"=. c gray73",
"-. c #BBBBBB",
";. c #BCBCBC",
":. c gray74",
">. c gray",
",. c gray75",
"<. c #C0C0C0",
"1. c #C1C1C1",
"2. c gray76",
"3. c #C3C3C3",
"4. c gray77",
"5. c #C5C5C5",
"6. c #C6C6C6",
"7. c gray78",
"8. c #C8C8C8",
/* pixels */
"& w d 9 E G A x x 9 p k x k A o.v w ( M v ( ^ J J v G p p 6 } J p ^ M J M G G J o.v w G w w 1 w } d p d M J G p k k A 9 9 w d w T v x ( M v A k ' J E w T A M ( ( T G E w G A M v A ( J d ^ T k E M k ' M M E x ' T ' ^ d J G J ( M J E M ' p M ( v ^ T k d ( } 9 } M E v A J ( ' x v A o.( ^ J &.&.A T o.( G M x ( ^ x v M G G E J E ( d 9 k A M w M J T E A k G @.A T v k M p M J T ' M G A M T v A T M d d A w A E A o.J v A A w v ' M d E E ^ E ' E T T v M <.M v : v J d M k G v A 9 J x k O 1 p w 9 6 M p E A M v o.' M M ",
"% w d 9 T G A x x w p k v k G o.v w ( M v ( ^ J J v G p p 6 } J p ^ A J A G G T o.v w G w p 1 w o.d p d M J G p k k M 9 9 p d w J v k ( M v M k ' T E p T M A ( ( J G E w G A M v A ^ J p ^ T x E M k ' A M E x ' T ' ^ k G J J ' M J E A ' w A ( v E J x d ( ' w ' M E M M T ' ' k v A o.' ^ J @.&.M J o.( A A x ( E x v M G G E G E ( d 9 k G M w M G T ^ M x G @.A T M x M w M J J ' v G A M T v A T M d p A w A ^ A o.J x A M w M ( v p ^ T E ^ ( E T E M v 4.M v & v T d v d G v A 6 J x k O 6 w w 9 6 M d E A A x o.' M M ",
"% w d 6 T G A x x w p x x k G o.M w ( M v ( ( T J v G p p 6 } T p ^ A J M G G T o.v w A w w 1 w } p p k A T G p k k M 9 w w d w J v x ( v v A k ( T E w T A A ' ' J J ^ w G A M M A ( J p E E k ^ A k ( A M E x ' J ' ^ k J G J ( M J E M ' p A ' v ^ T x d ( } 9 } M E M M J ' ' k v A o.( ^ J @.&.A T o.( A A k ( ^ k v M A A E G E ( p 9 k A M 9 M G T E M k G @.A J v k M p M G J ' M A A M T v M T M d d M 9 A E A o.J x A M p v ' v p ^ T E ^ ' E T E M v <.M v : v J d v d G x A 6 J x d O 6 p w 6 6 M p E A M x o.} A v ",
"% 9 d 6 T G A x x w p k v k G @.v w ( M v ( ( J J v A p p 9 } J p ^ A G M G A T o.v w G p p 1 p o.d p d M J G d k x A 9 w p d w T v x ' M M A x ' T E p T A A ( ( T J E w G G M M A ( J d ^ E x E M k ' A M E x } T } ^ k J G T ' M J E A ' p M ( v ^ J x k ' ' w ' M E M A J ( ' k v A o.( ^ J &.@.M J } ^ A A k ^ ^ k v v G A E G T ( p 9 k A M w v G T ^ M k G o.A T M k M w M G T ( M G A v T v M T v d p A w A ^ M o.J x M M p v ( v d E E E ^ ( T T E M v <.M x : x T d v k G v A 6 G x k O 6 w w 6 6 M w E A A x o.' M v ",
"% 9 p 6 E G A x x w p x v k G o.M w ( A v ( ^ T T v G p p 6 o.T p ( G J A J G T o.M w G w p 1 p o.d p k M J G d k x A 9 w p p w J v x ( M v A x } T E w E A A ' ( J G ^ w G G M M A ( T d ^ E x ^ M k ( A M E v } T ' ^ k J J T ' M J E A ' p A ' v E T x k ' } w } M E M A J ( ' k v M o.( ^ J @.&.M T } ( A M k ( E k v v G A E G T ^ p 6 d A A 9 v G T E M k G @.A J v k v w M G J ' v G G v T x A T v d p A 9 A E A o.G x M M w v ' x p E T E E ( E T T v v <.v x : x T p v d G v A 6 G x d . 1 w w 9 6 M p E A M x } ' M v ",
"% 9 d 9 E G A v v w p x M x G @.M w ( A v ( ^ J J M G p p 9 } J p ( A J A G G T o.M p G p p 1 w o.d p k M T G d x x A 9 w d d p T v x ' M v A k ' T ^ p E A A ' ' T J E p G G M M A ( J d ^ T x ^ A x } A A E v } T } ^ k J J J ' M J ^ M ' p A ( M E T x d ' } 9 ' M E M M J ' ( k x A o.^ ^ G @.&.M J o.( A M k ^ ^ x v M G A E A T ^ p 6 k A M 9 v A T ^ M d G @.A T M k M w v G J ' v A A v T v M J v p p M 9 A E A } J x A M w v ( v p E T E E ( T J T M v <.v x & x J p v d A v A 1 G x d . 6 w w 6 1 M p E A M k o.' M M ",
"% w d 9 T J A v v w p x v x G o.M w ( A M ( ^ T T M J d d 9 } T d ^ A J A J G T o.v w G w p 1 p } d d k A T G d k x A w 9 p d p J M v ' M M A x ' T ^ w E A A ' ' T J ^ p J G M M G ( J d ^ E x ^ A x ' A M E x } T ' ( k J J T ' A J ^ A ' p A ' M ^ T x d ( } 9 } M E M M J ' ' k x A } ( ^ G @.@.M J } ( A M d ^ E k v v A A E G T ( p 6 k A M 9 v G J ^ M k G o.A J v d v p v J J ( v G A x J x M T v p p A 9 A ^ M } G x M M 9 v ( v p E T E E ( T T T v v <.v x & x J p v d G v M 6 G x d O 1 w w 6 6 v w T A A x o.' M M ",
"% w d 9 E G A v x p d x M x G @.M w ( A M ( ^ T J M J d p 9 o.T d ( G J M J G E @.M w G p p 6 w o.k p k A J G d x v A w w p k w T M v ( A M A x } E E p E A A ' ' J J ^ w J G M M G ( T d ^ E v ^ M k ' A A ^ v ' T ' ^ k T G T ' M J ^ A ' d A ' M ^ T x k ( } w ' M T M M J ( ( d x A o.( E G @.&.M T } ( A M k ^ E k v x A A T A T ( w 6 d A M 9 v G J E M k G o.A J v k x w M G J ( v A A v T x M T M p p M 9 M E M o.G x M M w v ( v w E T E ^ ( E J T v v <.M x & x J p v d G x A 1 G k d . 1 9 9 6 1 v p E M M x } ' M M ",
"& w d 9 E J G v v w d x M x G o.M w ( A M ( ( T J M G p d 9 } T d ( A J M J J E o.M w J p p 1 p } k d k A T G d x x A w w p d p T v v ' M M G k ' T ^ w E A A ' ' T J ^ w J G M M A ( T d ^ E v ^ A x ' A A ^ v } E } ( x T J T ' A J ^ A ' p A ' v E T x d ' ' 9 ' M E v M J ( ' d x M } ( ^ G @.&.M J } ( M M d ^ E k x v A A T A T ^ p 6 d A v 6 v A J E M d A o.A J v k x w v G G ( v A A v T x M J x p p M 9 M ^ M o.G x v M 9 x ( x p E T E ^ ( J J T v x <.v x & x G p x d G x M 1 G x d . 1 w 9 6 6 v w E A M x o.' A v ",
"& w k 9 E J A M v p d v M x J @.M p ' A M ( ^ T T M J d d 9 o.T p ( A T A T J E @.M p J p p 6 p o.d d x M T J d x v A w p d d p T M v ' A M G x } T ^ p E G G ' ' T J ^ p J G A A G ( T k ( E v ^ A x } A M ^ v } E } ( x J J J ' M T E A ' p A ( v ^ T x k ( } 9 ' M T M M J ( ' k x M o.( E G @.@.M J o.( M M d ^ T k x v A M T G J ^ w 6 d A M 9 v G T E M k A o.A J x d v w v G J ( v A M x J x M T v p p M 9 M E M } G x M M w x ( v w T T T E ( T T T v x <.v x & x J p x p A x A 1 G k d . 1 w 9 1 1 M p T A A x } ' A M ",
"& w k 9 E J A v v p d v M x J @.M p ( A M ' ( T T v J k d w } T d ( G J A J J E @.M p G p d 6 p o.k d x A T J k x v G p p p d p J M M ' M M G x } E ^ p E G G ' ( T J ( p J G M M G ( T k ^ ^ v ^ A x } G A ^ v } E ' ( x T T T ' A J ^ A ' p A ' v E T k d ( } 9 ' v T v M J ( ' d x M } ( E G @.@.M J } ^ A M k ^ E d x x A A T A T ^ w 6 d A v 9 x A J E M d A @.A G v k v w x G J ( x A A v J x M T v p w A 9 M E M } G k M v 9 x ^ x p E J E E ( T J T v x <.x k % k G p x p G k M 1 G k p . : 9 w 6 6 M p T A M x o.' M M ",
"& w k w E J G M v p d x M x J &.M p ( A M ( ' T T M J d d w o.T d ( G T A J J E @.v p J p d 1 p o.k d x A T G d v v A w w p k p T A v ' A M G v } E ^ p E G G } ' T T ^ d J J A A G ( T k ( E v ^ A x ' A A ^ M o.E } ( k T J J ' M J ^ A ' p A ( M E J x d ( ' 9 ' v T v v G ( ( d x M } ^ E A @.@.v J } ^ M M d E E k x x A M T A J ^ p 1 d M v 6 x A J E v d A o.M J x d x w v G G ( x A M x J x M J v w p M 9 M E M } A k M v 9 x ^ x w E T T T ( J J T x x ;.x k % x J w x d A x M 1 A x d . 1 w w 6 1 M w E A A x o.' A M ",
": p d 9 E J G v v p k v M x J @.A p ( A A ( ( T T M J d d 9 o.T k ( G J A T J ^ @.M p J d d 6 d o.k d x A E J k v v G w p p k p T M v ' A M G v } E ^ d E G G ' ' E J ^ p J J A M G ' T k ( E v ( A v } A A ^ v } E } ( x J J T ' M J E A ' p M ( v ^ T k p ^ ' 6 ' v T v v G ( ' d x M } ^ E G @.@.v J } ^ M M d ^ T k x x M A T A J ^ w 1 d A v 6 x A J E v d A o.M J v d x 9 v A G ( x A M x J x M J x p w M 6 M E M o.G k v v 9 x ^ x w E J T E ^ T J T x k <.v k % k G w x p A x M 1 G k d . 1 w w 6 6 v p E A A x o.} A M ",
"& p k w ^ J G M v p d v A x J &.M p ( G M ' ( E T M J k k w o.E k ( A T G J J E @.A d J p d 6 d o.k d x A E J k v v A p p d k p T M M ' A A G v } E ^ d E G G ' ' T T ( p T J A A G ( T k ( ^ v ( A x } G A ^ v } E } ( k T J J ' M T E M ' p A ( M E J k d ( ' 6 ' v T v v G ^ ( d k M } ^ E G @.@.v J } ^ M v d E T d x x A M T A J ^ p 1 d M v 6 x A J T v d A o.M J x d x 9 v A G ^ x M M x J x M J x p w M 6 M E M } A k M v 9 x ^ x w E T T T ^ J J T x x ;.x k O k G p x p A x A 1 G x d O 1 w w 6 6 M d E A A v o.' A M ",
": w k w ^ J G M M p k v A v J &.A p ( A M ' ( E T A J k k w o.E d ( G T A T J E @.M p J d d 6 d o.k k x A E J k v M G w p d k p T M M } M A J v } E ^ d ^ G G } ' E T ( p T G A A G ' T k ( ^ M ( G v } G A ^ v } E } ^ x J J T ' M J E A ( w A ( v E J k p ( ' 6 ' v J v v J ^ ( d k v } ^ E A o.@.v G } ^ M v d E T d x x M M J A J ^ w 1 d M v 1 x A J E v p A o.M J x p x 9 x A G ^ x A M x J k v T v w p M 6 v E v } A k v v 6 x ^ x w T J T T ( J J T x k <.x k % k G p x d A x M 1 G x d O 1 w w 6 6 M p E G A v @.' A M ",
": p k w ^ J G M v p k v M v J &.M d ' G A ' ( T T M J k k w o.E k ( G T G J J ^ @.A p J p d 6 d o.k k x G E J k v M A p p d k p T A M ' A M J v } E ( p ^ G G ' } E J ( p J J A A G ' T k ( ^ v ( A v } G A ^ v } E } ^ k T J J ' M J ^ M ' p M ( v E T k d ^ ' 6 ( v T v v G ^ ( d k v } ^ E A @.o.v G ' ^ M v d ^ T d k x M A T A J ^ w 1 d M v 6 x M J E v d M o.M G x d x 6 x A G ^ x M M x J x v J x w w v 6 M E M } A k v x 6 x E x w T J T T ^ T J J x k ;.v k % k G w x p A x A 6 G x d O 6 w p 9 9 M d E A G v o.} A M ",
"& p k w ^ J J M M d k v A x J &.A d ' G M ' ' E T M T k k w o.E k ' G T G J J E @.M d J d d 6 d @.k k x G E J k v M G p p k k d T M M } A A J M } E ( k ^ G G } ' E T ( p T J A A J ' E x ( ^ v ( A x } G A E v } E ' ^ k J J J ' M G E M ' p M ( x E J k d ( ' 6 ( v T x v A ^ ^ p k M ' ^ E A o.@.v G } ^ v v d ^ T p k k M M T M J ^ w 1 p M v 6 x M G T x p A o.M G x p x 9 x A G ^ x A v x J k v J x w w M 6 v T v } A d v v 6 k ^ k w T J T T ^ J J T x k ;.x k % k J p v d A x M 6 G x d O 6 w w 6 6 M p E A A v @.} A A ",
": p x w ^ J J M v d k v A v J &.A p ' G A ' ( E E M J k k w @.E k ( G T G T T ^ &.A p T d k 9 d @.x k v A E T k v M G p p d k d T A M } A M J v o.E ^ d ^ G G } } T T ( d T J A A J ' E k ( ^ v ( A x } A A ^ v ' T } ^ x J G J ( M G E M ' w M ( x E J d p ^ ' 6 ( v J x x G ^ ( p k v } ^ T A o.@.x G ' ^ v v p ^ T d k k M M J A J ^ 9 1 d M x 1 x A G T v p M o.M G k p k 9 k A G ^ k M M k G k v J x w w M 6 v T v } A k v v 6 k E k w T J J T ^ J G T x x <.x k % x G p x d G v A 1 G x k O 1 w p 9 9 A d E G A M o.} A M ",
": p k w ^ J J M M d k M A v T &.A d ( G A ' ' E T A J k k w o.E k ( G E A T J ^ @.A d J d k 6 k @.k k v G E J k v M G p p d k d T A M } G A J v } ^ ( k ^ J J } ' E T ^ d J J G A J ' T k ( ^ v ( A x ' A A E v } T ' ^ k J G T ' M G E M ' p M ^ x E J k p ^ ( 1 ( v J x x A ^ ( p d v } ^ T M o.o.x G ' ^ v v p E T p k x M M J A J E 9 1 p M x 1 k M G T v p A } M G k p k 6 x M G E k M v x G k x J x w w v 6 v T M } A d v x 6 k ^ k w T J T T ^ T J T x k ;.v k & k J p x d G v A 6 J x k % 6 p w 9 9 M d E G A v @.} A A ",
": p k p ^ T G A M d k M M v T @.A p ' G A ' ' E T A T k k p @.E k ' G T G T T E @.A p T d d 9 k @.x x v G E T x M A G p d k k k E G M } A A J M o.E ( d ( J J } } ^ T ( d T J G A G ( T k ( ^ v ^ A x ' A A E v } T ' ^ k G G J ( M G E M ( w M ^ x T J d p ^ ( 6 ( x J x x G ^ ( w k v } E T A o.o.x A ' ^ v v p E T p k x M M J A J ^ w 1 w M x 1 k M G T x p M o.v A k p k 6 x A A ^ x M v k J k x J x w w v 1 v T v } A d v x 6 k E k w T J T T ^ J J T v x <.v x & x J p v d G v A 6 J x d O 6 w p 9 9 A d ^ G A v @.' A A ",
": p x w ^ T G A M d x M A v T &.A d ' G A ' ' ^ T A T k k p o.^ k ' J E G T J ^ @.A d T k k 9 d @.x x v G E T x M M G p d k k d E A M } G A T M o.E ( k ^ J J } } E E ( d J J A A G ' T d ( E v ^ M x ' A A E x } T ' ^ k J G J ( v G E M ( w M ^ k T J k w ^ ' 1 ( x J k x A E ( w k v } ^ T A o.o.x G ' E v v p E J p d k v v J A J E 9 1 p M x 1 k M G T x w M } M G k p k 6 k A A ^ k M v k G d v G x w 9 v 1 v T v } M d v x 1 k E k w T J T T ^ J J T v x <.v x & x J d v d G x A 6 J v k O 6 w p 9 9 M d ^ G G v o.} G A ",
": p x p ^ J J M M d x v A v T &.A d } G A ' ' E E A J x k p @.E k ' J E G T T ^ &.A d T d k 9 k @.x x M G ^ J x M M J p d k x k E A M } A A J M o.^ ( k ^ J J } ' E T ( p T J A M G ( T k ( E v ^ A x ' A M E x ' T ' ^ d J G J ( v G T M ' w M ^ x T G d p ^ ( 6 ( x J k x A ^ ^ p d v ' E T M o.o.x A ' E v x p E T p k k M M J A J E 9 : w M x 1 k M A T x p A } v G k w k 1 k M A ^ k M M k G k x G k 9 9 v 1 v J v } A d v x 6 k ^ x 9 E J T T ( T J T v x <.v x : x J d v k G v A 9 J v k % 6 p p w 9 A d E G G M @.} A A ",
"1 d x p ^ J J A M k x M A v T @.G d ' J G ' ' ^ T A T x k p @.E x } J E G T T ^ @.A d J d k 9 k @.v x v G E T x M A J d d k x d E G M } G A J M } ^ ( d ^ J J } ' E T ^ p J J A A G ( T d ( E x ^ A x ' A A E x ' T ' E d J G G ( v A T M ( w M ^ x T G d w ^ ( 1 ( x J k k A ^ ^ p d v ' ^ T A o.o.x A ' ^ v x w E T p d k M v J M G E 9 : w M k 1 k M G J x w M o.v G k p k 1 k A A E k v x k G d x G k w 9 v 1 v T v } A k x v 6 k ^ x w E T T E ^ T T J v v <.M x & x J d v k G v A 9 J v k % 6 p w w 9 A d ^ G G M @.} G A ",
"1 p x p ( T J A M d x M G M T &.G d ' G A } ' E T A T k k p @.E x ' J E G T T ^ &.A k T k k w k @.v x v G ^ T x v A G d d k x k E G A } G A J M o.^ ( k ^ J G } } T T ( p T G A M G ( T k ( E x ^ A x ' M M E x ' T ' ^ d J G G ( v G E v ( w M E k T G d p ^ ( 1 ^ x J k x A E ^ w d x } E J M o.o.k A ' E v x p E J p k k M v J M J E 9 : p v x : d M A T x p M } v A k w k 6 k M A E k M v d G d x G k 9 9 v 1 v T v ' A k v v 6 k ^ x w E J T E ( T J T v x <.v v & x T d v d G v G 9 J v k % 6 p p w w A d ^ G G M @.} A A ",
"1 d x p ^ T J A A k k M A M T &.A d ' J A ' ' ^ E A T x x p o.^ x ' T E J T T ^ &.G k T k k w x @.v v v J E T x M A J k k x x k E G M } G G T M } ^ ( d ^ G J } ' E J ^ p J J A M G ( J k ^ E x ^ A k ' M M E x ' J ' ^ d G G G ( v G T M ( w M ^ k J G d w ^ ( : ( x G k k A E ^ w d v ' E T M } o.k A ' E x x w E J p d d v v J M G E 9 : w v k : k M A T k p M } v G k p d 6 k M A E k v v k G d x G k 9 9 v 1 v E v } A k v v 6 x ^ x w E J E E ^ T J T v v <.v x : x J d M k G v G 9 J v x % 9 p p w w A d ^ G J M @.} G A ",
"1 d x p ^ T J A A d v M G M T &.G d } J G } } ^ E G T x x p @.^ x ' J E J E T ^ @.G d T k k w k @.v v M J ^ T v M A J d d k x k E G A } G A J M o.^ ( d ^ J G } ' E T ^ p J G A M G ' T d ^ T x E M k ' A M E x ' T ' E d G G G ( v G T v ( w v ^ k T G d w E ( 1 ^ k G k k A E ^ w d x ' E T M o.} k A ' T x x w T T w d k v v J M G E 6 & p M k : k v A J x w M } v A d w k 1 k M A E k M v d G d x G x 9 9 v 1 v T M ' A d v v 6 x ^ x w E T E E ^ T T J M v <.M v : x T k v k J v G 9 J v x % 6 p p w w A d ^ J J M @.o.G G ",
"1 d x d ( T J A A d x A G M T ;.A k } J G ' ' E E A T x x d @.^ x } J E J E T ^ &.G k T k k w x &.v v M J ^ T v M A J d k k v k E G A } A A G M } ^ ( d E G G ' ' T J ^ p J G A M G ^ T d ^ E x ^ M k ( A M T k ' T ' E d G A G ^ v A T v ( 9 v E k J G d 9 ^ ( : ( x G d k M E ^ 9 p x ' E T A o.o.k A ' E x k w T J p d d M v G M G E 6 : w v k : k v G J x w M } v A k w d 1 d M A E d v v k G d x G k w w v 6 M T v } G k v v 9 k ^ x p E J E E ( T T T M v <.M v : v J d v k G v G w J v x % 9 d p w w A k ^ J G M @.o.G A ",
"6 d x p ^ T T A A k v M G M T &.G k } J G } } ^ E G T x x d @.^ x } T E J E E ^ @.A k T k k w x &.v v M J ^ E v A A J d d x x k E G M } G A J v } E ^ d ^ G J ' } E T ^ p J G M M G ( J d ^ T x ^ M k ' M M T k ' J ' E d G A G ^ x A J v ( 9 v ^ k T G d w E ( : ^ k G k k A ^ ^ w p x ' E J M } } k A ( T x k p T J p d k v v J v G T 6 & w v k : k v A J x w M } v A d w k 1 k M A E k v v k G d x G x w w M 1 v E v } A k M v 9 x ^ x p E T E E ( T T E M v <.M v : v T k M x J M G 9 T M x & 9 p d p w A d ^ J J M @.} G A ",
"1 k v d ^ E J A A k x A A M T &.G k } J G } } ^ ^ G E x x d &.^ x } T ^ J E E ( &.G k E x x p x &.M v M J ^ E v M A J d d k x k E A M } A A J M o.^ ( d ^ G G ' ' T J ^ w J G M M G ( T d ^ T x E M d ( A v E k ' J ( E d G A A ^ x A J v ( 9 x E k T G p 9 E ( & ^ k G d d M E E w p x ' E T M o.o.k M ' E x x 9 T T w d d x v G M G T 6 : w v k & d v A J x w v } v M d w k 1 k v A E k M x k G d v G x 9 9 v 6 v T v o.A k v v 9 x ( v p E T E E ( E T T M v 4.M v : v T d M k J M G w J M x & w d d w w G k ^ T J M &.o.G G ",
"6 d x d ( T T A M k x A G A T ;.A k } J G } } ^ E G E x v d @.^ v } J E J ^ E ( &.G k E x x w x &.v v M J ^ E v M A J d d x x d E A M } A A J v } E ^ p E G G ' ' E J ^ p J G M v G ( J d E T k ^ M k ' M M T k ' J ' E d G A G ^ x A T v ^ 9 v E d J A d w E ( : ^ k G k k A E ^ w p x ' E J M } o.k A ( T k k w T J p d d v x G M G T 6 & w v d : d M A J k w M } x A k 9 k 1 k M A E k M v k G k v J x w w M 6 M T M } A k M M 9 x ( v w E T E ^ ( E T E M M <.M v : v T k M x J M G w T M x & w d d p w G k ^ J J M @.o.G A ",
"1 d v d ( E J A A k x A G A T ;.G k } J G } } ^ ^ G T v v d @.^ v } J ^ J E E ^ &.G k T x x w x &.v v A J ^ E v M A J d d k x k E A M ' A A J v } E ^ d E G G ' ' T J ^ p J G M M A ( J p E T x E M k ( M M T d ' J ' E p G A G ^ x M T v ^ 6 v E k J G p w E ^ : ^ d G d k M E ^ 9 p k ( E J M } } d A ( T k k w T J w d d v x G v A T 1 & 9 v k & d v A J k w v } x A d w d 1 k M A ^ d M v k G k x J x p 9 M 6 v E M o.A x M M 9 x ( v p E T E E ' E T T M v 4.M v 1 v T d M k J M G w T M x & w d d p w G k ( J J A @.} J G ",
"6 k v k ' E T G G k x A G M E &.G k } T G } } ( ^ G E v v d &.^ v } T E T ^ E ( &.G x E x x p v &.v v M G ^ T x M A G p d k x d E A M ' A A J v } E ^ p E G G ' ( T J ^ w J G M M A ( J p ^ J k E M d ( M M T k ' J ( E p A M G ^ x A J x ^ 9 x E k J G w w E ^ : ^ k A d k M E E 9 p x ' E J M o.} k M ( T x k w T J w p d x x G v A T 6 & 9 x k : d v A J k w M } x A k w k 6 k M A E k M v k G k x J x w w M 6 M E M } G k v M 9 v ( v p E T E ^ ( E T T M v <.A v 1 v T k M x T M G w J M x : 9 d d p w A x ( J J A &.o.J G ",
"6 k v d ( T T A A x v A G A E &.G k } T G o.} ^ ^ J ^ v v d @.( v } T E J ^ E ( ;.G x E x x w x @.v v M J ^ T x M M J d d k x d E A v } A A G v } E ^ p E G A ' ' T J ^ w J G M M A ^ J p ^ T k E M k ( M v T k ( J ( E p G M G ^ k A J x ^ 6 x E d J G p 9 T ^ & ^ k A d d M E ^ 9 w x ( E J v } o.k M ' T k d 9 T G w p p x x A v A T 6 & 9 x k & d v A J k w v } v A k w k 1 k M A ^ k M v k G k v T v w w M 6 M E M } A x M M w v ( x p E T E ^ ( E T E M M <.A v 1 v T k M x J M J w T M v : w k d w p G k ^ J J A @.o.J G ",
"6 x v d ( E T G A x v A G A E ;.J x } J J } } ( ^ G E v v k &.^ v o.T ^ T E E ( &.G x T x x p k &.v v M G ^ T k M M G p d d x d E M M ' A M G v } E ^ p E G A ' ' J G ^ w G A M v A ( J p E T k E v d ' M x T d ' J ( E p A A A ^ k A T x ^ 6 x E k J A p 9 T ^ & ^ k A p k M E E 9 p k ( T J M } } d M ( T k k w T J w p p x x G v A T 1 & 9 x k & d v A J x w M } v G k w k 1 k M A ^ x M M x J k v J x w p M 6 M E M o.G x M M w v ( v p ^ T E ^ ' E T E A v <.M v 1 M E k M x J A G 9 T M v : w d d p p G k ( T J A &.o.J G ",
"6 k M k ' E T A G x M A G A E ;.J x } T G } } ( ^ G E v M k &.( v o.T E T ^ E ( &.G k E k x w x @.v v M G ^ T x M M J p p k k d T A M } A M G v ' E ^ p E A G ' ' T G ^ w G G v v A ^ J p ^ J d E v d ( M v J k ( J ( T w A A G E k A J x ^ 1 x E d J A w 9 E ^ & ^ d A d d v T E 9 p k ( T J v } } d A ( T k d 9 T J w p p x x G x A T 1 & 9 x d & k v A T k w M } v A k p d 6 x M A ^ k M M k J x v J v w w M 6 M E A o.G x M M w v ' v d ^ T E ^ ' E T E A M 4.M v 1 M T k M x J M J w T M v : w k d p w G k ( T J A &.o.J G ",
"6 k v k ( ^ T G G k v A G A ^ ;.G x } T J o.o.( ^ J ^ M v d &.( M } T ^ J E ^ ( &.G k T x x w x &.v v v G E T x M A J p p d k d T A M ' A M G x } T ^ w E A A ' ( T G E w G A M v A ^ J p E T k E M d ( v v T k ' J ( E w G M A ^ k M J k ^ 6 x E d J G w 9 E E & ^ d A p k M T E 9 w k ( T J M } } d M ( T k d 9 T J w p p x k A x A T 1 & 9 v k & d v A J x w M } v A k w k 6 k A A ^ x M M x G k M J x p p M 9 M E M } G x M M w v ( v d E E E ^ ' E E E M M 4.A M 6 M E k A x T A J p T M v : w d k p p G x ( T J A &.o.J J ",
"9 k v k ( E E G A x v G J A E ;.J x } T J o.} ( ^ J E v v k &.( M } T ^ T ^ E ( &.G k E k x w k @.v x v J ^ J x M M G w p d k d T M v ' A M A x } E ^ p T A A ' ( T G ^ w G A v v A ^ G w ^ T d E v d ( M v T d ( G ( E w A M A E k M J x E 6 x T d G A p 6 T ^ & ^ d A d d M T E 9 w k ( T J v } } d M ^ T k d 9 J G w p p x k G x A T 1 & w v k : d M A T k w M } v G k p k 6 x M A ^ x M M x J x v J v p w M 9 A E M } G x M M w v ' v d ^ T ^ ^ ' E E E A M 4.M M 1 M E k M v T M J w T A v 1 w k d p p J x ( J J A &.o.J J ",
"6 x v k ' ^ T G G x v G J A E ;.J x } T J } } ( ^ J ^ M M d &.( v ' T ^ J E E ( &.G k T k x w k @.v x v G E T k M M G p p d k d T M M ' M M G x ' T E p E A A ' ( J G E w G A M v M ^ J p E J k E v d ( v v J d ' G ^ T p A A A ^ k M J x E 1 x E p J A w 9 T ^ & E d A p d M T E 9 w k ' T J v } } d M ( J k k 9 T G w w p x k G v G J 1 & 9 v d & k v A J k p M } M G k w k 6 x A G ^ x M M x J x M J v p p M 9 M E A o.G x A A w M ( v d ^ E ^ E ' E E E A v 4.A M 1 M E k A v J A J p E M v : p k d p p G x ' T T A &.@.T J ",
"9 k M x ' E E G G x M G J A ^ ;.J x } T J o.} ( ^ T ^ v M k &.^ v } T E J E T ( &.G k T k k w k @.v x v G E T x v M G p p d k p T M v ' A M G x } T ^ w T A A ' ' J J E 9 G A v v A ^ G p E T d E v p ( M x T d ( G ^ T w A M A E k M J k ^ 1 k T d J A w 9 T ^ & E d A p d v T E 6 w k ( J J v } } d M ( T d d 6 T G 9 p p x x G v G T 6 & w v k : d M A T x w M o.v A k p k 6 k A A ^ x A M x J x M T v p p M 9 M E A o.G x M M w v ' v d ^ E ^ ^ ' ^ E E A M 4.A M 6 M E x M v T A J p T A v : w k k p p G x ( T J A &.o.J J ",
"9 x M k ' E E G G v v G J G E ;.J x o.T J o.o.( ^ J ^ v v k &.( v o.T E T E E ^ @.G d T k k 9 k &.x x v G E J x M M G w p d d p T A v ' M M A x ' T E p E A M ( ( T G E 9 G A v v M ^ G w E J k T v p ( v x J d ( G ^ T p A M A E x M J k ^ 1 k T p G A w 6 T ^ % E d A p d v T E 6 w k ( T G v } ' d M ^ J k d 9 J G 9 p p x k A v G T 6 % w v k : k v A J x p M o.v A k p x 9 x A G ^ x M M v J x M J v p w A w M E A o.G x A M p v ' M d ^ E ^ ( ' E E ^ M A 4.A M 6 M E x A v T A J w T A v 1 p k k p p J x ( T T G &.@.J J ",
"9 x M x ' ^ T G G v M G J G ^ ;.T x o.T J o.} ( ^ J ^ M v k @.( v } T E J E E ( &.A k T k k w k @.x x v G E J k v M G p p d k p T M x ' M M A x ' T ^ w T A A ( ( J J E 9 G M v v A ^ G p E J d T x p ^ v x J d ( G ^ T w A M A E k M J k ^ 1 k T p G M w 6 T E % E d A p d v T E 6 w k ^ J G v } } d M ( T d d 9 J J w p d x x G v G T 6 & w v k : d M G J x p M o.v G x p k 6 x A G ( x M M x J x M T v p p M w A E A o.G v A A p M ' M d ^ E ^ ^ ' ^ E ^ A M 4.A M 6 M E x A x T A J w E A M 1 p k k d d J v ' T J G &.o.T J ",
"9 x M k ' ^ E J J v M J J G ^ ;.T v o.T J o.o.( ^ J E v v d &.^ v } J ^ J E E ^ &.G d T d k 9 k @.x k v A T T x v M A p w d d p T M v ' M M A k ' T E p T A A ( ( J G E 9 G A v v M ^ A w E J d T v p ^ v x J d ( A ^ T w M M M E k M J k E 1 k T p G A w 6 T E % E p M p d v J T 6 w d ( T G v } } p v ( J k d 9 T G w p d x x G v A T 6 & p v k : k M A T x w M o.M G k p x 9 x A G ^ x A A x J x M J v d p A 9 M E A o.J v M M w v ' M d ( E ^ ^ ' ^ E E A M 4.A M 1 A E x A v T A J p E A v : w k k d d J v ( T T A &.@.T J ",
"9 x M k ' E T J J v M G J G E ;.J v o.J J o.} ( ^ J E v M k @.^ v } T E J E T ^ &.A d T d k 9 k @.x k x G E J k v M G w p p d p T v v ( A M G x ' T E w T M A ( ( J G E 9 A A v v M E G p E J d T x p ^ v x J d ( G ^ T w A M A E k v G x E 1 k T p G M w 6 T E % E p A p p v T E 1 w d ( J G v ' } d M ( J k k 9 T J w p p v x G v G T 6 : w v k 1 k M G J x p M o.M G k d k 9 x A G ^ x A M v T x M T v p p M w A ^ A o.J v A A w M ' M d ( E ^ ( ' E E E A M 4.A A 6 M E x A v T A T p T A M 1 p k k d p J v ' T T G &.@.J J ",
"w x A x ' ^ E J J v M G T A ^ ;.J v o.T J } } ( ^ J E v v d @.( x } T E G T T ^ &.A k J k k 9 d o.x k x G T J k v v G w w d d p T M v ' M v A k ' T E w T A A ( ( J G E 6 A A v x v ^ G w E J d T x p ^ v x J p ^ G ^ J w A M A E d M J k E : k T p G A w 6 T E % E d M p p v T T 6 w k ( T G v } ' d M ( T k d 9 T J w p p v x J M G E 6 & p v k : d M G T x p M o.M G x p x 9 x A G ( x A A v J v M T v p p A 9 A E A o.J v A A p M ' M k ( E ( ( ' ^ ^ ^ A A 4.A M 6 A E x A v E A J p E A M 1 p x k d d J v ' E J G &.o.T T ",
"w x M x } ^ E J J v M G J G ^ ;.J x } T J } } ( ^ G E v v d @.^ x } J E J E T ^ @.A d T d k 9 k @.x k x A E J k v M G w p p d p T M x ' M M M k ' T E w T M M ' ( J A E 6 A M v x M E G w E J d T x w ^ v k J d ( G ^ T w M v A E k M G k E 1 k T p G M w 6 T E O E p M p p v T E 1 w d ( J G v } } d M ( T k d 9 T J w d p v x J M G E 6 : w M k 1 k M G T x p A o.M G x p x w v A G ( v A A v T v M T M d p A w A ^ A @.J v A A p M ' M k ^ E ^ ( ' ^ E ^ A A 4.G M 6 A E x A v E A T p E A M 1 p k x d d J M ( T T G ;.@.T J ",
"w x A x ' ( ^ J J v A G J G E ;.T x o.J J o.} ( ^ G E v v k @.^ v ' T E J E T ^ &.A d T d d 9 d @.x k x A T J k v v A w w d d p J M v ( M v A k ' T E 9 T A M ( ( J G E 9 A A v x M E G w E J d T x p ^ x x J p ^ A ^ J w A M A E d M G d E : k T w G M 9 1 T E O E p A w p v J T 6 w d ( T G v } } d M ( J k k 9 T J w p d v v G M G E 6 : w v x 1 k M G T x p M o.M G x d x 9 v G J ( v A M v J v M T v d p A 9 A E A o.J v A M p M ' M k ( E ( ( } ^ E ^ A A 4.A A 6 M ^ x A v E G J p E A M 1 d k k d d J v ' T T G &.@.T T ",
"w v M x ' ^ E J J v M G J G ^ ;.J x } T J } } ( ^ G E v v d @.^ x ' T E G E T ^ &.A d J k k 6 d o.k k k A E J d x v A w w p d w T v x ' M v A k ( T E w T M A ( ^ J G T 6 A M v x M E A w T J p T k p ^ x x J p ^ A ^ T w M M M T d v G k E : k T p G M 9 6 J E % T p M p p v T T 6 w k ^ T G v } } d M ( T k k 9 T J p p d v v J M G E 9 : p v k 1 k M G T x p M o.M G x d x 9 x G J ( v A A v T x M T v d p A w A ^ A @.J v A A p M } M k ( ^ ( ( ' ^ ^ ^ A M 4.G M 6 A ^ x G M E G T p E A M 1 d x x d d J v ' E T G &.@.J T ",
"w v A x } ^ E J J v M G J A E ;.J x } T J o.} ^ ^ G E x x p @.E x } J E J T T E @.A d T d d 9 d o.k k x A E J k v v G w w p d p J M x ' M v A k ' T E w T M M ( ( J A T 6 A M v x M E G w T J d T x w ^ x k J p ^ A ^ J w A v M T d v G k E : d J p G A 9 1 T E O E d M w d v J T 6 9 k ^ T J v } } d M ^ T k k w E J w d k M v J v G E 9 & p v x 1 k M G T v p A o.M G x d x 9 v G J ( v A A v T v M T M d p A w A ^ G @.J v A A p M ' M k ( E ( ( } ^ E ^ G A 8.G A 6 A E x G v E G J d E G M 1 p x k k d T v ' E T G ;.@.T J ",
"w v A x } ^ E J G v M G J A E ;.J x } T G } } ^ ^ G E x x d @.^ x } J E G T J ^ @.M d J d k 9 d o.k k k A T J d x x A w w p d w J v v ( M v A k ( T E 9 T v M ( ^ J A E 6 A M x x M E G 9 T J p J k p E x k G p E A E T 9 M M M T d v G k E : k T w G M 9 6 J E O T p M p p v T T 6 w d ( T J v } } d M ( T x k w T J w d d v v J M J E 9 : p v x 1 x M G T v d M o.M J v d v 9 v G J ( v G A v J v A T M d d A w A ^ A o.T v A A p M ' A k ( ^ ^ ( } ^ ^ ^ A A 4.G A 6 A E x G M T G J d E G A 6 d x x k d J v ' E T G &.@.E T ",
"w v M x ' ^ E J G x v G J A ^ ;.J k } T G } } ^ E G E x x p @.^ x ' J E G T T ^ &.A d T d d 9 d o.x d x A E J k x v A w p p d p T v x ( M v M k ' J E w T M M ( ^ G A J 6 A M x x v E A w T J p T k w ^ x k J p ^ A ^ J 9 M M M T d v G d E : d J p G M w 1 T E O E p A w d v J E 6 w k ^ T J M } o.k M ' T k k w T J p d d M v J M J E 9 : p M x 1 x M G E x d A o.A J x d v w v G J ( x G A M T v M T M d d A w A ^ A @.J v G A p M ' M k ^ ^ ( ( } ^ ^ ^ G M 4.G M 9 A ^ v G M T G T d E A M 6 p x x d d T v ' E T J ;.@.T J ",
"w v A x ' ^ E J G v M A J A E ;.J x } T G } } ^ E A E x x d o.^ x ' J E G T J ^ @.A p J p d 6 d o.d k k M T J d x v A 9 w p p w J M x ( M v A d ' J E 9 T M M ^ ^ G A T 6 A M x k v E A 9 T J p J x w ^ x k G p ^ A ^ T 9 A M M T d v G d E : k J p G M w 1 T E % E p A p p M T T 6 w k ( T J v } } k M ^ T k k w T J w d d v v J M J E 9 : p v x 1 x M G T v d A o.M J x d v w v J J ( v G A v T v A T M d d G p A ^ G o.J v G A d A ' A k ( ^ ( ( } ^ E ^ A A 8.G A 9 A ^ v G M E G T d E G M 6 d x x d k T M } E E G &.@.T T ",
"w x M k ' E E G G x M G J A E ;.J x } J G } } ^ ^ G E x x d @.^ x ' J T G T T E @.A d J d d 6 p o.k k k A T J k x x A 9 w w d p J v x ( v v A k ' J E 9 T M M ( ^ G A T 6 A v x x v E A 9 T G p T x w ^ x k G p ^ A E J 9 M v M T d v A d E : d T w G M 9 1 J E O T p M p d v T E 9 w d ( T J v } } k M ( T x k w T T p d k v M J M J ^ 9 : p M x 1 x A J E v d A o.M J v k v w v J J ' v G A v T v M T M d d A w G ^ A @.T v G A d M } M k ( ^ ( ( } ^ ^ ^ G A 4.G A 9 A E v G M E G T d E G M 6 d x x k k J M ' ^ T G ;.@.T J ",
"w x A k ' ^ T G G x v A J A E &.J k } T G } ' ^ E G T x k p @.E x ' J E G T J ^ @.M d J d d 6 d o.k d x A T G d x x A w w p p w J v x ( v v M k ' J E 9 T v M ^ ^ G A T 6 M M x x v E A 9 T G p J x p E x k G w ^ A ^ T 9 M v M T p v G d E : d J p G M 9 6 T E O E p A p d v T E 9 w k ( T J M } } d A ( T x x w E J w d d M v J M J E 9 : p M x 1 x A J E v d G o.A J v d x w M G J ( v G A M T v M E M k d A w A ^ A @.J M G A d M ' M x ( ^ ( ' } ( ^ ( G A 4.G A 9 A ^ v G M E G T d ^ A M 6 d x v k k J M ' E E G ;.@.T T ",
"w x M k ' E T G G x M G G A E ;.G k } J G } } ^ E G T x x p @.^ k ' J T A T T E &.A d J p d 6 p o.k d x M T G d k x A 9 w p d w J v x ( v x A d ( T E 9 T M M ^ ^ G A T 6 A M x k v E A 6 T G p T k w E k k G p E A E J 9 M M M T p v G d E : d T w G M 9 6 T E % E d M w d v T E 6 p k ( T J M } } k A ' E x k w E T p d k M M J M J ^ w 1 d M x 6 x M J E v d A o.M J v k v w v G J ' v G A M E v A T M d d G p G ^ G @.T v G A p A ' A x ( ^ ( ' } ^ ^ ( G A 8.G A 9 A ^ v G M E G T d ^ G A 6 d v x k d T M ' E T G &.@.T J ",
"w x M k ' ^ T G G x v G G A E ;.J k } J G } ' ^ E A T k k p o.E x ' J T G T J ^ @.M p J p d 6 d o.d d k A T G d x x M 9 w p d w J v x ( v v M k ' J E 9 J M M ^ ^ G A T 6 M v x k v E A 9 T G p J k w ^ k k G p ^ A E J 9 M v M T p v A d E : d J w G M 9 6 J E % T p A p d M T E 6 w k ' T J M } o.d M ( T x k w E J p k d M v T M J E 9 1 p M x 6 x M J E M d A o.A J v d v w v J J ' M G A v T M A T M d d A p A ^ G @.J M G G p A ' A x ' ^ ( ' } ( ^ ( G G 8.G A 9 A ^ v G M E G T d E G A 6 d v v k k J M } E T G &.@.J J ",
"9 x A k ' ^ T G G x v A G A E &.G x } J G } ' ^ E G T x x p o.E k ' G T A T T ^ @.M d J d d 1 p o.k d k M T G d k x A 9 w w d w J x x ( v v M d ( J E 9 T v M ^ ^ G A J 1 A M k k v E A 9 T G w J x w ^ x d G w ^ M ^ J 9 M v M T p v G d T : k T p G M 9 6 T E % E p A p d v T E 9 p k ( T J M } o.k A ' E x k p E J p d k M M J A J ^ 9 1 p M x 6 x A J E v d A o.A J v k v p v G T ( v G A M T v A E A k d G w G ( G @.T M G A d A ' A k ( ^ ' ( o.^ ^ ( G A 8.G A w G ^ M J M E G T k E G M 6 d v v k d T v ' E T J &.o.T T ",
"w x v k ' E T G A x M A J A T &.G k ' J G } } ^ E A T k k p @.E k ( G T G J J ^ @.A p J d d 6 p } k p k A T G d k x A 9 w w d w J v k ( v x M k ( J T 6 T M M ^ E G A T 1 A M x k x E A 6 T G p J k w ^ k k G w ^ A E J 9 M v M T p x A d E : d T w G M 9 6 T E % E p A p d v T E 9 p k ( E J M } } k A ( E x x w E J p k k v M J A J E 9 1 d M v 6 x A J E M d G o.A J v k v w M J J ' M G A M E M A T M k d G p G ( G o.J M G A d A } A x ' ^ ( ' } ( ^ ( G G 4.J G 9 A ^ v G A E G T k E G A 6 d v x d k T v ' E T A &.@.T J ",
"9 x M k ' E T G G k v A G A E ;.A k } J G } ' ^ E A T k k p @.^ k ' G T A T J E @.M p J p p 1 p o.d d k M J G p k x M 9 9 p p w J v k ( v x M d ' J T 9 J v M ^ ^ G M T 1 M v k k x T A 9 J G p J k w E k k G p ^ M E J 9 v v M T p v G d E : k J p G A w 1 T ^ % E d A p d M T E 9 w k ( E J M o.o.k M ' T x x p T T p d k M v T M J ^ w 1 p M v 6 x A J E M d A o.A J x k v p v J J ' M G G M T v A E M d k A p A ( G @.T M G G d M } A x ( ^ ' ' } ( ^ ^ G A 8.J A w G ^ M J M E J T k ^ G A 6 k x x k k J M ' E T G &.@.T J ",
"9 x M k ' E T G A k v A G A E &.G k } J G } ' E E G T k k p o.E k ' G T A T J ^ @.M p J p d 1 p o.k d k A T G d k x M 9 w w p 9 J x k ( v x M d ( J T 6 J M v ^ E G M J 6 M v x k x T A 9 T G p J x w E k d G w ^ M E J 9 v v M T d v A d E : d T p G M w 6 T E % E d A d d v T E 9 p k ' E J M } } k A ' E x x p T J p d k M M J M J ^ w 1 p M v 6 x A J E M d G o.A J M k v p M G T ( M G G M T M A T A k k G p G ( G @.T M G A d A } A x ( ^ ( ' o.( ^ ( G G 8.G G w G ( v J M ^ G T d ^ G M 6 d x x k d J v ' E T G &.@.T J ",
"9 x M k ' E T A G k v A G M T ;.G k } J A ' } ^ E A T k x w @.E k ' G T G T J E @.M p J p p 6 p o.d d x M J G p k x M 9 9 w p w J x k ^ v x M k ' J T 9 T v v ^ ^ A A T 1 M v x k v T A 9 J G w J k w E x d J w E A ^ J 9 M v M T d v G d E 1 k J p J M w 6 T E % E d A d d M T ^ 9 w x ( T T M o.o.k M ' E x x w T T p k k M M T A J ^ w 1 d A v 6 x A J E M d A @.M T v k v w M G T ' v G G M T M A E M k d G w G ( G @.T M G G d A } A k ( ( ( ' } ( ^ ( G A 8.J A w A ( M J M ^ G E k E G A 6 d x x k d T v ' E J G &.o.T J ",
"9 k M k ' E E G A x v A G A T &.G k ' J G } ' ^ E A T k k w @.E k ' G T A J J ^ @.M d J p d 1 p o.d d k A T A d k x M 9 w p p 9 G v k ^ v x M d ( J E 9 T v v ^ ^ A M T 1 M M x k x T M 6 T G w J k w E k d G w ^ M E J 9 M v M T p v G k E : d T p A M w 6 T E % E d A d d M E E 9 w x ( E J M } o.k A ( E v x p T T p k k M M J A T E w 1 p M v 6 x A J E M k G o.A J M k v p M J J ' M G G M E M A E M k k G p G ( G @.T M G A d A } A x ' ^ ' ' o.( ( ( J G 8.J G w G ( M J A E J E d ^ G M 6 d x x d d J v ' T T A &.@.T J ",
"9 x M d ( E T G A k v A G M E &.G d } J G ' ' E E A J k k p @.E k ' G T A T J E @.M p G p p 1 p o.d d d M J G p k x M 9 9 w p w J x k ^ x x M d ( J T 6 J v M ^ E G A J 6 M v k k v T A 6 J G p J k w E k d G w ^ A E J 9 M v M T d v G d E : k T p G A w 6 T ^ & E d A d d M T ^ 9 p k ( E T M } o.k A ' E v x p E J p d k A M J A J E w 1 d A v 6 x A T E v k G o.A J v k v p M J T ' M G G M T M A E A k k A p G ( J @.T M G G d A } A x ' ( ( ' } ( ( ( G G 8.G G w A ^ M J M E J T d ^ G A 6 d x x k d T v ' E J G ;.@.J J ",
"9 k M k ( ^ J G A k v A G A E &.A k ' J A ' ' ^ T A T k k w o.E d ' G J G J J ^ @.M p J p p 6 p } d p k M T A p k k A 6 9 w p 9 G x k ^ v x M d ( J T 6 J M v ^ ^ A A T 6 M v k d x E M 9 T G w J k w E k d G w ^ M E J 9 M v M T d v A k E 1 k T p G A w 6 T ^ & ^ d A d d M E E 9 p x ' E J M o.} k A ' E v x w E T d k k v M T A J ^ w 1 d M v 6 v A J ^ M d G o.A T M k v w M J T ' M G G M E M G E M k k G p G ( J @.T A G G d A } A x ' ( ' ' o.( ( ( J A 8.J A w G ( M J M ^ G T d ^ G M 6 p x x d d J v ' T T A &.o.T G ",
"6 x M d ' E T G A k v M G M E &.G k } J G ' ' E T A T k k p @.E k ( G T A T J E @.M w J w p 1 p o.d d d M T G p k x M 9 9 w p 9 G x k ^ x x M d ( G T 6 J v v ^ ^ A M T 1 M v k k x T A 6 J A p J k 9 E k d G w ^ A ^ J 9 M v M E d v G k E : k T p G M 9 6 T ^ & E d A d d M E ^ 9 p k ' E J A o.o.k A ' E v x p E J d k k M M J A J ^ p 1 d A v 9 x G J E M k A @.A J v x M p M J T ( M J G M E M A E A d k G p G ( J @.E M G G k A ' G x ' ( ( ' o.( ( ( J G 8.J G w G ( M J A E G T d ^ G M 6 d x x k k J v ' T T G &.@.J J ",
"9 k M k ( ^ T A A k x M G M T &.G k ' J A ' ' E E A T k k w @.E k ( G J G J J E @.M p J w p 1 p } d d d M T A p d x M 6 9 w w w G x d ^ x k M d ( J T 6 J v v ^ E A M T 1 M v k k x T M 6 T A w J k 9 E k d G w ^ M E J 9 M M M E d M G k E 1 k J d G M w 9 T E & E d A d k M E E 9 p x ( E J A } o.k A ( ^ v x p E T p k k A M T A J ^ w 1 d A v 6 x G J ^ M d G @.A J v k M w M J T ' M J G M E M A E A k k G p G ( J @.T M J G d A } G x ' ( ' ' o.( ( ' J G 8.J G w G ^ M J M ^ G T d E G M 6 d x x d d J v ' E T A &.o.J J ",
"9 k v d ( E J G A k x A G A T ;.G d ' J G ' ' ^ E A J k k w o.E k ( G T A T J E @.M p J p p 1 p o.d p d M T G p k k M 9 9 w p 9 G x k ^ x x v d ( J T 6 J M x ^ ^ A A J 1 M v x d x T M 6 T G w G k 9 E k k J w ^ A ^ J 9 M v M E d v G d E 1 k T p G A w 6 T ^ & ^ d G p k M E E 9 p x ' T T M o.} k A ' E v v w E T p k x M M J A J ^ p 1 d M v 9 v A J E M k G @.A T M x M p A J J ' M G G A E M G E M k d G p G ( G &.T M J G k A ' G x ' ( ' ' o.( ( ( J G 8.J G w G ^ M J M E G T d ^ A A 1 d x x d d J v ( T J G &.@.T J ",
"6 k v k ( E T G A k x A A M T &.A k } J A ' ' E T A J k x w o.E k ( G J A J J E @.M w J p p 1 p o.d d k M T A p k k M 6 9 w p 9 G x k ^ x x M d ( J T 6 J M v ^ ^ A M T 1 M v d k x T A 6 J G w J k 9 E k d G w ^ A ^ J 9 M M M E d v G k E : k T p J M p 6 T E & ^ d A d d M E ^ 9 p x ' E J M } o.x A ' ^ v v p E T p k k M M T A J ^ w 6 d A M 9 v A T E M k G o.A J v x M p M J J ' M J G M E M G E A k k G d G ( J @.T A J G d G } A x ( ( ' ' } ( ( ' J G 8.J G w G ( v J M ^ G T d ^ A M 6 p k x k d T v ' T T A &.o.J J ",
"9 k v k ( E T A A k v A G M T &.A k ' G G } ' E E A T k k w o.E k ( G T A J J E o.v p J w p 1 p o.d p d M J A p k x M 6 9 w p 9 G x d ^ x x v d ( J J 6 J v v ^ E G M J 1 M v k d x T M 6 T G w J k 9 E k d G w E M ^ J w M v M E d M G k E 1 k T d G A w 9 T ^ & E d A d k M E ^ w p x ' E T M o.o.x A ' E v v p E T p k k A M J A T ^ w 1 d M v 9 v A T E M d G @.A T M k M w M J T ' A J G M E M G E A k k G p G ( J @.T A J G k A } G x ' ( ' ' o.' ( ( J G 8.J G w A ^ M J M E G T d E G M 1 p x k d d J v ' T J G &.@.J J ",
"9 k v d ( E T A A k x M G M T ;.G d } J A ' ' ^ E M J k k w @.E k ( G T A T G E @.M w G p p 1 w } d p d M J G p d x v 6 9 w p 9 G x d ^ x k M d ( J T 6 J v v ^ E G M J 1 M v k d x T M 6 T G w J k 9 ^ k d J w ^ A E J w M v A E d M G d E 1 k T p G A w 9 T ^ & ^ d G d k M E ^ w p x ' E T A } o.x A ' E v v p E T d k k M M T A J ^ w 6 d A v 9 v G J E M k G @.A T M x M p A J T ' M J G A E M G E A k k G d J ( J @.T A G G d G } G v ' ( ' ' o.( ( ' J J 8.J G w G ( v J M E G T d ^ G A 6 p x k d d J v ( T T A &.@.J J ",
"6 k M d ' E T A A k x A G M T &.G d ' J G ' ' E E A T d d w o.E k ( G J A J J T @.M p G w p 1 p o.d p k M T A p k k M 9 9 w w 9 G k k ^ x k v p ( G T 1 J v v E E A A J 1 M v k k x T M 6 J G w J d 9 E k k G w ^ A E T 9 A M M E d M G k E 1 k T p G A w 6 T ^ & ^ d G d d M E E w p x ' E J M o.o.x A ' E v v p E T d k k M A J A T ^ w 6 d A M 9 v A T E A k G o.A J v x M p M J T ' A J G M E M G E A k k G p J ' J @.E A J G k A } G v ' ( ' ' o.( ( ( J G 8.G G w A ^ M G A E G T d E A M 1 d x k d d J v ' T J G &.@.J J ",
"6 k v k ( T J G A k v M A M T &.A d ' G A ' ' E T A T k k p o.E d ( A T A J J E o.v p G p p 1 p } d p d M J A p d k M 6 6 w p 9 A x k ^ x x M d ( G T 6 J v v ^ ^ A M J 1 M v d d x T M 6 T G w J k w E k k G w ^ A E J 9 A v M T d v G k E 1 k T d J A w 9 T ^ & ^ k A d k M E ^ w p x ' E T M o.o.k A ' ^ v v p E T p k x M A T A J ^ w 6 d A v 6 v G T E M k G @.A T M x M p M J T ' M J G M ^ A G E A k k G d G ' J @.T M J G d G } A v ' ( ' ' o.' ( ( J G 8.J A w G ^ v J M E G T d E G M 1 d k k d d G x ( E J A &.@.T G ",
"6 k v k ( T T A A k x A G M E &.G d ' J A ' } E E M J k d w o.E k ( G T A J J T @.M w G w p 1 w o.d d k M J A p k k M 6 9 w p 9 G x d ^ x x v d ( G J 6 J v v E E A M T 1 M v k d x T M 6 J G w J k 9 E k d G p E A ^ J 9 M v A E d v G k E 1 k T d J A w 9 T E & E k A d k M E E w p x ' E J A } o.x A } E v x p E T d k x M M T A J ^ w 6 d A M 9 v A J ^ M k G @.G J v x M d M J T ' M J G A E M A E A k k G d G ( J @.T A J G k A } G v ' ( ' ' o.( ( ' J J 8.J G w A ^ M G M E G T d E G M 6 p k x d d J v ( T T A &.o.J G ",
"6 k v d ( E T A A k x M G v T &.A d ' G A ' ' E T A J k k w @.E d ( G J A J J E o.M w G w p : p } p p d M J G p d k M 6 6 w p 9 A x d ^ x k v p ^ G T 1 J v v ^ ^ A M T 1 M x k d x T M 6 J G w J k 9 E x d G w ^ A ^ J 9 A v M T d v G k E 1 k T p G A p 9 T ^ & ^ k A d k M E E w d x ' E T M o.o.k A ' E v v p E T d k k A M J A J ^ p 1 d A M 9 v G T E M k G o.A T v k M p A J T ' M J G M E M G E A x x G p G ( J &.E A G J k A o.G x } ( ' ' o.' ( ( J G 8.J G 9 A ^ M G M E G T d E A M 1 p x k d d J x ( E T A @.o.J J ",
"9 k v d ( E T A A k v M G M T &.G k } G A ' ' E E M T d d w o.T k ( G T A T J E @.v p G p p 1 w o.d p d v T G p d k v 6 9 w w 9 G x k ^ x k M d ( G T 6 J v v ^ E A M J 1 M x d d x T A 6 J G p J k w E k k G p ^ A ^ J 9 M M A E d M J k E 1 x T d G A w 6 E ^ & ^ d G d k M E ^ w d x ' E J A o.o.x A } E v v p E T d k x M A T A T ^ w 6 d A M 9 v G T E M k G @.A T M x M p M J T ' M J G A ^ M G E A k k J d G ' J @.E A J G d A } G v ' ( ' ' o.( ( ( J G 8.J G w G ^ v G M ^ G T d ^ G M 1 p k k d d J v ( T J A &.@.J J ",
"6 k v k ( E J A M k v A A M T &.A d } G A ' ' E T M T k k p o.E d ( G J A J J E @.v p G w p 1 p } p p d M J G w d k M 6 9 w w 9 G k d ^ x k v p ( G J 6 J v x ^ E A A J : M x k d x T M 6 T A w J k w E k k G w E A ^ J 9 A v M E d M G k E 1 k T p J A p 9 T ^ & E k A d k M E E w p x ' E T M o.o.k A ' E M v p E T d k k M M T A T ^ w 6 d A v 9 v A J E M k G @.G J v x M p M T E ' A J G M E M G E A k k J p G ( J @.T M J G k G } A v ' ( ' ' o.( ( ' J G 8.J A w A ^ v G M E A T d E G M 6 p k x d d J v ( T J A &.@.J J ",
"6 k v d ( T T A A k x M G M T &.A d ' G A ' ' E T A T d d w o.T k ( A T A J J E @.M w G w p 1 p o.d p d M J A p k k M 6 9 9 p 9 G x k E x x M p ( G J 6 J v v E E A M J 1 M x k d x T M 6 J A p J k w ^ k d G p ^ A ^ J w M M M E d M J k ^ 1 k T d G A w 6 E ^ : ^ d G d k A E ^ w p x ' ^ J A o.o.x A ' ^ v v p E T d k x A M J A J ^ w 6 d A M 9 v G T E A k G @.A T M k M p M J T ' M J G A ^ M G E A k k J d G ( J @.T A J G k G } G x ' ( ' ' o.' ( ( G G 8.G G w G ^ M G M E A T d E A M 1 p k x d d J x ' T J G &.o.J J ",
"6 k M d ( E T A A k x A A M T &.G d ' G A ' ' E T A J d k w o.E d ( G T G J G E @.M w G w p 1 w } d p d M J A p d k M 6 9 w p 9 A x k E x k M p ( G J 6 J v v ^ E A M J 1 M v d d x E M 6 T A w J k w E x d G p ^ A ^ J w M M A E d M J k E 1 k T d J A w 9 T ^ & ^ d G d k M E E w d x ' E T M } o.x A } E v v p E T d x x A M T A J ^ p 6 d A M 9 v G T E M k G @.A J M x M p M J T ' M J G A E A G E A k k J d J ( J &.E A G G k A o.G v ' ' ' } o.( ( ' J G 8.J G 9 G ^ M G M ^ G T p E A M 1 p k k d p G v ( T J A &.o.J J ",
"6 k v d ( E T A M k v M A M E &.A d ' G A ' ' E T M T k d w o.E k ( G J A J J E o.M w G p p : p } d p d M J A p d k v 6 9 w w 9 G k d ^ x k v p ( G T 1 J v v E ^ A M T : M v k d x T M 6 J A p J k w E k k G w E A ^ J 9 A M M E d M G k ^ 1 k T p J A p 9 E ^ & E k A d d M E ^ w d x ' E T A o.o.k G ' ^ v v p ^ T d k x M M T A T ^ w 6 d A M 9 v G J ^ M k G o.G T M x M p A J T ' M J G M E M G ^ A x k G d J ' J @.E A J G k A } G v ' ( ' ' o.' ( ( J G 8.J G w A ^ v G M E G T d E G M 1 d x k d d J x ( T T A &.o.J G ",
"6 k x d ' E T A A d x A G M T &.A d } G A ' ' E T A T d k w o.E d ( A T A J G E @.M p G p w : p o.d p d M J A p k k v 6 6 w p 9 G k d ^ x k v p ( G T 6 J v v ^ E A M J 1 M v d d x T M 6 T G w J k w E k k J p ^ A ^ J w M M M E d v J k E 1 k T d G A w 9 T ^ & ^ d G d k A E ^ 9 d x ' E T M o.o.x A ' E M v p E T d x x M A J A T ^ w 6 d A M 9 v A T E M x G @.A T M k M p A J E ' A J G A E M A E A k k J p J ' J @.T M J G k G } G x ' ( ' ' o.( ( ' G G 8.J G w G ^ v G M E G J d E A M 1 p k k d p J x ( T J A &.o.J J ",
"6 k v d ( E J A A k x M A M J &.A k ' G A ' ' E E M J d k w o.T k ( A T A J G E @.v w G w p 1 p } d p d M T G p d k M 6 9 9 w 9 A x d ^ k k M d ( G J 6 J v v E E A M T : M v d d x T M 6 J A p J k w E k d J w ^ A ^ J w M M M E k M J k E 1 x T p J A p 9 T ^ & ^ k A d k M E ^ 9 d v ' E J A o.o.k G } ^ v v p E T d k k A M T A J ^ p 6 d A M 9 v A T ^ M k G @.A T M x M p M J T } M J G M ^ M G ^ A x k G d J ( J &.T A J G k G } G v } ( ' ' o.( ( ( G G 8.J A 9 A ^ v J M ^ G T p E G M 1 p k k d d J x ( T T A &.@.J G ",
"6 k v d ( E T A A d x A G M T &.A d ' G A ' ' E E A J k k w o.E d ( G T A J G E o.v p G w p 1 w } p p k M J A p k k v 6 9 w w 9 G k d E x k v p ( G T 1 J v v E ^ A M J 1 M v d d x T M 6 J G w J k w E x d G w ^ A ^ J w M M A E d M G k ^ 1 k T p J A w 9 E ^ & E k A d k M E ^ w d x ' E T M o.o.x G ' E v v d ^ T d x x M M T A T ^ w 6 d A M 9 v G J E M k G @.A J M x M d M T T ' M J G A E M G E A k k G d J ( J &.E A G J k G } G v ' ( ' ' o.( ( ' J G 8.J A w G ^ v G M E G T d E G M 1 p k k d p G x ( T T A @.o.J J ",
"6 k M d ( E J A A k x M A v T &.G d ' G A ' ' E E M J k d w o.T k ( G J A J G E @.v w G p p : p } p p d M J A p d k M 6 9 9 p 9 G k k ^ x x M p ( G J 6 J v v E E A M T : M v k d x T M 6 T A p J k w ^ k k G p ^ A ^ J w M M M E k M J k E 1 k T d J A p 9 T ^ : ^ d G d d M E ^ w p x ' E J A o.@.k A } E M v p E T d k k M A J A J ^ w 6 d A M 9 v G T ^ M k G @.G T M x M p M J T ' A J G A ^ M G ^ A x k J d J ( J @.T A J J d G o.G x ' ( ' } o.' ( ( J G 8.J A w A ^ M G M E A T d E A M 6 p x k d p J x ( T J A &.@.J G ",
"6 k M d ' E T A M k x A A M T &.A d ' J A ' ' E T M T d k w o.E d ( G J A J J E @.v w J p w : p o.d p d M T A p d k M 6 6 9 p 6 G k d ^ k k M d ( G J 6 J v v ^ E A M T 1 M x k d k T M 6 T G w J k w E k k G p ^ A ^ J w M M M E d M G k E 1 x T p J A w 9 E ^ & E k A d k M E E w d x ' E T M o.o.k G ' E M v p E T d x x A M J A T ^ p 6 d A M 9 v G J ^ M x G @.A T M x M p M T T ' M J G M E A G E A k k J d J ' J &.T A J J k A } G v ' ( ' ' o.( ( ( J G 8.J A w A ^ M G M E G J p E A M 1 p k k d p J v ( T J A &.@.J J ",
"1 k v d ( E J A A k x M G M T &.A k ' G A ' ' E T A J k k w o.T k ( A T A J J E @.M w G w p 1 p } d p d M J A p d k M 6 9 w w 9 G k d ^ x k v p ( G T 6 J v v E ^ A M J : M x d d x T M 6 J A p J k w ^ x d G w ^ A ^ J w M M A E d M G k E 1 k T d G A p 9 E ^ : ^ d G d k A E ^ w p x ' E T A } o.x A } E v v p E T d x x M M T A T ^ w 6 d A M 9 v G T ^ M k G @.A J M x M p M J E ' A J G A E M G E A x k J d J ( J &.E M J J k A } G v ' ' ' ' o.' ( ' J G 8.J G w A ^ v G M E G T d E G M 1 p k k d d J x ' T J G &.o.J G ",
"6 k v d ( E T A M k x M A M T &.G d } G A ' ' E T A J d d w @.E d ( G T A J G T @.M w J p p 1 w } d p d M T A p k k v 6 9 w w 9 G k d ^ x k v p ( G T 1 J v v ^ E A A J 1 M v k d x E M 6 T A w J k w E x d G p ^ A ^ J w M M M E k v J k E 1 k T p J A w 9 E ^ & ^ d G d k A E ^ w p x ' ^ T M o.o.x G } E M v p E T p k x M A T A J ^ w 6 d A M 9 v A J ^ M k G @.G T M k M p M T T ' M J G M E M G E A k k G p J ( J @.T A J J d G } G v ' ( ' } o.( ( ( G G 8.J G w A ^ v G M E G T d E A M 1 d k k d d J v ( T J A &.o.J J ",
"6 k v d ( E J G A k v M G M T @.A d ' G A ' ' E T M T k d w o.T k ( G J G J J E @.v w G p w 1 w o.d p d M J A p d k M 6 9 w p 9 A x d ^ x k v d ( G T 6 J v v E E A M J : M v d d x T M 6 J A p J k w E k k G w ^ A E T w M M M E d M G k E 1 x T p J A w 9 E ^ & ^ k A d d M E E w p x ' E T M o.o.k A ' E M v d E T d k x A M T A T ^ p 6 d A M 9 v G T E M k G @.A T M x M p M J E ' A J G A ^ M G ^ A x k J d J ( J @.T A J J k G } A v ' ( ' ' o.( ( ( J G 8.J G w G ^ v J A E A T d E G M 1 p k k d p J x ( T T A &.o.J G ",
"6 k v k ' E T A M k x A G v T &.A d ' G A ' ' E T A T d d p o.E d ( G J A J J E @.M w G w w 1 p } p p d M J A p k k M 6 9 9 p 9 G x d ^ x k v p ^ G J 6 J v x ^ E A M J 1 M v d d x T M 6 T G w J k w E k k J p E A E J w A v M E d M J k E 1 k T p J A p 9 T ^ & ^ k G d d M E ^ 9 d x ' E T M o.o.x G } E v v p ^ T d k x M M J A J ^ w 6 d A M 9 v G T E M k G @.A T M x M p A T T ' M J J M E M G E A k k J p J ( J @.E M J G k G } G v ' ( ' ' o.( ( ' J G 8.J A w A ^ v J M E G T d E G M 1 p x x d p G v ( T J A &.o.J J ",
"6 k v d ( E J A A k x M G v T &.A d } G A ' ' E E M J k k w o.T k ( A T G J G E @.v p G p p 1 p o.p p d M J A p d k v 6 9 w w 9 A x d ^ x x M p ( G T 1 J v v E E G M T 1 M v k d x T M 6 J A p J k w E k d J w ^ A ^ J w M v A E d M G k ^ 1 k T d G A w 9 T ^ & ^ d A d k A E ^ w d v ' E T M } o.k A } E v v p E T d k x M A T A T ^ w 6 d A v 9 v G J ^ M k G o.A T v x M p M J J ' M J G A ^ M G E A x k J d J ' J @.E A J G k G } G v ' ' ' ' o.' ( ( J G 8.G G w G ^ M J M E G J d E A M 1 d k k d d J x ( T T A &.@.J G ",
"6 k v k ( E T A A d x A G M T &.A d ' G G ' ' E T A T d k w o.E d ( G T A J J E @.v w G p w 1 p } d p d v T A p d k v 6 9 w w 9 G x k E x k v d ( G T 6 G v v ^ E A M T 1 M x k d x T M 6 T G w J k 9 E x k G p ^ A ^ J 9 M M M E d M J k ^ 1 k T p G A w 9 E ^ & ^ d G d k M E ^ 9 p x ' E T M o.o.k A ' E v v p E T p k x A M T A T ^ w 6 d M M 9 v G J E M x G @.G J M x M p M J T ' M J J M E A G E A k k J d G ( J @.E A J G d G } A v ' ( ' ' o.' ( ' J G 8.J A w G ^ v G M ^ G T p E A M 1 p k k d d J v ( T T A @.o.J J ",
"6 k v d ( E T A A k v M G M T &.G k } G A ' ' E E M J k k w o.T k ( G J G J J E @.v p G p p 1 w } d p d M J A p k k M 6 9 w p 9 A x d ^ x k v p ( G J 6 J v v E ^ A M J : M v d d x E M 6 J G w G k w E k d G p ^ A ^ J 9 A v M E d v J k E 1 k T d J A w 9 E E & E k A d x M E ^ w p x ' E T A o.o.x A ' ^ M v p E T d k x M A J G J ^ p 6 d A M 9 v G T E M k G @.A T M k M p A J T ' A J G A E M G E A x k G p G ' J @.T A G G k G } G v ' ( ' ' o.( ( ( J G 8.J G w A ^ v G M E G T d E G M 1 p x x d d J v ( T J A &.@.J J ",
"6 k v d ( E J G A k v M A M T &.A d } G A ' ' E T M T k k w o.E d ( G J A J J E @.v p G w p 1 p o.d p k M J A p d k M 6 6 w p 9 G k d ^ x k M d ( G J 6 J v v ^ E A A J 1 M x k d x T M 6 J G w J k 9 ^ k k G w E A ^ J w M v A E d v G k E 1 x T p G A p 9 T ^ & ^ d G d k A E E w d x ' E J A o.o.k G ' E v v p E T p k x M M T A J ^ w 6 d A M 9 v G T ^ M x G o.G J M k v p M J T ' M J G M E M G E A k x G d G ( J @.E A J G d G } G x ' ( ' ' o.( ( ' J G 8.J G w G ^ M J M ^ G T d E G A 6 p k k d d J v ( T J A &.@.T G ",
"6 k v k ' E J A A k v A G M T &.A k ' G A ' ' E T A J k k w o.E k ( G T A J J E @.M w G w p : p } d p d M J A p k x M 6 9 w w 9 G x k ^ x x v d ^ G T 6 J v v ^ ^ A M J 1 M x k d x T M 6 T G w J k w E k d G w ^ A ^ J 9 A M M E d M G k E 1 k T d G A w 9 T ^ & ^ k A d d M E ^ w p x ' E T M } o.x A } E v v p E T d k k A M J A T ^ w 1 d A v 9 v G J E M k G @.A T M x M p A J E ' M J J M ^ M G E A k k G d J ' J @.T A J G k G } G v ' ( ' ' o.' ( ( J G 8.J A w G ( v G M E A T d E A M 1 d x k d d J x ' T T A &.o.J G ",
"6 k v d ( E J G A k x A G M T ;.A d ' J A ' ' E E M J k k w o.E k ( G T G J J T @.M p G p p 1 w } d p d A T A p k k v 6 9 w p 9 G x d ^ x k M d ( G T 6 J v v ^ E A M T : M v k d x T A 6 J G w J k 9 E k d G p ^ A E J 9 A v M E d v G k E 1 k T p G A w 6 T ^ & ^ k A d d M E ^ w p x ' E T M o.o.x A ' E v v p E T d k k M M T A T ^ w 6 d A v 6 x G J E M x G @.A J v x v p M J T ' M J J A E M A E A x k G p G ' J @.E M J G k A } G x ' ( ' ' o.( ( ( J J 8.J G w A ^ v G M E G T d ^ G M 1 d k k d d J x ( T J G &.o.T G ",
"6 k M d ' E T A A k x M A M T &.G d ' J G ' ' ^ T A T k k w o.E k ( G J A J J E o.M w G w p 1 p o.d p d M J A p d k M 6 9 9 p 9 G k k ^ x x v p ( G T 1 J v v E E A M J 1 M v k d x T M 6 J A p J d w E k k G w E A ^ J w M v A E d M G d E 1 k T p G A w 6 T ^ & ^ k A d d M E E 9 p x ' E T M } o.x A ' ^ v v p E T d k k M A J A J ^ w 6 d A v 9 v G T E M k G @.A T M x M p A J T ' M J G M E M G E A k k G d G ( J @.T A J G d G } G x ' ( ' ' o.' ( ' J G 8.J A w G ^ M G A E G T d E G M 6 p x x d d J v ( T T A &.o.J G ",
"9 k M k ( E J G A k v M G M T &.G d ' J A ' ' E E A J k k p o.E d ( G T A J J E @.M w J p p 1 p o.d p k M J G p k k M 6 6 w w 9 G k k ^ x x M d ( G T 6 J v v ^ ^ A A J 1 M v d d x T M 6 T G w J k 9 E k d G w E A ^ J w M v M E d M G k E 1 k T p G A p 9 T ^ & ^ d A d k M E ^ 9 p x ' E J M o.o.x A ' ^ v x p E T p k x M A T A J ^ w 6 d A M 9 v A T E M k G o.A J M x M p M J J ' A J J M E A G E A k k G p G ( J @.T A J G d A } G x ' ( ' ' o.( ( ' J G 8.J G w G ( v J M E G T d E G M 1 p k k d d T v ' T T A &.o.J J ",
"6 k v k ( E T A A k v A G M E &.A k ' J G ' ' E T A J k k w o.E k ( G J A T J E @.v p J w p 1 p } d d k M J A p k x M 6 9 w p 9 G x d ^ x x v d ( G T 9 J v x ^ E A M T 1 M v k k x T M 6 J G w J k 9 E x d G w ^ A ^ J 9 M M M E d v G k E : k T d G A w 6 T ^ & E k A d k M E ^ 9 p x ' E T M } o.k A ' E v x p E T p k x M M J A J ^ w 1 d A v 9 x G J E M k G @.A T M k v p A J T ' M J G M E M G E M x k G d G ( J &.T M J G k G } A x ' ( ' ' o.' ( ( J G 8.J G w A ^ M J M E G T k E G M 6 p x x d d J v ( T J G &.o.T J ",
"6 k v k ( E T A A k v A A M T &.G d ' J A ' ' ^ E A T k k w o.E d ' G T A J J E @.M w J p p 1 p o.d d d M J G p k k M 6 9 w p 9 G x d ^ x k M p ( G T 6 J v v ^ ^ A M T 1 v v k k x T M 6 J G w J k 9 E k d G w ^ A E J 9 M M M T d v G k E 1 k T p G M w 9 E E & E d A d d M E ^ 9 p k ( E J M o.} x A ' E v v p E T p k k M M T A J ^ w 6 d M v 9 v A T E M k A @.A J v k M p M J T ' M J G M E M G E M k k G d G ( J @.T A J G d G } G x ' ( ' ' o.' ( ( J G 8.J G w G ^ v J M E G T d ^ A M 6 p x x d d J v ' T T A &.o.J J ",
"9 k v k ( E T G A k v A G M T ;.A k } J A } ' E T A J k k w @.E k ( G J A T J E @.M p J p p 1 w o.d p k M T A p d x M 6 9 w p 9 G x k ^ x x M d ( J T 6 J v v ^ E A A J 1 M v k d x T A 6 T G w J k 9 E k d G w ^ M ^ J 9 M v M T d v J k E : k T p G A w 6 T ^ & ^ d G d k M E ^ 9 p x ' E T M o.o.k A ' E v v p E T p k k M M J A J ^ w 6 d A M 6 x G J E M k G @.A T M x v p A J J ' M J G A E M G E A k k G p J ( J @.T M G G k A } A x ' ( ' ' } ( ( ( J G 8.J G w G ^ M J A E G T d E G M 6 d x k d d T x ( T J G &.@.T J ",
"9 k M k ( ^ T G A k v M G M T &.A d } J A ' ' E E A T k k w o.E k ' G T A J J E @.M p J p p 6 p } d d d M J G p k x A 6 9 w p w G x k ^ x x M d ( J T 6 J v v ^ E G A J 1 M M k k x T M 6 J G w J d 9 E k d G p ^ A E J 9 A M M E d v G d E : k T p G A w 9 T ^ & ^ d A d d M E E w p x ' E J M o.o.k A ' E v x p E T d k k M A J A J ^ w 1 d A v 9 x G T E M d A @.A T v k v p M J T ' M J G M E v A E A k d G p G ( J &.T A G G d A } A x ' ( ' ' o.( ( ' J G 8.J G w G ( M J A E G T d ^ G A 1 d x x d d T v ' T J A &.o.J J ",
"6 x v d ' E J A A k v A G M E &.G k } J G ' ' ^ E A J k k p @.E k ( G T A T J E @.M w J p p 6 w o.d p k A T G p k x M 6 9 w p 9 G x d ^ x x M d ( J T 6 J M v ^ ^ G M J 1 M v x d x T A 6 T A p J k 9 ^ k d G w E A E J 9 M v M E d v G k E 1 k T p G M 9 6 T ^ & E d A d k M E E 9 p k ' E J A } } k A ' E v x w E T p k x M M T A J ^ w 6 d M v 6 x A J E M k G o.A J M k v p M J J ' M J G M E M G E M k k G p G ( G @.T M G G d A ' G x ' ( ( ' o.( ( ( J G 8.J G w G ( M J M E G T d ^ A M 6 p x x k d J v ' E T G &.@.J J ",
"9 x M k ( E T A A k v A G M E &.A k ' J G } ' ^ E A J k k w o.E d ( G T A J T E @.M p J w p 1 p } d d d M J A d k k M 9 9 w p 9 G x k ^ x x M d ( J T 6 T M v ^ ^ A A T 6 M v k k x T M 9 T A w J k w E k d G w E A E J 9 M v M T d v G k E : k T p G A w 6 T E & E d A p d M E E 9 p k ' E J A } o.k A ( E v x p E T p k k M M J A J ^ w 1 d M v 9 x A J ^ M k G o.A J v k v p M J T ' M G G M E M A E A k k G p G ^ G @.T M J G d A } A x ' ^ ' ' } ( ( ( J A 8.J G w G ^ M J M ^ G T d ^ G A 6 d x x d d J v ( T T A ;.o.T G ",
"9 k v k ' E T A A x v A G M E ;.G d ' J A ' ' E T A T k k p @.E k ' G T A T J E @.v p J p p 6 p o.d d k M T G p k k M 9 9 p p w G v k ^ v x M d ( G T 6 J v v ^ E G M T 1 M v x k x T A 9 J G p J k 9 ^ k k J w ^ A E J 9 v v M T d v G d E : k T p G M w 6 T ^ & E d A p d M T ^ 9 p x ( E J M } o.k A ' E v x w E J p d k M M T M J ^ w 1 d A v 6 v A J E v k G @.A J v x v p M J J ' M G A M E M A E M k d G p G ( G @.T M J G d A } A x ' ^ ' ' } ' ( ( J G 8.G G w A ^ M J A E G E k E G M 6 d x x k d T v ' T T G &.@.J J ",
"9 x v k ' E E G G k v A G A T &.G k } J G ' ' ^ E A T k k p o.E k ' J T A T J E @.M w J p d 1 p o.d p k A T A d k x M 9 9 p p w J v k ^ v x M d ' J T 6 J M M ^ E G A J 1 M v x k v E A 6 J G w J k 9 E k d G w E A ^ J 9 M v M T p x G k T : k J p A A w 6 T E % E d A d d M E E 9 p x ' E J M o.o.k A ' E x x p E T p k k M M J A J E w 6 p M v 6 x A T E M d A o.A T v k v p M J T ' M G G M E M A E A k k G p G ( G @.T M G G d A } A x ( ( ( ' o.( ( ( G A 8.J A w G ( M J A E G T d ^ G A 6 d x x d d J v ' T T A &.@.T J ",
"9 x M k ' E T G G k v A G M E ;.G k } G G } ' ^ E A T k x w @.E k ( G T G J J ^ @.A p G p d 1 p o.d d k A J G d k k M 9 9 w p 9 J x k ^ v x M d ( J T 6 T v v ^ ^ A A T 1 A v k d x E M 9 T G p T k 9 E k d G w ^ M E J 9 M v M T d v G d E : k T p G M w 6 T E & E d A d d M T E 6 p x ( E T M } o.k A ' E x x w E J p k k M M T A J ^ w 1 d A v 6 x A J E M d G @.A J v x v w M J J ' M G G M E M A E M k d A p G ( G o.T A G G d A } A x ' ^ ' ' } ( ^ ( J G 8.J G w A ^ M J M ^ G E d ^ G A 6 d x x k d T v ( E E G &.@.T J ",
"9 x v k ' E T G A x v G G M E ;.G k ' J G ' ' ^ E A T x k p o.^ x ' G T G T J E @.M p J d p 6 p o.k p k M T G p k x A 9 9 p p w J x k ( v x M d ' J T 6 J M v ^ E G M J 6 M v x k v E A 6 T G w J k w E k k G w ^ M E J 9 M v M T p v A d E : k J p G A 9 6 T E % E d A p d M T E 9 p k ( E J M } } k A ( E x k p E J p k k v M J M J ^ w 1 p M v 6 x A J E v k A o.A J v k v w M J J ' M J G M T v A E M d k A p A ( G @.T M G A d A } A x ( ^ ( ' } ( ^ ( G A 4.J A w A ^ v G M ^ G E k E G M 6 d v x k d J M ' E T A &.@.T J ",
"9 x M k ' E T G A k v A G A E ;.G k } J G } } E E A T k k p @.E k ( G T A J T E @.M p J p p 1 p o.d d k A J G d k x M 9 w w p w J x k ( v v M d ( J T 9 J M M ( ^ A A T 6 M v x k v T M 9 T G p J k w E k k G w ^ A E J 9 M v M T p v G d E : d T p G M w 6 T E % E d A p d M T E 9 w k ( E J M o.} k M ' T x x w T J p d k M M T M T E 9 1 d M v 1 x A J E M d A o.M T x k v p M G J ' v G A M T M A T A k d G p A ( G @.J M G A d A } A x ( ^ ' ' o.( ^ ( G G 8.J A w G ^ M J A E G T d ^ G A 6 k x v d k T v ' E T G &.@.T J ",
"w x M x ' ^ T G G x v A J M T &.G k } J G } } ^ E G T k k p @.E k ( J T G T J ^ &.M p J p d 6 p o.k d k M T G p x x M 9 9 p p w J v k ( v x A d ' J E 9 J M v ( ^ G M T 6 A v x k x E A 6 T G w T k w ^ k d G p E M E J 9 M v v T p v A d E : d J p G M 9 6 T E % E d A p d v T E 9 p k ( E J M } o.d A ' E x x p E J p d k M M T M J E w 1 p M v 6 x A J E M d G o.A J v k v w v G T ( M G G M T M A E M k d G p G ( A @.J M G G d A ' A x ' ^ ' ( } ( ^ ( G A 4.G G 9 A ^ v G M E G T d ^ G A 6 d v x k d J M ' E E G &.@.T J ",
"w x M k ' E T G A x v G J A E ;.G x } J G ' ' ^ E A T k k p @.E x ' G E G J J ^ @.A p J p d 6 p o.d d k A T G d k x A 9 9 p d w J v x ( v v M d ( J E 9 T M M ^ ^ G A T 1 M M x k v T A 6 T G p J k w E k k J w ^ A ^ J 9 M v M T p v G d E : k T w G M 9 6 T E % E d M d d M T E 9 w k ( T T M } o.k A ( E x k w E T p k k M v J A J E w 1 p M x 6 x A J E v d A o.A J v k M p M G T ( v G A M T v A E M d d G w G ^ G @.T M G A d M } A x ( ^ ( ( o.( ^ ( G G 8.G G 9 G ^ M G A E G T d ^ G M 9 d x x k k T M ' E T G ;.o.T J ",
"w x M x ' ^ T G G x v A J M E ;.J k } T G } ' ^ E G T x x p o.E k ' J E G J T E @.A p T p d 6 p o.k d k M T G d x x A 9 w p p w J v x ( v v A d ' J E 9 J M M ^ ^ G A J 6 M v k k v E A 9 T G p T k w ^ k k G w E A ^ J 9 M v M T p x A d E : d J p G M 9 6 T ^ % E d A p p v E E 9 p k ( T J M } o.k A ' E x x w E J p d d v v J A J ^ 9 1 p A x 6 x M J E v d A o.M J v k v w v J J ' M G A v T M M T A k d G w G ^ G @.T M G A p A } M k ( ^ ' ( o.^ ^ ^ G A 4.J A 9 A ^ M G M E G T d E G A 6 d v v k d J v ' E T G &.@.T J ",
"w x M k ' ^ T G G x M G J A E ;.G k } J G } } E E G T x x p o.^ k ' G T G T J ^ @.M p J d d 6 p o.k d x A T J d k x A 9 9 p p w J v x ( v v A d ' J E 9 T M M ^ ^ G A T 6 A M x k v E A 9 T G p J x w E x d G p ^ A ^ J 9 M v M T d v G d E : d T w G M 9 1 J E % E p A p d v T E 6 w k ( T J M } } k M ( T x k w E J p d k M M J M J E 9 : p M x 6 x A J E v d A o.A J x k v w v G J ' v A G M T v A T M d d A p G ^ G @.J M A A p A ' A k ( ^ ( ( } ( ^ ^ G A 4.G A 9 A ^ v G M E A T d ^ G A 6 d v x k k T M ' E T J ;.@.T J ",
"w x A k ' ^ E G G x M G G A E ;.J k } J G } } ^ E G T k x p @.E x ' J E G T T E @.A p J d d 6 d o.k d x A T G d x v M 9 w p d w J v x ( M v A d ' J E 9 T M M ^ ^ G A T 6 M M x x v E A 9 T G p J x w ^ x k G p ^ A ^ J 9 M v M T p v G d T : d T w A M 9 6 T E O E p A p p v T E 6 w d ( T G v } } d A ( E x x p T J p d k M v J A J E 9 1 p v v 1 k M J E v d A o.A J x k x w M J J ( M G A v T v A T M d d G w A ^ A @.J M G G p M } M k ' ^ ( ' } ^ ^ ^ G A 8.J A 9 A ^ v G M ^ G T d ^ A M 6 d x v k d T M } E T G &.@.T J ",
"w v M k ' E E G G x v G J A E ;.J x } T J } } ^ E G T x x d @.^ x ' J E G E J ^ @.A d J p d 6 d } k k x M T J d x v A w 9 p p p J v x ( v v M k ( T E 9 J M M ( ^ G A T 6 A M x x v E A 9 T G p T x w ^ x k J w ^ A ^ J w M v A T d v A d E : k J p G M 9 6 J ^ O E p M w d v E E 6 p k ( T J v } } k M ( T k k w T J w d k M v J M G ^ 9 : p M x 1 x A J E v p A o.M J v d v w v G J ' v G A v T v A E M d d A p A ^ G o.T v G A p A ' A k ( ^ ( ( } ^ ^ ^ G A 4.G A 9 A ^ v G M E G T d E G M 6 d x x k d T v ' ^ T J ;.@.T T ",
"w v M x ' ^ E G G x M A J A E ;.J x o.J J } } ( E G E x x p @.^ x ' J E G T J ^ @.A d T p d 6 d o.k k k A T G k x v A 9 w d d w T v x ( M v A k ' J E 9 T M M ( ( G A T 6 A M x k v E A 9 T J p T k p E x k J p ^ A ^ J 9 M v M E d v G k E : d T w G M 9 1 J E % T p A p d v T E 6 w k ( T J M } o.d M ( E x k w T T w d d v v J M J ^ 9 : p v x 6 k M G T v d A o.A J x d x w v G J ( v G G v T v A E M d d A w G ^ G o.J v G A p M } A k ( ^ ( ( } ^ ^ ^ G A 4.G A 9 A E x G M T G T d ^ G M 6 d x x k d T M ' E T G &.@.E T ",
"w v A k ' ^ E J J x M G J A ^ ;.G x } J G } } ^ ^ G E x x d @.E x ' J T J T J ^ @.A d J d d 9 d o.k d x A T G d x v A w w p p p T v x ( M v M k ' J E w T M M ( ^ G A T 6 A M x x M E G 9 T J p T k w E x k J w ^ A ^ J 9 A v A E d v G d E : k J p G M 9 6 T E O T p A w d v J E 6 w d ( T J v } } d A ( T k k w T J w d k M v J M J E 9 : p M x 1 k A G T v d A o.M J v d v w v J J ( v A A v J v M T M d d A w A ^ A o.T v A A p M ' M k ^ ^ ( ( } ^ E ^ A A 4.G M 9 A ^ x G M E A J d E A A 1 d x x d k J v ' E T G ;.@.T J ",
"w v A x ' ^ E J J v M G J A E ;.J x } T J } } ^ E G E x x d @.^ x ' J E G T T ^ @.A d J d k 6 d o.k k x A T J k x v G w w p d w J v v ' M v A k ' T E w T M M ( ( G G T 6 A M x x v E A w T J p J x w ^ x k J p ^ A E T w A v M E d v G k E : k T w G M 9 1 T E O T p M p p v T E 6 w k ( T J v } } d M ( E k k w T J p d k v v J M G E 9 : p M x 1 k M G T v p A } M J x d v w v G J ( v G A v T v A T M d p A w A ^ A @.J M G A p A ' M k ^ E ( ( } ^ ^ ^ G A 8.G M 9 A ^ v G v E G T p E A M 1 p x x d d T M } E T G ;.@.T T ",
"w v A x ' ^ E J G v M G J G E ;.J x } T J o.} ^ ^ G E v x d @.^ x } T E G T T ^ @.A d T k d 6 d @.x d x A E J d x v A w w d d p J M x ( M v M k ( T E w T M M ( ( J A T 6 G M x x M E G w T J d T x p ^ x k J p ^ A ^ J w M M M E d M G d E : d T w G A 9 6 J E O E d M w p v T T 6 w k ( J G v ' } k M ( J k k w T J w p d M v J M G E 6 : w M x 1 x M G T v p A o.M G x d x 9 x G J ( x A A v J x M T v d p A w G ^ A @.J v A A p M ' A k ^ ^ ( ( ' ^ E ^ G M 4.G A 6 A E x A v E G J d E G M 6 p x x k d J v ' E T G &.o.T J ",
"w x M x } ^ E J J v M G J A ^ ;.J x } J J } } ( ^ G E v v d @.^ x } J E G E T ^ @.G d J d d 6 k o.k k x A E J k v v A w w p d p T v x ' M M A k ' T E w T M M ( ^ J A T 6 A M v x M ^ A 9 E J d T x w ^ x k J p ^ A ^ T w M M M E d v G k E 1 k J p G M 9 6 T E % T p M p p x T T 6 9 k ( T G v } } d M ( E k d 9 T J p p d v x J M G E 6 : p M k 1 k M G T x p A o.M G x d x 9 v A J ( v A A v T v M T v d d A w M ^ A o.J M A A p M ' M d ( E ( ( ' ^ ^ ^ A A 4.A M 9 A ^ x G M E G J d E A M 1 d x x d d J v ' T T G ;.@.T T ",
"w v A k ' ( ^ J J v A G J A ^ ;.J x o.T J } o.( ^ J E x v d @.^ x ' T ^ J E T ^ &.A d T k k 9 d @.k k x A E G k v v G w p d d w J M v ( M v A k ' J E w T A M ( ( G G E 9 A M v x M E G w E J d T x p ^ v x J p ^ A ^ J w A M M E d M G d E 1 d T p A M 9 6 J ^ O E p A w p v J T 1 w d ( J G v } } d M ^ T k k 9 T J w d d v v J M G E 6 : w v k 1 x M G T x p M o.M G x p x 9 v G G ( v A A x T x M T v d p A w A ^ A o.J v A M p M ' M k ( ^ ( ( ' ^ E ^ A A 4.G A 6 M ^ x A M T A T p E A M 1 p k x d d T v ' T T A &.@.T J ",
"w x M x ' ^ E J J v M G T A ^ ;.T x } T J } } ( ^ G ^ v v d &.^ x } J E G T T ^ &.A k J d k 9 k @.x k x A E J k v v A p p p d p T M v ' M v A k ' T E w T M A ( ( J A E 9 A A v x M ^ G w E J d J x p ^ v x J d ( G ^ J w A M A E k M G k E : k T p G M w 6 J E % E p M p p v T T 6 w d ( T G v } } d M ( T k k w T J w p d v x G v G T 6 : p v x 1 k M G T x p A o.M G x p x 9 x A J ( v A A v J v M T M d p A w A E A o.J v A M p M ' M k ( E ^ ( } ^ E ^ A A 4.A M 6 A E x G v T A J p E A M 1 p x k d d J v ' T T G &.@.T J ",
"w x A x ' ^ E J J v A G J G ^ ;.J x o.T J o.} ( ^ J E v v d @.^ x } T E G T T ^ @.A d T d k 9 d o.x k x G E J k v v G w w p d p T M v ( A v A k ' T ^ w T A A ( ( J G E 6 A A v x M E G w E J d T x p ^ v x J p ( G ^ T w A v A E d M G k E 1 k T p G A 9 6 T E % E p A p d v J T 6 w d ( J G v } } d v ( T d d 9 T G w d d v v G v G E 9 & w v k : k v G J x p M } M G k d x 9 x G G ^ x A M x J v M T v d p M 9 A ^ A @.J v A A p M ( M k ( E ^ ^ ' ^ E ^ A M 4.G M 6 M E x A v T A T p E A M 1 p k k d d J v ' T T G &.o.T J ",
"w x M x ' ^ T J G v M G T A ^ <.T v o.T J o.} ( ^ J E v v k @.^ v } T E J E E ( &.G d T k k 9 d @.x x x G E J k v M G w p p d p J M v ( A v G k ' T E w T A M ( ( J J E 9 A A v v M ^ G w E J d T x p ^ v x J d ( A ^ T w A M A E d M G k E 1 k T p G M w 6 T ^ % T p A p p v T E 6 9 d ( T G v ' } d M ( J k k 9 J J w d d x x G v G T 6 & p v x : k M G J x p M o.M G x d k 9 x A G ^ x A A v J x M J v p d M w A E A o.J v A A p v ' M d ( E ^ ( ' ^ E E A A 4.A M 9 M E x A v T A T p T A M : p k k d d J v ( E J G &.@.T J ",
"9 x M k ' ^ E G J v M G J A E ;.J v } T J o.o.( ^ J ^ v v d &.^ v } T E J E T ^ &.A d T d k 9 k @.x x v A E J x v v A p p d k p T M v ' M M A x ' T E p E M A ( ( J G E 9 G M v v M ^ G p E J k T v p ( v x J d ( G ^ T w M M A E k M J k ^ 1 k T p G A w 6 T E % E d A p p v J T 6 w k ( J G v } ' p M ^ T d d 9 T G w p p x x J v G T 6 : w M k : d M G T x w A } v G k p x 6 x A G ^ x A M x T v M T v p p A w M ^ M o.G x A M w M ' M d ^ E ^ ( ' E E ^ A M 4.A M 1 A E x A v T A J p T A v 1 p d k d d J x ( T T A &.@.T J ",
"9 x M x ' ^ T G G v M G J G ^ ;.J v o.T T } o.( ^ J ^ v v k &.^ v } J ^ T E E ( &.A d T k k 9 k @.x k v G E J k v M G p w d k p T M v ' M M A k ' T ^ w T A A ( ( J G E 9 G A M v M ^ G w E J d T v p ^ v x J p ( A ^ T p A M A E k M J k E 1 k T p G A w 6 T ^ % E d M p d M T E 6 w d ( J G v } } p M ( T d d 9 T G w p p x x G v A T 6 & w v k : d M A T x p M } M G k p k 9 x A G ^ x A M x J x M T v p p M 9 M ^ A o.G x A A p M ' M d ^ E ^ ^ ' ^ E ^ A M 4.A M 6 M E x A v T A T w E M M : p k k p d J x ( T T G &.o.J J ",
"9 k M k ( ^ T G G x M G J A ^ ;.J v } T J } o.( ( J ^ v v k &.( v ' T ^ J E T ( &.A k T k x w k @.x x v G E T x v M G w p d k p T A v ' A v G x ' T E p E A A ( ' J G ^ 9 A A v v M ^ G p E J k E v p ( v x T d ( G ^ T w A M A E k M J k ^ 1 k T d G A w 6 T E % E d A p d v T E 6 w k ( T G v } } d M ( J k d 6 J G w p p x x G v A T 1 & w v k : k M A J x w M o.v G k p k 6 k A G ^ x M M x J x M J v p p M 9 A E A o.G x A M w M ' M d ^ E ^ ^ ' ^ E E A M 4.A M 6 M E x M v J A J p T A v : p k k p p G x ' T J A &.o.T J ",
"9 x M x ( ^ T G G x M G J A ^ ;.T x o.T G } } ( ^ J ^ v M k &.( M } T E J E E ( &.G k T k k w k @.v x v J E T k M M G w d d k p T M v ' A M A x } T E p T A A ' ( T G E w G A v v M ^ G p E T d E x d ( v v T d ( G ^ T w A M A ^ k A J x E 1 x T d J A w 9 T ^ & E d A p d v T E 6 w d ( T J v ' } k v ( T k d 9 J G w w p x x G v A T 6 & w v k : d v A T x p M o.v A k p k 6 x A A ^ x A M x J x v T v p p A 9 M E A } G x A M w M ( v d ^ E ^ ^ ' E E E A M 4.M M 6 M E x A v T M J p T A v : w k k p p G x ( J J A &.o.T G ",
"9 k v k ' E T G G x v G J A E ;.J x o.J J o.o.( ( J ^ M v k &.( v o.T E J ^ E ( &.G k T k k w k @.v v v G ^ J k v M G p d d k p T M v } A M G x ' T ^ p T A A ( ( J G ^ 9 G G v v A ^ J p E J d E v d ( v x J d ( G ( T p A M A E k M J x ^ 6 k T d G A w 9 T E & E d A p d M T E 9 p k ( T J v } } d M ( J k d 9 T G 9 p p x k G v A T 6 & 9 v d : d M A T k w M } M G k w x 6 x M G ^ x M M x J x v J v w w M 9 M E A o.G x M M p v ' v p ^ T E ^ ' E E E A M 4.A M 1 M E k A x T A J w E M M : p d k p p G x ' T T A &.@.J J ",
"6 k v d ' E T G A x v A J A E ;.J x } T J o.} ( ^ J ^ v M k @.( v o.T ^ T E E ( &.G k E k k w x @.v x M G E T x M A G p p k k d T M v ' A M G x } E ^ w E A A ' ' T G E w G A v v A ^ G w ^ J k E v d ( M v T d ' G ( T p A M A ^ k M J k E 6 k T d J A p 9 T ^ & ^ d A p d M T E 9 w k ( T J M } } d M ( T k k 9 T G 9 p p x k A v A T 1 & 9 x k : d v A J x w M } v A k p k 6 k A G ^ k M M x J x M J x p p M 9 A E M } G x M M w v ( M d ^ E E ^ ' E E E A M 4.A M 1 M T k M x J M J p T M v : w d k p p G x ( T T A &.o.J J ",
"9 k M k ' E T G G x v G G A E ;.J x } T J } } ( ^ J E v v k &.( M } T ^ J ^ E ( ;.G k T k x w x &.v x v G ^ T x M M G p d d k p T A M ' A M G v } E ^ p E A A ' ( T G E w G A M v A ^ J p E T k E v d ( M v T d ( J ( E w G A A E k A J x ^ 6 x T d J A w 9 E ^ & ^ d A d k v T E 6 p k ( T J v } } d A ( J k k 9 J G 9 p p x k G x A T 1 % 9 x k & d M A J k p M } x A k w k 6 k A A ^ x M v x G k v T x p w M 9 M E A } G x A M w M ( v d E T ^ ^ ' ^ E E M M 4.M v 1 M T k A x T A G w T A v : w k d p p G x ( J J A &.@.J J ",
"6 k v k ( E T G A x v A G A E ;.G x } T J } } ( ^ J ^ v v k &.^ v } T ^ T ^ ^ ( &.G k E k x w k &.v v v G ^ T x M M G p p d k d T A M ' A A G v ' T ^ p E A G ' ' J J E w G A M v A ( J p ^ J k E v k ( M x T d ( J ( E p A A A ^ k A T x ^ 6 x E d J A p 9 E ^ & ^ d A d d M E E 9 p k ( T J M } o.d M ( T k d 9 T J w p d x x G v A T 1 % w x k & d v A J x w v } v A k p k 6 k A A ^ k M M x J k v J x w p M 6 M E A } A x M M w v ' v d E E E ^ ' E T E M M <.A M 1 M E k M x J A J w E A x : w k d p p G x ^ T J A &.o.J G ",
"6 k v d ( E T A A x M A G A E ;.J x } J J o.} ^ ^ J E v v d &.( M ' T ^ J E E ( &.G k E x x p x &.v v M J E T x M M G p d k x d E A M ' A M G v } T ^ p E G A ' ' T J ^ w J A M v A ( J p E T k ^ v d ( M v T d ' J ( E p G M A ^ x M J x ^ 6 x E k J A w 9 E ^ & ^ k A d d M E ^ 9 w x ( T J v } } d A ( T k k 9 T J w p p x k G v A T 1 % 9 x d & k v A J k w M } v A d w k 1 x M A E x M v k J k v J x p w M 9 M E M o.G x M M 9 v ( v p ^ T ^ E ' E T E A v 4.M v : M T k M v J M J w T M v : w d d w p G k ( J J A &.o.J G ",
"6 k v k ( E T A G k v A G A E &.G k o.T G } } ^ ^ G E v v k @.( v } T E T E E ( ;.G k E x x p x @.M v M J ^ T x A M J d d k x d T A M } A M J v } E ^ d E G G ( ' T J ^ p G G M M A ^ J p E T k E M d ( M v T d ' J ( E p A M G E x A J x ^ 6 x E k J G p 9 E ^ & ^ d A d k M E E 9 p k ( T J M o.} k M ( T k k 9 T G p d p x x G v A T 1 & 9 x k : p v A J k w M } v A k w d 6 k M A E k M M k G k v T x w w M 6 M E M } A k M M w v ( v p E T E ^ ( E T E M M <.A v 1 v T k M x J M J w J M v : w d d w p A k ( T J M @.o.J G ",
"1 k v k ( E T A A k v A G M E ;.G k } J J } } ^ ^ G E v v d &.^ v } T E T E E ( &.G k E x x w x &.v v M G ^ T x M A G p d k k k T A M ' A A J v } E ^ p E G G ' ( T J ^ w J G M M A ^ J p ^ T k E M k ' M v T k ' J ( E p A A G ^ k A J x ^ 6 x E d J G p 9 E ^ : ^ k G d k M E E 9 p k ' E J M } } k M ( T k k w T J w p d x x G v A T 6 % 9 v d & d v A J k w v } v A k w k 1 x M A ^ k v v x G k v G x w p v 6 v E M o.G k M M 9 x ( v p E T E ^ ( E E E M v 4.M v 1 v T k M k T M G w T M v & w d d p w G k ^ J J A @.o.J G ",
"6 d v d ( E T G A k x M G A T ;.G k } J G } } ^ E G E x v d @.^ v } T ^ J ^ E ( ;.G x T x x w x &.M v M J ( E v M M J d d k x d T A M ' A A G v o.E ( d E G G ' ' T J ^ w J G M M A ( J p ^ T k ^ M k ( M v E k ' J ' E p G A A ^ x A J v ^ 9 v E k J A p 9 E ^ & ^ k G d d M E ^ 9 p k ( T J M } o.k M ( T k k 9 T J p p d x x G v G T 6 & w v k & d v A J k 9 v } x A d w k 1 k M A E k M v k G k v J x w w M 6 M E M } A x v M 9 x ( v p E T E E ' E T E M M 4.M v : M T d M x J M G w J M x : w d p w p G k ^ T J M &.o.G G ",
"1 k v d ( E J A A k v A G M T &.G k } J G } } ^ ^ G E x x d @.( v } T E J ^ T ( &.G k E k x p x &.v M M J ^ E v A A J d d k x k E A A } A A J v } E ^ d E G G ' ' T J ^ p G G M M A ( J p ^ T k E M k ( A v T k ' J ( E p G A G ^ x A T v ( 9 v E k J G p w E ( : ^ k A k k M E ^ w p x ' E T M } o.k M ( E x k w T J w d d v x G M G T 6 & w v k : k v A J x w M ' x A d w k 1 k M A E k v v k G d v G x w w M 6 v E M } G x M M 9 x ( x w E T E ^ ( T T T M v <.M v 1 v E k M x J M G w T M x : 9 d d w w A k ^ J J A @.o.G G ",
"6 d v d ( T J A A d x A A M E ;.G k } T G } } E E G E x v d @.^ v } J ^ J E E ( &.G k T x x w x &.M v M J ^ E M M A T d d k x k E A M } A A J M } E ( d ^ G J ' ( T J ( p J G M M G ( T d ^ T k ^ M k ( M M T k ' T ' E p G A G ^ x A J v ( 9 v E k T G p w E ( : ^ k G k k A E ^ 9 p x ' E J M } o.k A ' E x k w E J p d d v v J v G E 6 & w v k : d M A T k w v } v A k w d 1 k M A E d v v k G k x G x w 9 v 1 v T v } A k v v 9 x ^ v p E T E E ( T T T M v 4.M v : v J d v k J M G w T v x & w d p p w G d ^ J G M @.o.G G ",
"1 d x p ( E J A A k x A G M T &.A k } G G } ' ^ E G E x v d @.E x } J E J E T ( @.A k T x x w k @.v v M J ^ T v M A J d k k x k E G M } G G J v o.E ^ d ^ G G } ' T T ^ p J G A M G ( J d ^ T x ^ M k ' A v E k ' J ' E d G A G ^ x A T v ( 9 v E k J G d w ^ ( : ^ k G d k A E ^ 9 d x ' E T M o.o.k M ' E x k w E J w d k v v G v G E 6 & w v k & d v A J k w M } v A d w d 1 d M A E k M x k G d x G k w 9 M 6 M E v } A x v v 9 x ( x w E T E E ' T J T M v <.M x : v T k M k J M G 9 J v x & 9 p d w w G k ( J G A @.} G A ",
"1 d x p ^ T J A M k x M G M T &.G d } J G } } ^ E G T x x d @.^ x ' T E J T T ^ &.G k T k k w x &.v v M J ^ T x M A J d d x x k ^ G M } G A J M o.E ( d ^ G G ' } E J ^ p J G A M G ( T d ^ E x E M k ' M M E k ' T ( E d G A G ^ v A T v ( 9 v E k T G d w E ( 1 ^ x G d k A E ^ w d x ' E T M } o.k A ' T x k w E T w d d v v J M J E 6 & p v k : k v A J x w M } v G k w d 1 k M A E k v x d G d x G x 9 w v 1 v T v } A k v v 9 x ^ x w E J E E ( T J T M v <.M v : v T d M k J v G 9 J v x & 9 p p w w A k ^ J G M @.o.G A ",
"1 d x p ^ T J A A d x M G M E &.A k } J A ' ' ^ E A T x x p @.^ x } J E J E T ^ &.A d T k k w k @.v v M J ^ T v M A T d d x x k E A A } G A J M } ^ ( d ^ J J ' ' E T ^ p J G A M G ( T d ^ E x ( M k ' A M E x } J ' ^ d G G G ( v A T v ( 9 M ^ k J G d w ^ ( : ( x G k x A E ^ w p x ' E T M o.} k A ' E x x p E J w d k M v J M G E 6 : w M k : k M A T k p M } v A d p k 1 k M A E k M v k A d x G k w 9 v 6 v T v } A k v v 6 x ^ x w E T E E ( T T E v v <.M x : v J d v k G v G 9 T M x % 6 p p w 9 A d ^ J J M &.} G G ",
"1 d x p ^ T J A A k v M A M T &.A d ' J G } ' ^ E A T k x p o.^ x ' J E G T T ^ &.G d T k k 9 k &.v x M G ^ T x M A J d k k x k E G M } G A T M o.E ( d ^ J G } ' E T ^ p T G A M G ( J d ^ E x ^ M k ' A M E k ' T ' E d J G G ( v G T M ( w v E k T J d p ^ ( 1 ^ k G k k A E ( w d x ' ^ T A o.o.x A ' E v x w E J p d d v v J M G E 9 : w v k : k v G T x w M } v A k w d 6 x M A E d v v d G d x G k 9 9 v 1 v T v } A k v v 6 x ^ x w E T T E ( T T T M x <.v x & x T d M k J v G 9 J v k % 9 p p w w A d ^ J G M @.} G A ",
"1 d x p ^ T J A M d x M A M T @.A k ' J A ' ' E E A T k k p @.E x ' T T G T T ^ @.A d T k k w k @.v x v G E T x v A G p d k x k E G A } G G J M o.^ ( d ^ G J } } E T ^ p J G A A G ' T k ^ E x ^ A k ' A M E x ' T ' E d J G G ( v A T v ( w M ^ k T G d w E ( 1 ^ x J k x A E ^ w d v ' E J M } o.x A ' E v x p T T p k k M M J M G E 9 : w M x : k v G J x w M } v G k w k 1 k M A ^ k M v k G d x G k 9 9 v 1 v T v } M k x x 6 k ^ x w E J T E ( T J J v x <.v x : v J d v k J v A 9 J v k % 6 p d w w A d ^ G G v @.} A A ",
": p x p ^ J J A A d x M G v T &.G d ' G A ' ' ^ E A T k k p @.^ x ' J T J T T ^ @.G d T d k 9 k @.v x v G E T x M A J d d k x k E A M } G A J M o.^ ( k ( J J } ' E T ( p J J A A G ( T k ( E x ^ A x ' A M E x ' T ' ^ k J G J ( v G T M ' w M ^ k T G d w ^ ( 1 ( x J k x A ^ ^ p d v ' ^ J A o.o.x A ' ^ v x p E J p d k v v J M J E 9 : p M x 1 k v A T x p A } v G k p k 6 k M A ^ k v v k G d x G k 9 9 v 1 x T v } M k x x 6 x ^ x w T T T E ^ T J T v x <.M x & x J p v d G v G 9 J v k % 9 p p w w A d ^ G G M @.} G A ",
"1 p x p ^ T J M M d k M A v T &.A d } G A ' ' E T A T k k p @.E x ' J E G T T E &.A d T k k 9 k @.x x v G ^ T x M M J d d k x d E G M } A A T M } ^ ( k ^ J J } } E T ^ p T J A M G ' T k ( E v ^ A x ' A M E x ' T ' ^ d J G J ( v G T M ( w M ^ x T G k p ^ ' 1 ( v J x x A ^ ( w k v ' E T A o.o.x G ' E v x p E T p k k M M J A J ^ 9 1 w M k 1 x M A T x w A } v A k p k 6 k A A ^ k M v k G k x G k w w v 1 x T x } A d v x 6 k E k w T J T T ( J J T v x <.v x & x T d v d G v A 6 J x k O 6 p w 9 w M k ^ G A M @.} G A ",
": d x w ^ J J A M d k M A v J &.A d ' G A ' ' ^ E A T k k w @.E k ' G E A T J ^ @.A d J d k 9 k @.x k v J E J x M M G p d k x d E A A } G A J v o.^ ( d ^ J J } } E T ^ p T J A A G ( T k ^ E v ^ A x ' G M ^ x } T ' E k J G J ( M G E M ( w M ^ x T G d p ^ ( 1 ( x J k x A E ( w k v ' ^ T M o.o.x A ' ^ v v p T J d k k M v J M G ^ 9 : w M x 1 k M A T x p M } M G k p k 6 x A A E k M v k G d x G x 9 w v 1 v T v ' A d v x 1 k E k 9 T J T T ( T J T x x <.v x & x J d v d G v A 6 J v k % 6 w p 9 9 A d E G G v @.} A A ",
": p k p ^ T J M M d k M A v T @.A p ' G A ' ' E T A J k k p @.E k ( G T G T T ^ @.A d T d d 9 k @.x x v G E J x M M G p p d k k E A M ' A G J M } ^ ( k ^ J J } } E T ( d T J G A J ' T k ( ^ v ^ A x ' A A E v } E ' ^ k J J J ' v G E M ( p M ^ x T J d p ^ ( 6 ( v J k x G ^ ( p d v } ^ T A o.o.x A ' ^ v x p E T p k x M M T M J E 9 1 p M x 1 k M G T x p M o.M G k w k 6 k M G ^ k M M x J k v J x w 9 v 6 v E v } A d v x 6 k ^ k w T J T E ^ J J T v x <.v k & k J p x d G v A 6 J x k O 6 w p w 9 M d E G A M o.} A M ",
": p k w ^ J J M M d k v A v J &.A p ( G M ' ' E E M T k k w @.E k ' J E G T J ^ @.A d J d d 9 d @.x k v G E T x v M G p p k k d T A M } A A J v o.^ ( d ^ G G } ' E E ( d T J G A J ' T k ( ^ M ^ A x ' A A E v } T ' ( k J J J ' M J E M ' w M ( x E J d p ^ ' 6 ' x J x x A ^ ^ p k M } E T A o.o.x G ' ^ v v d E T p k k M M T A J E 9 1 p M x 1 x M G T v p A } M G k p x 6 x M G ^ k A v k G k v J v w w M 1 v E v } A d v x 6 k E k 9 E J T T ^ J J T x k ;.x k % x J p v d G v A 6 G x k O 6 w w 9 6 M p E G G v o.} G M ",
": p k w E T G M M d x M A v J &.A p ' G A ' ( E T A J k k w @.E k ( G T A T J ^ @.M d T d k 9 d @.k k x A E J k v M G p d d k d E M M ' A A J v } E ( d ^ G J } } E T ( d J J A A J ' T x ( E v ( A x } G M ^ x ' T ' ^ k J G T ( M G E M ( p M ( x E J k p ^ ( 1 ( v T x x G ^ ^ p k v } ^ T A @.@.x G ' ^ M v p ^ T d d k M M J A J ^ 9 1 d M x 6 x M G T v p M o.M G x p k 6 x A A ^ k M M x J k v J x w w v 6 M T v } A k v x 6 k ^ k w T J J T ^ J J T x x <.x k % k J p v d G x M 1 G x k O 6 w p 9 9 A d E G A v o.} A A ",
": w k w ^ J G M M p k v A v J &.M d ' A M ' ' E T A J k k w o.T k ' G T A T J ^ &.A d J d d 9 d o.x k x G E J x v M G w p d k d T A M } A M J v } E ( d ^ J G } ' E T ( d T J G A J ' E k ( ^ v ( A v } G A ^ v } E } ^ k T J J ' M G E A ' p M ^ x E J k p ( ' 6 ( x J x v G ^ ( p k v } ^ E A o.@.x G ' ^ M v p ^ T d k x A M T M J E w 1 d M x 1 x M G T v p A o.v J x p k 9 x A G ^ x M M x J k v J x p w M 6 v E v } A k v v 6 k E x w T J T T ^ T J T x k ;.v k % k G p x d A x A 6 G x d O 6 w p 9 6 M p E G A v o.} A M ",
": p x w ^ J G M v d d v M v J &.A p ' G A ( ' E T M J k k w o.E d ( G T G T J E @.M p J d d 6 d o.k k x A E J k v v G p p d k p T A M ' A A J v o.E ( d E G J ' ' T T ^ p J J A A G ' T k ( ^ M ( G x } G A ^ v } E } ^ k J J T ( M J ^ M ' w A ( v E T k d ( ' 6 ' v T x v G ^ ( p k v } ^ E A o.o.v G } ^ M M d E T d x x M M J A T ^ w 1 p M v 6 x A J E v d A } M G x p x 9 x A G ^ x M v x J k v J x w w M 6 v T M } A k v v 6 x ^ k 9 T T T T ^ J J J x k ;.x k % k J w x p G x A 1 G x d . 6 w w 9 9 M p E G A x @.} A M ",
"& p k 9 ^ J G M v p k v A v J &.A p ( A M ' ( T T M J k k w o.E d ( G J G J T E @.M p J d d 6 d o.k k x A E J k v M A p p d k p T M M ' A A G v } E ^ p ^ G G ' ' E T ^ p T G A A G ' T k ( ^ v ( G v } G A ^ v } E } ( k J J J ' M J E A ' w A ( v E J k d ( ' 6 ( v T v v J ^ ( d k M } ( E A @.@.v G } ^ M v d E T k k x M M T A J ^ w 1 d M v 6 x M J E v d A o.M G x d x 9 x A G ^ x M M x J x v J x p w M 6 v E M } A k v v 6 x ^ x w E J T T ^ J J J x k <.x k % k J p x p A x M 1 G x d . 1 w w 9 6 M p E A A v o.} A M ",
"& w k w ^ J G M v p k v M v J @.M p ( G A ' ( T T M J d k 9 o.T k ' G T A T J E @.M p J p d 6 p o.k d x A T J k v v G p w d k p T M M ' A M G v } E ^ d E G G ' ' T T ^ p J J A A G ' T k ( ^ v ( A v } G A ^ M } E } ^ k T J T ' A J E M ' p M ( v E T k d ( ' 6 ' v T v v G ( ( d k M } ^ E G @.@.v J } ^ M M d ^ T d x x M A J A J ^ p 1 d M v 6 x A J E v d A o.M G x d x 9 x G G ^ x A A x J x v T x w w M 6 M E M o.A k M M 6 k ^ x w E J T E ^ T J T x k ;.v k % k G w x d A x A 1 G k d O 1 w w 6 6 v p E A A x o.' A M ",
": p k w E J G v v p d v M x J @.A p ( A M ( ( T T A J d d w o.T d ( G J A T J E @.A p J p d 6 d o.k d x A T J k v M G w p d d p T M v } M M J x } E ^ p E G G ' ' T J ^ p J J A M G ( T k ( ^ v ( A x } G A ^ v } E } ( x J J T ' M J E A ' p A ( v ^ J k d ( ' 6 ' v T v M G ( ( d k M } ( E G @.@.v J } ^ M M d ^ T d x x A M T A J ^ w 6 d A v 6 x A J E v d G o.A J x d v 9 v A G ^ x M M x J x M J x p p M 6 M E M } G k v v 9 x ^ x p E T T E ( J T J v x ;.x k O k G w x d A k M 1 G k d . 1 w w 6 6 v p E A A x o.' A M ",
"& w d 9 E J G v v p k v M x J &.M p ( G M ' ( T J M J k d 9 o.T d ( G T A J G E @.M p G p p 6 p o.k d x A T J d v v A w p p k p T M v ' A M G v } E ^ p E G G } ' T T ^ p J G A A G ( T d ( E v ^ A x ' A A ^ v } E } ( x T J T ' M T ^ A ' p M ' v E T k d ( ' 9 ' v T v v J ( ( d x M } ^ E G @.@.v J } ^ M M d ^ T k x x A A T A T ( w 1 d M v 9 x A J E M d A o.M J v d x 9 v G J ( x A A v J x M J x p w M 6 M E M } G k M v 9 x ^ x w E J E E ( T J T v x <.x k % k J p x p A x M 1 G k p . 1 w w 6 6 M p E A A x o.} M M ",
"& w k w E J G M v p d v M x G @.A p ( A M ( ( T T M J p d 9 } T k ( A T G J J T o.M w J p p 1 d o.k d x A T J k v v A w w d d p T M v ' A M G x } T ^ p E G A ' ' T J ^ w J G M M G ( T k ( E v ^ A x } A A ^ v } E } ( x T J T ' A J E A ' p A ' v E T x d ( } 9 ' M T v M J ( ( k k M } ( E G @.@.M J } ^ A M d ^ E k x x A M T A J ^ w 6 d A v 6 x A J E v d A o.M J v d x w v G G ( v A M v J x v T x p w M 9 M ^ M o.G k M M 9 x ( x p E T E E ( T J T v x <.v k % x J p x d A x M 6 A k d . 1 9 w 6 1 v p E A A x o.' A M ",
"& w d 9 E J A v v w d x M x J @.M w ( A M ( ( T J M J d d 9 o.T d ( A J A J J E @.M p J p d 1 p } k d k M T G k x v A w p p d p T M v ' M M A x ' T ^ p E A G ' ( T T ^ p J G A M G ( J d ( ^ v ^ A x ' A A E v } E } ( x J J T ' M T ^ A ' p A ( v E T x k ( ' 9 ' v T v M J ( ( d x M o.( E G @.@.M J o.^ M M d ^ E k x x A A T A T ^ p 6 d A v 9 v G J ^ M d A o.A J v k v w v G J ( v A A v T x M J v p p M 9 M E M } A x v M 9 x ^ v w E J T E ^ T J T v x <.v x & k J p x p G x M 1 G k d . 1 w 9 6 6 M w T A M x } ' M M ",
"& w d 9 E J A v v p d x v x G @.M p ( A M ( ( T T v J d d 9 o.T p ^ A T M J G E @.M p J w p 6 p o.d p k A T G d x v A w w p d p T v v ' M M A x } T ^ p E A A ' ' T J ^ p J G A A G ( T d ( E v ^ A k ' A A ^ x } E } ( k T J T ' A J ^ A } d A ' M E T x d ( } 9 } M T v M J ( ' k x M } ( ^ G @.&.M J } ( M M k ^ E k x x A A T G T ( w 6 d A M 9 v A T E M k G @.A J x k v w v J J ( v A A v J x M T v p p M 9 M ^ M o.G x M M w v ( x p E J E E ( T J T v x <.v x & x J p x d A x M 1 G x d . : 9 w 1 6 v p T A M x o.' A v ",
"& w d 9 E J A v v w p x M x G @.M w ( A M ( ( T T M J d d 9 } T d ( G J A J G E o.M w G p p 1 p o.d d k M T G d x v A w w p d p J M v ' M M A x } T ^ w E A G ' ( T J E w J G M M A ( T d ^ E x ^ M x ' A A ^ v } E ' ^ k T J J ' M J ^ A ' d A ' M E T x k ' ' 9 ' M T v A J ( ( k x A o.( E G &.@.M J } ( A M d ^ E k v v A A T A T ^ p 6 d A M 9 v G J E v k A o.M T v k v w v J J ( v A M v T x M T v p p A 9 M ^ M } G x M M 9 v ( x p ^ T E E ( T T T M v <.v x & x J p x d G x A 6 G k d O 1 w 9 6 1 v p T A M x o.' M M ",
"% w d 9 T G A v v w p x M x G o.M p ^ M M ( ^ T J M G d p 9 } J p ( A J A J G T o.v w G p p 1 p o.d d k A T G d x x A 9 w p d w T v v ' M M G k ' T E p E A A ( ( T J ^ w J G M M A ( J d ^ E x ^ M x ' A A E v } T ' ^ k J J T ' A J E A ' p A ' M ^ T x k ( } w ' M E M M T ( ' k x A o.( ^ G @.@.M T o.( A M k ( E k v v G A E A T ( p 6 k A M w v G J E M d G o.A T v d v p v J J ( v A A v T x M T v p p M w M E M o.G x M M 9 v ( v d E T E E ( E T T v v <.M x & x T p x d G x A 6 G x d . 1 w w 6 1 v w T A M x } ' M M ",
"% 9 d 9 E G A v x w d x v x G @.M w ( A v ( ^ J J M G p d 9 o.T p ( G J M J G T @.v p G w p 1 w o.d p k M J G p k x A 9 w p d p J M x ' M M A x ' T ^ p E A A ' ' J J ^ p G G M M G ( T d ^ T x ^ A x ' A M E x } T } ^ k J J J ' M J ^ M ' p A ( M E T x k ( } w } M E M M J ( ' k x M o.( E G @.&.M J } ( M A k ^ E k v v A A T G T ^ p 6 d A M 9 v G T E A k G o.A J M k v w M G J ' v G A v T x M T v d p A 9 A E A o.G v M M w v ( v p E T E E ( T J T M v <.v v & x J p v d G x M 1 G x d O 1 w w 6 6 M p E A M x o.' M v ",
"% 9 p 6 T G A v x w p k v k G o.M w ( A v ( ^ T J v G p p 6 } T p ( A J A J G T o.v w J w p 1 p o.d p k M T G d k x A 9 w p d w J M x ( M v A x ' T E w T A A ' ( T J E w G G M M A ( J d ^ T x ^ A k ' A M E x } T ' ( k T J T ' M J E A ' p A ( M E T x d ' } 9 ' M E M M T ( ' k v A o.( ^ G @.&.M T o.( A M k ^ E x v v G A E G T ( p 6 k A M 9 v G J ^ M k G o.A J v k v p M G T ( M G A v T v M T v d p M w M ^ A o.G x A A w v ( v p E T E E ( E T T v v <.M x : x T d v d G v A 6 G x d O 6 w w 6 6 M w T A M x o.' M M ",
"% 9 d 9 T G A v x w p x v k G @.v w ( M M ( ( J T v G p d 9 } J p ^ A J M G G T o.M w G w p 1 w } d p d M T G p k x A 9 w w d p T v v ( M v A k ' T ^ w T A A ' ( T G ^ w G G M v G ( J p ^ E x E M k ' A M E x ' T ' E k J G J ( M J E A ' p A ' v E T x k ( } w } M E M A J ' ' k v A o.( ^ J &.&.M J } ( A A k ^ ^ x M v G A E G T ( p 6 k G M w v G T ^ M k G @.A T M k M w M G J ' v A G v J v A T M d p A w A ^ M o.G x M M w v ' v d ^ T ^ E ' E T T v v <.M x & x J d v k G v A 6 G x d O 1 p w 6 6 M p E A A x o.' M v ",
"% 9 d 9 E G A x x 9 p x v k G o.v w ( M v ( ^ T G v G p p 6 } T p ^ A J M J G T o.v w G w p 1 p } d p d M T G p k k M 9 w p p w J v x ( M v G k ' T ^ w E A A ( ( J J E w G G M M A ( J d ^ T k E M x ' A M E x ' J ' ^ k J G J ( M J E M ' p M ' v ^ T k d ( } 9 ' M E M M T ' ' x v A o.( ( J @.&.M J o.( A M x ( ^ k M M G G E G E ( p 9 k A M w v J T ^ M x G @.A T M k v p M J J ' v G A M T v M T v d d M w M E A o.J x A A w v ' v p ^ T E ^ ( E T E M v <.M x : x J d v k G x A 6 J x d O 1 w p 6 6 M p E A A x o.' M M ",
"& w d 9 T G A x x w p k x k G @.v w ^ A v ^ ^ J J v G p p 1 } J w ^ A G M G A T o.x 9 G w p 1 w } p p d M J G p k x M 9 w w d w J v x ( v v A k ' J E w T A A ( ( T J E w G A v v A ( J d ^ T k ^ M k ( A M E k ' T ' ^ k J G J ( M G E A ' p A ( v E T x d ' ' 9 } M E M A J ( ' k v A o.( ^ J &.&.A T o.( G M x ( E x v M G A E G E ( d 9 k A M w M G T E M k G @.G J M k M w M J T ' M G G v T v A T M d d A w A ^ A o.J v M M w M ( v d E T E ^ ' E T E M v 4.M v : v T d M d G v A 6 J x k O 6 w w 9 6 M d E A M x o.' M M ",
"& w d 9 E G A x x w p x x k A o.v w ^ M v ^ ^ T J v G w p 6 } T p ^ A J M G G T o.v 9 G w w : w } d p d M J A p k k M 6 9 w d w J M x ( v v M k ' T ^ w T M A ' ( J G E 9 G A M v A ^ J p ^ T k ^ M k ' M M E x ' J ' ^ k J G J ' M J E A ' w A ( v E J k d ( } 9 ' M T M M J ' ' k v A o.' ^ J &.&.M J o.( G A x ( ^ x M M G A ^ J E ( d 9 k G A w M J T E A x G @.A T M k M p M G J ' M G G M T v A T M k d A w A ^ A o.J x A A w M ' M d E E ^ ^ ' E T T M M <.M v : v J d v k G v A 6 J v k O 6 p w 9 6 M p E A A x o.' A M ",
"& w d 9 E G A x x 9 p k v k A o.v 9 ^ M x ^ ^ J J v G p w 6 } J p ^ M J M J G J o.v 9 G w p : p o.p p d M J A p k x M 9 9 p p w J v x ^ M v M k ( T E w T M M ( ( J G ^ 9 G A M M A ^ G p E T k E M d ' A M E k } T ' E d J G J ( M G E M ' w M ( v E T k d ( ' 9 ' M T v M T ( ' k v A o.( ^ T @.&.A T o.( A A x ( ^ x M v G G E J E ( d 9 k G M w M J T ^ A k G @.G J M x M p M J T ' M G A M E v A T M d d A w A ^ A @.J x A M p v ' v d ^ E ^ E ( E T E M M 4.M v : v T k M k J v A 9 J v k % 6 p w 9 9 M p E G A x o.} M M ",
"& w k 9 E J A v v w d k x k G o.v w ^ M x ^ ^ J G v G w p 6 } J p ^ M J v G A T o.x 9 G w w : w } w p d M T A p k k M 9 9 w p w J v k ( v v A k ' J E w T M A ( ( J G E 9 A A v v M ^ J p ^ T k E M k ' M M T k ' T ' ^ d J G G ( v G E M ( p M ( v E J k d ( } 9 ' M T v M J ' ( k v A o.' ^ J &.&.A T o.( A A x ( ^ x M M G G E J E ( d w k G A w M J T ^ A k J @.G T M x M p A J J ' M J G M T M A E M k d A p A ^ A @.J v A A p v ( M d ^ E E ^ ( E E E M v <.M v : v T d v k G v G 9 J x k O 6 p w 9 9 A p E A A v o.} A v ",
": w d 9 E G A v v w d x v k G @.v 9 ^ A x ^ ^ J G x G p p 1 } J w ^ M J M G A T o.x 9 A w w : w } p p d M J A p d k M 6 9 w p 9 J x k ( v v M k ' J E w T A M ( ( J G E 9 G A M v A ^ J w ^ J k E M d ( A v T k ' J ' E d J G J ( v G T M ' p M ^ v E T k d ( ' 9 ' v T v M J ( ' k x A } ( ( J @.&.M T o.( G A v ( ^ v M M G G ^ J E ' d w x G A p M J T ^ M x J &.G T M x M p M J T ' M G G M T v A E M k d A w A ^ A @.J v G M p M ' M d ^ E ^ ^ ' E E E M M 4.A v : v T k M k J M G 9 J v k % 6 w p 9 9 M p E G A v o.' A M ",
"& p k 9 E J A v v w d x v x A o.M w ( M v ^ ^ J J x G w p 1 } J w ^ M G M G A J } x 9 A w w : w } d w d M J A p d k M 6 9 w p 9 G v k ( v v M k ( T E 9 T M M ( ( J J E 9 G M v v A ^ G p E T k E M d ' M v T k ' J ' E d G G G ( v G E M ( w M ( x E J k p ( ' 6 ' M T v M J ( ' k x M o.( ^ J &.&.M T o.' G A x ' ( x M M J G E J ^ ( d 9 x G M p M J T ^ A x J @.G T M x M d A J T ' A G G M E M A T M k d G w G ^ G o.J v A A p M ' M d ^ E ^ ^ ' ^ E E A v <.A M 1 v T d M k J v A 9 J v x % 6 p w 9 9 A d E G A v @.' A M ",
"& w k w E J G v v w d x v k G @.v w ( M v ^ ^ J G v G w w 6 } J w ^ A G v G A J o.x 9 A w w : w } p p d M J A w k k M 6 9 w p w J x k ( v x M d ' J E 9 T M A ( ( J G E 9 A A v v M ^ J w E T d E M d ' M v T d ' T ( ^ d G G G ( v G E M ' w M ^ x E J k p ( ' 6 ' v T M M J ( ( d x A o.( ^ J @.&.M T o.( A A x ( ^ v M A J G ^ J E ' k w x G A w M J E ^ A x J @.G E M v M d M T T ' M J G M E v A E M k d A p A ^ A o.T v A M p M ' M d ^ E ^ ^ ' E T ^ M M 4.M v : v T k M x J M G 9 T v k % 6 p p w 9 M d E G G v o.} A M ",
": w k 9 E J G v v w d x M k G @.v w ^ A v ^ ^ J J v G w w 6 ' J w ^ M G v G A T } x 6 A w w : w } p w d M J A w k k v 6 9 w p 9 G x k ^ v x M d ( T E 9 J M M ( ^ J G T 9 A A v v A ^ G p E T k E v k ( M M T k ( T ( E d G G G ( v G E M ( w M ( x E J d p ^ ' 9 ' v T v M J ( ' k x A } ( ^ G &.&.M T } ( A A x ' ^ v M A J G E T ^ ' d p x J A w M J E ^ A x J &.J T M v M d M T T } M J G M E M A E A k d G w G ^ A @.J M G A p M ' M d ( E ^ ^ ' ^ E E M M <.M M 1 M T k M x J M G 9 T v x % 9 p w w 9 M p ^ G A v o.' A A ",
": p k w E J G v v p d x v k G @.M w ( M v ^ ^ T J v A p p 1 } J w ^ M G v G A J } x 9 A 9 w & 9 } p w p v J A p d k v 6 9 w w 9 G x k ^ x x M k ( J E 9 T M M ( ( G A E 6 A A v v M E G w E J d E v d ( M v T k ' J ' ^ p G A G ( v G T v ' w M ( x E J k p ^ ' 6 ( v J v v J ( ( d x M o.( ^ G @.&.M T o.' A A x ( ^ v M M J J ^ J E ' k w x J A p A J E ( A v J &.G E A x M d A J T ' A J G A E M A ^ M k d G p A ^ G o.T v A A p A ' A d ( E ^ ^ } E E E A M 4.A v 1 v E d M x J M G w J v x % 6 p p w 9 A d E G G v @.} A M ",
": w k 9 ^ J G M v w d x M x G @.M w ( M v ( ^ J J v G w w 6 } J w ^ M G v G A J } x 9 A 9 w & w } p w d v J A w d k M 6 6 9 p 9 G x k ^ v x M d ( J T 9 T M M ( ^ G A E 6 A M v x M ^ G p E T d E v d ( M v E d ' J ( E p G A G ^ x A T M ( w M ^ x E J d p ^ ' 6 ( v T v v G ( ' d x A o.( E G @.&.M T } ( G A k ( ^ x M M G G E J ^ ( d w x J A w A J E ( G x J @.G T M x A d A J T ' M J G M E M G E M k k A p A ^ G @.J v G A p M ' M d ( E ^ ( } E E E A M <.A M 1 v E k A k T M G 9 T v x % 9 p p w w A d ^ G A M o.} A M ",
": p k w E J G v M p d v M x G @.M w ( A v ( ^ J J v A p p 6 } J w ^ M G v G A J } x 6 A 9 w : 9 } w w d v J A p d k v 1 6 w w 9 A x d ^ v x M d ( J T 9 J M M ^ ^ G A T 9 A A v x M ^ G w E J k T v d ( M v T k ' J ( E p G A G ( x A T v ( w M ^ x T J k p ^ ' 6 ( v T v M G ( ( d x M } ( E J @.@.M J o.( A M x ( ^ v M M J G E T E ' k w x J A p A J E ^ G v T @.G E A v M d M T T } M T J M E A A E A k k G p G ^ G @.T M G A p M ' M k ^ ^ ^ ( ' E E ^ A M 4.A M 1 v T k M x J M G 9 T M x & 9 p d w 9 A d ^ G A v o.} A A ",
": p k w E J G v v p d v M x J @.M w ( A M ( ( T J v G w p 6 ' J w ^ M G v A A J } x 6 M 9 9 & 9 } w w p v J M w d d v 6 6 9 w 9 G x k ^ x k M d ' J T 6 J M M ( ^ G G T 6 A M v x M E G w E T k E x d ( v v J k ' J ( E p G A G ^ x A T v ( 9 M ^ k T G d p ^ ' 6 ' v T v v G ^ ( d x M } ( E G @.&.M T } ( A M x ( ^ x M M G G ^ T E ( k w x J A p M T E ( G x T @.J E A v M d A J E ' A J G A ^ M G E A k k G p A ( G @.J v G A p M } A k ( E ^ ( ' ^ E ^ A M 4.A M 6 v E k M x J A G 9 T M x & 9 d p w w A d E G G M @.} A A ",
"& p k p E T G M v p d v v x J @.M p ( M v ( ( J J v G p w 6 o.J w ^ A G M G A J o.x 6 A 9 9 & w } p 9 p v J A p p k v 6 6 9 w 9 G k d ^ x k v d ( J T 9 J M M ^ ^ G A T 6 A M v x M E G w E J d T v p ( v v T d ( J ( E p G A A ^ x A J v ( w M ^ x T G d p ^ ' 1 ( v J x v G ( ( d x M o.( E G @.@.M J o.( A A k ( E x M M G G E J ^ ' k w x J A p A J E ( G v J &.J E A x A d A T E } M T J A E M G E M x k G p G ( G @.T M G A d A ' M k ^ ^ ( ( } ^ E E A A <.A M 1 M E x M x J M J w J M x & w p p p w A d ^ G G v @.} G M ",
": p k w ^ J G M M p d v M x G @.M p ( A M ( ^ T J v G p p 6 } J w ^ M G v G A J } x 6 A 9 9 & 6 ' p w p v G A w p k v 1 6 9 w 9 A k d ^ x k v d ( J E 9 T v M ^ ^ G A T 6 M M x x M E G w E J d T v d ( M v T d ( J ( E p A M G ^ x A T v ( w v E k T G d p ^ ( 6 ( v T x v G ^ ( d x M } ( ^ G @.&.v T } ( M A k ( ^ x M M G G ^ J E ( d w x J A p A J E ( G x J &.J E A x A d A T T ' A J G A E A G E A x d G p G ( G @.T M G G p A ' A k ( ^ ^ ( ' ^ ^ E A M 4.A M 1 M E x A x J M G w T v x & w d p w w A d ^ G G M @.} A A ",
": d k w ^ J G M v d k x A x J @.M w ( A v ( ^ T J M G w p 6 } T p ( M G M G A T } k 6 A 9 9 & 9 } w w p v G M w p d v 1 6 9 w 9 G k d ^ x k M d ( J T 6 J M v ( ^ G M T 6 A M x x M ^ G w E J d T v p ( v v T d ' J ( E p G A G ^ x A T v ( 9 M ^ k T G d w ^ ( 1 ( x J x x G ^ ( d x M } ^ E G @.@.M J o.( A M k ^ ^ k v v G G E J E ' k w x J A w M T E ( G v T &.J E A v A d A T E } A J J A ^ M G E A k k G d G ( G @.T v G G p A ' M k ( E ( ( } ^ E ^ A A 4.A M 6 M E k M x T A G w T M v : 9 d p w w A k ^ J G M @.} G M ",
": p x w ^ J J M v p k v M x J &.M w ( A M ( ( T J v G p p 6 } J w ^ A G M G A J } x 6 A 9 9 & 9 } w w w v G A w p k v 1 6 9 w 6 G k d ^ x k v d ( G T 6 J M v ^ ^ G A J 6 M M x x v E G w T J d T x p ^ v x J d ( J ( E p A M A ^ x A T v ( 9 v ^ k T G d p ^ ' 1 ( x J x v G ^ ( d k M } ^ E G o.@.v J o.( A M k ^ ^ k v v G A E J E ' d w x G A p M J E ( G x T @.J E A M A k A T E } G J J A E A G E A k k G d G ( J &.T M G A d M } A k ( ^ ( ( ' ^ ^ ^ A M 4.A M 1 M E k A x T A J w T M x & w d d w p A d ^ J G M @.} G A ",
": p x p ^ T G M v p k v A v J @.A p ( A M ( ( T T v G p p 6 } J p ^ M J v G A T o.x 6 A 9 9 : 9 } w w p x G M w p d v 1 1 9 w 6 A k d E x k M p ( G J 6 J v M ^ E G A T 6 A M x x M E G w E J d T x p ^ v x T d ' G ( T p G A G ^ k A T v ( 9 v E k J G d w ^ ( 1 ' x T x v G ^ ( p k v } ^ E A @.@.v T } ( A M k ( E x v M G A E J E ' d w x G A w A J E ( G v J &.J E A v A d A T E ' A T J A ^ M G ^ A k k J d G ( J @.T M G G d A ' A k ( ^ ( ( } ^ E ^ A M 4.G M 6 M E k M x T M J w T M v : w d d w p A k ^ J J M @.} G A ",
"1 d x w ^ J G M M d k v M v J &.M p ( A M ( ( T J M G p p 9 o.J p ^ A J M G A J } x 9 A 9 w & 9 } w w p v G M w p d v 1 1 9 w 6 A k d ^ k k M p ( G T 6 J M v ^ E G A T 1 M v k x v ^ A w E J d T x p ^ v x T d ( G ( T p A A G E x A J v ( 9 v ^ k T G p w ^ ( 1 ( v J x v A ^ ^ p x M } ^ E G @.@.M J } ( A M d ^ E k M M G G E J E ( d w x G A p M T E ( G v T &.J ^ A v A d A T E } A T J A ^ M G ^ G x x J p G ( J @.T M J G d A ' A k ( ^ ( ( } ^ E ^ A A 4.A M 6 A E x A x T M J p T M x : w d d w w A k ^ J G M @.} A A ",
": d x w ^ T J M v d x v M v J @.M p ( A M ( ( J J M J p p 6 } T p ^ M G M G A T o.x 9 A 9 w : 9 ' p w p x G A w p d v 1 1 9 w 6 A k d E k k v p ( G T 6 J M v ^ ^ A A J 6 A M x k v E A 9 T J d T x p ( v v J d ( G ^ T w G M A ^ k A J v ( 9 v E k T G d w ^ ( 1 ( x J k x A ^ ^ p k v } ( E G @.@.v J } ( M M k ^ ^ k v v G A E J E ( d w k G M p M J E ( A v J &.J E A v A k A T E } A J J A ^ A J E A x k J d G ( J @.E M J G d A } M x ( ^ ( ( } ^ ^ ^ A A 4.G A 6 M E k A v J A G w T A v : 9 d d p w A k ^ J G M @.} G A ",
"1 p x p ^ J J A M d k v M v J &.A p ' A M ( ( T J M G p d 9 } T p ^ M J M G A T o.x 9 A 9 w & w } w w p v G A w p d x 1 1 9 w 6 A k d E k k v p ( G T 6 J v v ^ E G A J 6 M M x x M E A w T J d T x p ^ v x J d ( J ^ T w A A A ^ x M T x ^ 9 v E k J G d w E ( 1 ( x J x x A ^ ( p k M } ^ E G @.@.v J } ^ M M k ^ E k v v A G E G E ' d 9 x G A w A J E ^ A v J &.J E A v A k A T E } A T J A E A G ^ A x x G d J ' J &.T M G G d A } A k ( ^ ' ( } ( ^ ^ G M 4.A M 9 M E x A v T M J w T M v : w d d p w A k ( J G M @.} G G ",
"1 d x w ^ T J M M d k v A v J &.M p ( A M ' ( T T M J p p 6 o.J p ^ A J M G G J o.x 9 A w w : 9 } p w p v G M w p d x 1 1 6 9 6 A k p ^ k k v p ( G T 1 J v v ^ E G A J 6 M M k k v E A 9 E G p J x w ^ v x J d ( G ^ T p A M G E k A J x ^ 6 v E k T G d w ^ ( 1 ^ x J k x A ^ ^ p d v } ^ T A o.@.M J o.^ A M d ^ E k v v G A E G E ( p 9 k G A w M J E ^ G x T &.J E A v A d A T E } A J T A ^ A G ^ G x x J k J ( J @.E A J G d A ' A x ' ^ ( ' } ^ E ^ A A 4.G M 6 A E x A v T A J p T M v : w d d p w A k ( J G A @.o.G A ",
"1 p x p ^ J J A M d k v M v J &.M p ( A M ( ( T T v J d p 9 } T p ^ A J M G A T } x 9 A w w : 9 } w w d v G M w p d v 1 1 9 9 1 A k d E k d x p ^ G J 6 J v x ^ E A A T 1 M M x k v E A 9 T J d T x p ^ v x J d ( G ^ T w A M A ^ k A J x ^ 6 v E k J G p w E ( : ( k G k x A ^ ( p k M } ^ E A o.@.v J } ^ M M k ^ E k v v A A E G T ( d 9 k G A w M J T ^ A x J @.G E A v A d A T E } A T J G ^ A G ^ A x x J d G ( J @.T M J G d A } A x ( ( ( ' } ( ^ ^ G A 4.G A 6 M ^ x A v T A J w T A v : w d d p w G k ^ J G M @.} G A ",
"1 d x p ^ T J M M d k M A x T &.A p ' A A ( ' T T M G p d 9 } T p ( A J M G A T o.v 9 A 9 w : w } p w p v G A w d d v 1 1 9 w 6 A k d E k k v p ^ G T 1 J v v E ^ A A J 1 A v x k v E A 9 T G p T x w ^ x k J d ( G ( T p A M A E k A J x ^ 9 x E k J G d w ^ ( 1 ( x G k x G E ^ p d v ' ^ E A @.@.v J } ( M M d ^ E k v M G A E G T ( p 9 k G M p M J T ^ A x J &.G T A v A d A E E ' G J J A E A J ^ G x x J d J ' J &.T A J G k A ' A x ' ^ ' ( } ( ^ ^ A A 4.A A 6 A E x A v E A J p E M v : p d k w p G k ^ T G A &.} G A ",
"1 d x p ^ T G M M d x M A v J &.A p ' A A ( ( T J M G d d 9 } T p ^ A G M G A T o.v 9 A 9 w : w } p w d v G A w d d v 1 1 9 9 6 A d d E x k x p ^ G J 6 G v v ^ E A M T 1 A v x k v E A 9 T G p T x w ^ x x J d ( A ^ T w A M A ^ k A J x ^ 6 x E d J G p 9 ^ ( : ^ x J k k A ^ ^ w k v } ^ T A o.@.v J } ^ M M k ^ E k v v A A T G T ( p 9 k G M p M J T ^ A x J &.G E A x A d A T T ' A T J G ^ A J ^ G v x J d J ' J &.E A G G k A } G x ( ( ( ' } ^ ^ ^ A A 8.G A 6 M E x A v T A J p T M M : p k d p w A k ^ J J A @.o.G A ",
"1 d x p ^ T J M M d k v A v J &.M p ' A M ' ( T T M G d d 9 o.J d ( A J M J G J o.v 9 A w w : w ' p w p v J A w d d v 1 1 9 w 6 A k d E k d v w ^ G J 6 G v x ^ ^ A A J 1 M v k k x T A 9 T G p J x p ^ x k J p ( A ^ T w A A A E k M T x ^ 6 v E k T G p w E ( 1 ^ x J k x A E ^ p k v ' ^ T A o.@.v G } ^ M M d ^ T k x v A A E G T ( p 9 k A M w M J T ^ A x T @.G E A v M k A T E } A J J A ^ A J ^ G x x T k J ' J @.E A J G d A ' A x ' ^ ' ( o.^ ^ ^ G A 4.A A 6 A ^ x A v T A J p E A M : w d d p p G k ^ T J M @.o.G A ",
"1 d v p ^ T T M M k k M A v J &.A p ' G M ' ( T T M T d d 9 o.T p ( A J A J G T o.v 9 G w w : w } p w d v J A w p d v 6 6 9 9 6 A k p E k k v p ^ A J 1 G v v ^ E A M T 1 M v x k v E A 6 T G p J x w ^ x k J d ( G ^ T w A M A E k M J x ^ 6 x E k J A p w E ( : ( k G k k A ^ ^ p d v ' ^ T A o.o.v G } ^ M v d ^ E k v v A M T G T ^ p 9 k A A w M G T E A x J @.G T M v M d A T E ' A T J A E A J ^ G x x J d J ' J @.E M J G k G } A x ( ( ( ' o.( ^ ^ G A 8.G A 9 A E x G v T A T p T M v : p k d p p G k ( T G M @.o.G G ",
"1 d v p ^ T J A M d k M A v T @.A p ' G M ' ( T J M J d d 9 o.J d ( A T M J G T o.v 9 G w p : w } p p p v J A w d k v 1 6 6 w 6 A k p E k k v w ^ G T 6 J x v E E A M T 1 M v k d v T A 9 T G p T x w ^ x x J p ( A ^ T w A M A ^ k M J k ^ 6 x E k J G p w E ( : ^ k G k k A ^ ^ w k v ' E T A @.@.v G ' ^ A M d ^ E d x v A A T G T ( p 6 k G M w M G T ^ A x T @.G T A v A d A T E } A T J A E A J ^ G x v J d J ' T &.E A J G k A } G x ' ( ( ' } ( ^ ( G A 4.G M 9 A ^ x A v T A J p T A v : p d k p w G x ( J J A @.} G G ",
"1 d x p ( T J A A d x M A v J &.A d ( G M ' ( T T M J d d 9 o.T p ^ A J M J G T o.v w G w w 1 w } p p p M J A p d k v 1 1 9 w 6 A k d E k d x p ^ A J 1 G x x ^ E A M T 1 M v k k v E A 9 T G p T k w ^ x k J p ( G ^ J w A M A E k A J k E 6 x E d J G p w E ( : ( k G k k A E ^ p d v ' ^ T A o.@.x G } ^ M M d ^ E k x x A A T A T ^ p 9 d A M w M G T ^ M x G @.G T M x A d A J T ' A T J A ^ M J ^ G x x J d T ' J &.E A J G k A } G x ' ( ' ' o.( ^ ( G A 4.G A 6 A ^ x A M T A T p E A M : p k d p w G k ( J J M &.o.J G ",
"6 d v p ( T J M M d k M A v T &.M d ( G A ' ' E T M J d d 9 } T d ( A J A J A T o.v 9 G w w : w } p w p v J A w d d v 1 6 9 w 6 A k d ^ k d v w ^ G J 6 G v x E E A M J 1 M v x d v T M 6 T A p J x w ^ x k J p ^ G ^ T w A M A E x M J x ^ 6 x E d J G p w E ^ : ^ k G k x A E ^ w d v ' ^ T A o.@.x G ' ^ M M d E E d x x A A T G T ( p 6 k G A w M G T ^ A x J &.G T A x M d A T T } A J J A ^ A G ^ G x x J d J ' J &.E A J G k G } A x ' ( ( ' } ( ^ ( G G 4.G A 9 A E x G v T A J p E M v 1 w k k p p G x ( T J A @.o.G A ",
"6 d v d ( T T A A d x M A v T &.A d ' G A ( ( T T M T d d 9 o.T d ^ G J M J G T o.v w G w p : w } d p p v J A w d k v 1 6 9 w 6 A k d E k k v p ^ A J 1 G v v E E A A J 1 v v k k x E A 6 T G p T k w ^ x k J p ^ A ^ J w A M A E k M J k ^ 6 x E k J G p 9 E ( : ^ k G d k A ^ ^ p d v ' E T A o.@.v G } ^ M v d ^ E d x x A M T G T ^ p 6 k A M w M G T ^ M k J &.G T M x M d M T T } A J J A ^ A G ^ G x x T k J ' T &.T A J J k G } G x ' ( ( ' } ( ^ ( G A 4.J A 9 A E v G M T A T p T A M 1 w k d p p G k ( T J A &.} J G ",
"6 d x d ( E J M M d x M G v J @.A d ( G M ' ' E T M J d d 9 o.T d ( A J A J G E o.v 9 G w w 1 w } p p d v J A p d k v 1 6 9 w 6 A k d E k k v p ^ G T 1 G x x E E A A J 1 M v k d x E M 9 T G w J x w E x k J p ^ A ^ T w A M M E k M G x ^ 1 k E d J A p 9 E ^ : ^ k G k k M E ^ w d v } ^ T A o.o.x G ' ^ M v d E T k x x A A T A T ^ p 6 k A M 9 M G T E A x J @.G T A x A d A J T ' A J J A E M G ^ A x x J d J ' J &.T A T G k G } G x ' ( ' ' o.( ^ ( G G 4.G A 9 A ^ v A v E A J p E A v 1 w k k p p G x ( T J A @.o.G G ",
"1 k x d ( T J A A d x M A M T @.A p ' G M ' ' E T M J k d w o.T d ^ G J A J G T @.v w G w p : w } p w d M J A p d d M 1 6 9 w 9 A k d ^ k k v p ^ G J 1 G x x E E A M J 1 M v k d x T M 9 T G p J k w ^ k k G p ^ A E T w A v A E k v J x ^ 6 x T d J A p 9 E ^ : ^ k G k k A E ( w d v ' E T A o.o.x G ' ^ M v d E E d x v A A T G T ^ p 6 k A M w M G T ^ M x J @.A T M x M d A T E ' A J G A ^ M J ^ G x x J d J ' J &.E A J J k G } G x ' ( ' ' o.( ( ( G A 4.J A 9 A E v G M E G J p E A v 1 p k k p p G x ( T T M &.o.G G ",
"6 d x d ( T J A M k x M A M T &.A d ' G A ' ( E T M J d d w o.T d ( G J M J G T o.M w G w w : p o.p p d M J A p d k M 1 6 9 w 9 G k d E x d x p ^ A T 1 G x x E E A M J 1 M x k k v T A 9 J G w T k w E k k J p ^ A ^ T 9 A v A E k M J x E 1 x T d J G p 9 E ^ : E k G d x M E ^ w d v ' E T A o.o.x G } ^ M M d ^ T k x v M M T G J ^ p 6 d A M 9 M G J ^ A k J @.G T A v M d M J E } A J J A E A G E A x k J k J ' J &.E A T G k G } G v ' ( ' ' o.( ( ( G G 8.G A w A ^ x G v E A T p E A M 1 p k d p p G x ( J J M &.o.G G ",
"1 d x d ( T J A A k k M A M J &.A d ( G A ' ' E T M J k d w o.T d ( A J A J G T o.v w G p w 1 w ' p p p M J A p d d v 1 6 9 w 9 A k d ^ k k v p ^ A J 6 G v x ^ E A M T 1 M v k d x T A 6 J G p J k w ^ x k J p ^ A ^ T w M M A E k M J k ^ 6 k E d J A w 9 E ^ & ^ k G k k A E ^ w d v } ^ T M o.o.x G ' ^ M v p E T d x x A A T A T ^ w 6 k A M w v G T ^ A x G @.A T M x M d A J T ' A J J A E A G ^ G x x J d J ( J @.E A J J k G o.G v ' ( ' ' } ( ^ ( G A 4.G A 9 A ^ v G M E G J p E A M : p k k p p G x ( J J A @.o.J G ",
"6 k v d ( E J A A d x M A v T &.A d ' G M ' ' E T A J d k 9 o.T d ( G J M J G T @.v w G w p 1 w } p p d v J A w d k M 6 6 w w 9 G k d E k k v p ^ G T 1 G x x E E A M J : v x k d x T A 9 T G p J k w ^ x k J w ^ A E J w A v A E k M J k E 1 x E d J A p 9 E ^ : ^ k G d k A E ^ w d v ' E T M o.o.x G ' ^ M v d ^ E d x x M A T A T ^ p 6 d A M 9 v G T E M x J &.G E M x M p M T T ' A J J M ^ M G ^ A x x J d J ' T &.T G J G k G } G x ' ( ' ' o.( ( ( G G 8.J A 9 A ^ v G v T G T p E A M 1 p d k d p G x ' T T A &.o.G G ",
"6 k v d ( T T A M k x A A M T &.A p ' G A ' ' T T M J k d w o.T k ( G J A J G T @.v w G w w : p } d w d v J A p d k M 1 6 w w 9 G k d ^ k k v p ( G J 6 G x v E E A M J 1 M v k d x T M 6 J G p T k w ^ x k J p ^ A ^ J w M M A E k M J k ^ 1 k T d J A p 9 E ^ : ^ k G k k M E ^ p d x ' ^ T A o.o.x G ' ^ v v p E T d x x M A T A J ( w 6 k A M 9 v J J ^ M k G @.G T A x M d A T T ' A J J A E A G E G x k J k J ( J &.E A J J k G } J v } ( ' ' o.( ^ ( G G 4.J A w A ^ v G M E G J p ^ A M 1 p k k p p G x ( T J A &.o.J G ",
"6 d v d ( T J A A d x M A M T &.A d ' G M ' ' E T A J k k w } T d ( A T A J G T o.M w J p p 1 w } d p d M J A w d x v 6 6 9 w 9 A x d E x x v p ^ G T 1 J x v E E A A J : M v d d x T M 6 T A w J k w E k k J p ^ A ^ T w A M M E d v J k ^ 1 x T d J A w 9 T ^ : ^ k A d k A E ^ w d x ' E T M o.o.x G ' ^ M v p ^ T k k x A M T A T ^ p 6 d A M w v G T ^ A k J @.A T M x M d A J T ' A J J A ^ M G ^ A x x J d J ' T &.E G J G k G } G v ' ( ' ' o.( ( ( G A 8.G A 9 A E v G M E A T p E A M : p k k p p J x ( J T M &.o.G G ",
"6 d v d ( E J A A d x M A M J &.A d ' A A ' ' E T M T d d w o.T d ( G J A J J T o.v w G w p 1 w } d p d M J A p d k M 6 6 w p 6 A k d ^ k k v p ^ G J 1 G v x E E A M J : M v k k x T M 6 T A p J k 9 ^ k d G w ^ A ^ J w A M A E k v G k E 1 x E d G A p 9 E ^ & ^ k A d k A E ^ w p x ' ^ T A } o.x A ' ^ v v p ^ T d x x A A T A J ^ p 6 k A M w v J J ^ A k G @.G T M v M p A J T ' M J J M E A G ^ A x k J d G ' J &.T A J G k G o.G v ' ( ' } o.( ( ' J G 8.J A 9 A ^ v G M E G J d E A M 1 p k k d d G x ' T T A &.o.J G ",
"6 k v d ( E T A M k v M A M T &.A k ' G A ' ' E T M J k k 9 o.T d ( G J A J G T @.v w G p w 1 w } d p d M T A p d k v 6 6 w w 9 G k d ^ k k v p ( G T 6 J v v E E A A J : v v d d x T A 6 J G p J x w ^ x k G p ^ A ^ J w M M M E k M G k ^ 1 x T d J A p 6 E ^ : E k G d k A E ^ w d x ' E J M o.o.x G ' ^ v v d E T d x x M M T A T ^ w 6 d A M 9 v G T ^ M k G @.G J M x M p A J E ' A J G A E M G E A x k J d J ' J @.E A J G k G } G v ' ' ' ' o.( ( ( G G 8.J G 9 A ^ v G v E A T d E A M 1 p k k p p J x ( T J A &.o.J G ",
"6 k v d ( E J A A k x M G M T &.G d ' G A ' ' E T A J d k w o.T d ' G T A J J E o.M w J w p : p } p p d M J A w d k M 6 6 w w 9 G k d E x k v p ^ G T 6 J v v E E A M J : M v d d x T M 6 T G w J k w E k k G p ^ A ^ J w A v A E d M G k ^ 1 x T d J A p 9 E ^ & ^ k A k k M E ^ w d x ' E T A o.o.k A ' ^ v v p ^ T d k x A M T A J ^ p 6 k A M 9 v G T E A k G @.G T v x M d M T T ' M J G A E A G E A x x J d G ' J &.E M J J k A } J v ' ( ' ' o.' ( ( G G 8.J A w A ^ v G M T G T p E A M : p k k d p J x ( T J G @.o.J J ",
"6 k v d ( T T A A d x M G v T &.A d ' G A ' ' E T M T k d w o.T d ( G J A J G E o.v w G p w 1 w } d w d M J A p d k M 1 6 9 p 9 G k d ^ x k v p ( G J 1 G v x ^ E A M J 1 M v k d x T A 6 J A p J k w ^ k k G w ^ A ^ J 9 M M M E d M G k E 1 k T d J A w 9 T ^ & ^ d G d k A E ^ w p x ' ^ J A o.o.x G ' ^ v v p ^ T d k x A M T A T ^ w 6 d A M w M G J ^ M k G @.G J M x M p M T T ' M T J M E M G ^ A x k J d J ' J &.E A J G k G } G v ' ' ' ' o.( ( ( J A 8.G G 9 A ^ M G M E G J d E A M 1 p k k d d J x ( T J A &.o.J G ",
"6 d v k ( E J G A d x A G M T &.A d ' G A ' ' E T M T d k 9 o.T k ( G J A J G E @.v p G w p 1 w o.d p d M T A p k k v 6 6 9 w 9 G k d E k k v p ( G J 6 J v v E E A A J 1 v x k d x T M 6 T G w J x w E k k G p ^ A ^ T w M M A E k M J k E 1 k E p J A p 9 E ^ : ^ d G d k M E ^ 9 p x ' ^ T A o.o.x A ' E v v p E T d x x M A J A T ^ p 6 d A M 9 v G T ^ M k G @.G T M k M d A J T } A J J A E A G E A k k G d J ( J @.T A J G k G } G v ' ( ' ' o.( ( ' J G 8.J A 9 G ^ v G v E A T d E A M 1 p k k p p J x ( T J A &.o.J J ",
"6 k v d ( E J A M k x M A v T &.G d } G A ' ' E T A J d k w o.T d ( A T A J G E o.v w G p w 1 p } p p k M J A p d k M 6 6 w w 9 G k k ^ x k v d ( G T 6 J v v E E G M J 1 v x d d x T M 6 J G p J k w E x d G p ^ A E J w M M M E d M G k E 6 x T d J A w 9 E ^ : ^ d G d k A E ^ w p x ' E J M o.o.x G } ^ M v d E T d k x A M T A J ^ w 6 d A M 9 v A T E M k G @.A T M x M p M J T ' M J J A E M G E A k x J d G ' J &.T A J G k G o.G v ' ( ' ' o.' ( ( G G 8.G G w A ^ M G M T A T d E A M 1 p k k d d J x ( T T A &.@.J G ",
"6 d v d ( E T A A d x A A M T &.G d ' G A ' ' E T M T d d w o.E d ( G J A J G E @.v w G p w 1 w o.d p d M T A p d k M 6 6 w w 9 G k d ^ x k v p ( G T 1 J v v ^ E A M J 1 M x k d x T M 6 T A w J k 9 E k k G w ^ A E T w M M A E d M J k ^ 1 x T d G A w 9 E ^ & ^ d G d k M E E w d x ' E T A o.o.x A ' ^ v v p E T d k k A M J A T ^ w 6 d A M 9 v G J ^ M k G @.A T M x M p M T T ' A J G A ^ A G E A x k J d J ( J &.T A J G k A } J v ' ( } ' o.' ( ( J G 8.J A 9 G ^ M G M ^ A T p E A M 1 p x k p p J x ( T J A &.o.J J ",
"6 k v d ( E T A A k x M G v T &.A d ' G A ' ' E T A J k k w o.E k ' A T A J G T @.M w G w p 1 w } d p d M J A p k k M 6 6 w p 9 G k d ^ x x M p ( G J 6 J v v E E A A J 1 v x k d x T M 6 T G p J x w ^ k k G p ^ A ^ J w M M M E d M G k E 1 k T p J A w 9 E ^ & E k G k k M E ^ w d x ' E J M o.o.x G } E v v d E T d x x A A T A T ^ p 6 d A M 9 M G T ^ M k G o.A T M x M p M T T ' M J G M E M G E A k k J d J ' J &.T A J G k G } G v ' ' ' ' o.( ( ' J G 8.J G 9 A ^ v G M E G J d E G M 1 d k k d d J x ( T T A &.o.J G ",
"6 k v k ( E J A A d x A G M T &.A d ' G A ' ' E E M J k k 9 o.T d ( G J A T G E o.M w G p p : p } d p d M J A p d k M 6 9 9 w 9 G k d E k k M d ^ G T 1 J v v ^ ^ A M J 1 M v d d x T M 6 T A w J k w E x d J w ^ A ^ J 9 A M M E d M G k E 1 k T p J A p 9 T ^ & ^ d A d k A E E w d x } E T M } o.x A ' E M v p E T d k x A M T A J ^ w 6 d A M 9 v G J ^ M x G @.A T M k M d A J E ' A J G A E M G E A k k J d G ' J @.T M J G k G } G v ' ( ' ' o.( ( ( G G 8.J A w A ^ v G M E G T d E A M 1 p k k p p J x ( T J A &.o.J J ",
"6 k v d ( T T A A k v M A v T &.A k ' G A ' ' E T A J k k w o.T d ( G T A J G E @.v p G w p 1 w } p p d M J A p d k v 6 9 9 p 9 G k k ^ x k v p ^ G T 6 J v v E E A M T : M v k d x T M 6 J G w J k 9 ^ k k G p E A ^ J w M v A E k M G k E 1 k T d J A w 9 E ^ & ^ k A d k M E ^ w p x ' ^ T M o.@.x G ' ^ v v p E T d k x M A T A T ( w 6 d A M 9 v G J ^ M k G @.A T M x M p M J T } M J G A ^ M G ^ A x k J d J ( J &.T A J G k G } G v ' ' ' ' o.' ( ( J G 8.J G 9 G ^ v J M E G T p E G M 1 p x k d d J x ( T T A &.@.J G ",
"6 k v d ( E T A M k x A A M T &.A d } G A ' ' E T A J k d w o.E k ( G J G J G E @.M w G w p 1 w o.p p d M T A p k k M 6 6 w w 9 G k d ^ x k M d ^ G T 1 J v v E E A M T : M v d d x E M 6 T G w J k w E x k G w ^ A E J w M M M E k M G k ^ 1 k T p G A w 9 E ^ & ^ d G d k M E ^ w p x ' E T M o.o.x G ' E M v d E T d k x M M J A J ^ w 6 d A M 9 v G T ^ M k G @.A J M x M d M J T ' A J G M E M G E A x k G d J ( J &.E A G J k A } G v ' ( ' } o.( ( ' J G 8.J G w G ^ v G M E G T d E G M 1 p k k d p G x ( T T A @.o.J J ",
"6 d v d ' E J A A k x M A M T &.A d ' G A ' ' E E M T d k w o.T d ( G T A J G E @.v w G p p 1 w o.d p d M J A p d k M 6 9 9 p 9 G k d ^ k k v p ( G J 6 J v v ^ E G M J 1 M v d d x T M 6 J G p J k w E x d G p ^ A ^ J 9 A M M E d M J k E 1 k T d J A p 9 T ^ : ^ k A d k M E ^ w p x ' E T A o.o.k A ' E v v p E T d k x M A T A T ^ w 6 d A M 9 v A J ^ M k G @.G T M x M p M T E ' M J G A ^ M G ^ A k k J d J ( J @.T A J G k G o.G v ' ( ' ' o.( ( ( J G 8.J A w A ^ M G M E A T p E G M 1 d x k d p J x ( T J A &.@.J G ",
"6 d v d ( E T A M k x A G M T &.G d ' G A ' ' E T A J k d w o.E d ( G J A J G E o.v p G w p 1 p } d p d M J A w d k v 6 9 9 w 9 G k d E x k v p ^ G T 6 J v v E E A A J : M v k d x T M 6 J A w J d w ^ x d G p ^ A ^ J w M v M E d M G k ^ 1 x T p J A w 9 T ^ & E d A d k A E E w d x ' E J A o.o.k G } E v v d E T d k x M M T A T ^ p 6 d A M 9 v G J ^ M k G @.A T M x M p A J T ' A J G A E A G E A k k J d J ' J &.T A J G k A } J v } ( ' } o.( ( ( J G 8.J G 9 A ^ M G M E G J d E A M 1 p k k d p J x ( T J A &.@.J J ",
"6 k v k ( E J A A k x M A M T @.A d ' J A ' ' E T A J d k 9 o.E k ( A T A J G T @.M w G w p 1 w } p p d M J G p d k M 6 9 9 p 9 G k k ^ x k v d ( G T 1 J v v ^ E A M J 1 M v d d x T M 6 T G w T k w E k k J w ^ A E T 9 A M A E d M J k E 1 k T d J A p 9 E ^ : ^ d G d k M E ^ 9 d x ' E T M o.o.k A ' ^ M v p E T d x x A A T A J ^ w 6 d A M 9 M G T ^ M k G @.A J M x M p M J E ' M J G M E M G E A x k J d J ( J &.E M J J k A } G v ' ( ' ' o.' ( ' J G 8.J A w A ^ v G M E A T d E G M 1 p k k d d J x ' T J G &.o.J G ",
"6 k v d ' E T A M k x A A M T &.G d ' G A ' ' E T A J k k w o.T d ( G T A J G E @.M w J p w 1 p o.d p d M J A p k k v 6 6 w p 9 G k d ^ x k v p ( G T 6 G v v E ^ A M J 1 v v k d k T M 6 J G p J k w E x d G p ^ A E J 9 A M M E k M J k E 1 k T p G A w 9 T ^ & ^ k A d k M E ^ w d x ' E T M o.o.x G ' E M v p E T d k x A M J A T ^ w 6 d A M 9 v A J E M k G @.G T M k M p A J T ' A J G A E M G ^ A x k G d G ( J @.T A J G k G o.G v ' ( ' } o.( ( ' G G 8.J A 9 A ^ v G M E G T d E A M 1 d x k d p J x ( J J A &.o.J J ",
"6 k v d ( E J A A k x M G v T &.A d } G A ' ' E E M J k k w o.T k ( G J G J J E o.v w G w p 1 w } d p d M J A p d k M 6 6 9 w 9 G k d ^ x x M p ( G J 6 J v v E E A M T : M v k d x T M 6 T G w J k w E k k J w ^ A ^ J w M M M E d M G k E 1 x T d J A p 9 E ^ & ^ d G d k A E ^ 9 p x ' ^ J A o.@.x A } ^ v v p ^ T d k x A M T A J ^ w 6 d A M 9 v G T ^ M k G @.A T M x M p A J T } M J G A ^ M G E A k x J d J ( J @.T A J G k A } G x ' ( ' ' o.( ( ( G G 8.J G w A ^ M G A E G J d E A M 1 p k k d p J x ' T T A &.o.J G ",
"6 k v k ( T T A M k x A A M T &.A d } G A ' ' E T A J d d w o.T k ( A T A J J E o.M p G p w 1 w } p p d M J A p k k M 6 6 9 w 9 G k d E k k M d ( G J 1 J v v ^ E A M T : M v d d x T M 6 J G w J x w ^ k k G p ^ A ^ T 9 M M A E d M J k ^ 1 x T p J A w 9 E ^ & ^ d G d k M E ^ 9 p x ' E T M } o.x A ' ^ v v p E E d k k M A T A J ^ p 6 d A M 9 v G J ^ M x G @.A T M x M d M J E ' A T G M E M G E A x k G d J ' J &.E A J J k G } J v } ( ' ' o.' ( ( J G 8.J A 9 A ^ v G M E A T p E G M 1 p k k d d G x ( T T A &.@.J J ",
"6 d v d ( T T A A k x M A M T &.A d ' G A ' ' E E M T k k w o.T d ( G J A J G E o.v w G w p 1 w o.d p d M T G p d k M 6 6 9 p 9 G k k ^ x k v p ( G T 6 J v v E E A M J 1 v v k d x E M 6 T A p J k w E k k J w ^ A E J 9 A M M E d v G k E 1 k T d J G w 9 T ^ : ^ k A d k M E ^ w d x ' E T A o.o.x G ' ^ M v p E T d x x A M T A T ^ w 6 d A M 9 v G T ^ M k G o.A T M x M p A J T ' M J G A E A G E A k x J d J ' J @.T M T G k G } G v ' ( ' ' o.( ( ' G G 8.J A w G ^ M G M T A T d E A M 1 d k k p p J x ( T J A &.o.J G ",
"6 k x d ( E J A A d x M G v T &.G d ' G A ' ' E T A J k d 9 o.T d ( A T A J J E o.v p G p w : p } p p d M J A p d k M 6 6 9 p 6 G k d ^ k k v p ^ G T 6 J v v E ^ A M J 1 M v k d x T A 6 J G w J k 9 ^ k k G p ^ A E T w M M A E d M J k E 1 x T p J A w 9 E ^ & ^ d G k k A E ^ 9 p x ' E T A o.o.x A ' ^ v v d E T d k x A M T A J ^ p 6 d A M w v G T ^ M k G @.G T v x M d A J T } A J G A E M G ^ A k k J d J ( J &.E A J G k A } G v ' ( ' ' o.( ( ' J A 8.J A 9 G ^ v G M E G T p E A M 1 p k k d p J x ( T J A &.o.J G ",
"6 k v d ( E T A A d v M A M T &.A d ' G A ' ' E T M J k k w o.E k ( A T M J G E @.v w G w p 1 p } p p d M J A w d k M 1 6 9 w 9 G k d ^ k k v p ( G J 1 J v v E E A A J : M v d d x T M 6 T G w J x w E k k G w ^ A ^ J 9 A M M E d M G k ^ 1 x T d J A p 9 E ^ : ^ d G d k M E ^ w d v ' E T M o.o.x G ' E M v p E T d k x A A J A T ^ w 6 d A M 9 v G J ^ M k G @.A T M x M p M J T ' M J J M E A G E A x x G d G ' J @.E M J J k G o.G v ' ( ' } o.' ( ( J G 8.J G w A ^ v G M E A T p E A M 1 p k k d d J x ( T T A &.o.J G ",
"6 k v d ( E J A A d x M A M T &.A d } G A ( ' E T A J k d w } T d ( G T A J J T o.M w G p w 1 w } d p d M T A p d k v 6 6 9 p 6 G x d ^ x k v p ( G J 6 J v x ^ E A M J 1 M v k d x E M 6 J G p J k w E k k G p ^ A E T w M v A E d M J k E 1 k T d J A p 9 T ^ & ^ d G d k M E ^ w d x ' ^ T M o.o.x A } E v v d E T d k x A M T A T ^ p 6 d A M w v G T ^ A k G @.A T M x M d A J T ' A J J A E A G E A x x J d J ' J &.E A J G k A } J v ' ( ' ' o.( ( ' G A 8.J A 9 A ^ v G M E A T d E A M 1 p k k p p J x ( T J A &.o.J J ",
"6 k v d ( T T A M k x A G M J &.A d ' G A ' ' E T M J k k w o.T d ( G J A J G T @.v w G w p 1 w } d p d M J A p d k M 6 6 w w 9 A k d ^ k k v p ^ G T 6 G v x ^ E A M J : v x d d x T A 6 T G w J k w ^ k k G w ^ A ^ J 9 A M M E k M G k ^ 1 x T d J A w 9 E ^ & ^ k G d k A ^ ^ w p x ' E J A } o.x G ' ^ M v p ^ T d x x A M T A T ^ w 6 d A M 9 M G J ^ M k G @.G J M x M d A J T ' A J G A E M J E A x k J k J ' J @.E A J J x G } J v ' ' ' ' o.( ( ( G G 8.G G 9 G ( v G v E A T p E A M : p k k p d J x ' T J A &.o.J G ",
"6 d v d ( T T A A k x M A M T &.A d ' G A ( ' E T M J k k 9 o.T k ( G J A J G T @.v p G p w 1 p } p p d M J G w d k M 6 6 w w 9 A x d ^ x k v p ^ G T 1 G v v E E A M J : M v k d x T M 6 J G w J x w ^ x k J p ^ A E J w A M A E k M J k ^ 6 k E d J A p 9 E ^ : ^ k A d k A E ^ w d x ' E T M o.o.x A ' E M v d ^ T d x x M A T A T ^ p 6 d A M 9 v G T ^ M x J @.G T M x M d A J E ' M J J M ^ M G ^ A x k G d G ' J &.E A J J k G } G v ' ( ' } o.( ( ( G G 8.G G 9 A ^ x G M E A T d E A M 1 p k k p d G x ( T J A &.o.J G ",
"1 k v d ( T J A M d v M A M T &.A d ' G A ' ( E E M J k k w o.T d ( A T A J G T o.M w G w p : w o.d p d M J A p k k v 1 6 9 w 9 G k d E k k v p ^ G T 1 J x x E E A M T 1 v x k d x T M 6 T G p J k w E k k G p ^ A ^ T w M M M E d M J k ^ 1 k T d J A w 9 T ^ : ^ k G d k M E ^ w d v ' ^ T A o.@.x G ' ^ M v p E E d k x A M T A J ^ w 6 k A M w v G T E M k J @.G T M x M d A J E ' A J J A E A G E A x x J d J ' J &.E G J G k G o.G v ' ( ' ' o.( ( ( G A 4.G A 9 A ^ v G M T G J d E A M 1 p k k p d J x ( J T A &.o.J G ",
"6 k v d ( T J A A k x M A M T &.A d ' G A ' ' E T A J d d w o.T d ( G J A J G E o.v 9 G w p 1 w } p w d M J A p d k M 6 6 w p 9 A k d ^ k k v d ^ G J 1 G v v E E A M J : M v k k x T M 9 T G w J k 9 ^ k k G w ^ A ^ J w M M A E k v J k ^ 1 x T d J A p 9 E ^ & ^ k A d k A E ^ w d x ' E T M } o.x G } ^ M v d E E d k x A M T A T ^ p 6 k A M 9 v J T ^ A k G @.A T A x M d A T T ' A J J A E M G ^ A x k J d J ' J &.T A J J k G } G v ' ( ' ' o.' ( ( J G 8.J A 9 A ^ v G M E G J p E A M : p k k p p G v ' T J A @.o.J G ",
"6 d x d ( E J G A d k M A M J &.A d ' G M ' ' E T M J k d w o.T d ( G J M J G T @.v w G w p 1 w } p p d v J A w d k v 6 6 9 w 6 G k d E k k v p ( G J 6 G v v E E A M J 1 v x k d x T A 6 J G p T k w ^ x k G p ^ A ^ J w A M A E k M J k E 1 x T d J A p 9 E ^ : ^ k G k k A E ^ w d v ' E T A o.o.x G ' ^ v v p ^ E d x x A M T G T ^ w 6 k A M w v G J ^ M x G @.G T M x M d M J E ' A J J M ^ A G ^ G x x J d J ( T &.E A J J k A } G v ' ( ' ' } ( ( ( J G 4.G A 9 A ^ x G M E A T p E A M 1 p k d d p J x ( J J A &.o.G G ",
"6 d x d ( T J A A d v M A M T &.A d ' G A ' ( E T A J d k w } T d ( A J A J G T o.M w G w p : w o.p p p M J A p d d v 6 6 9 w 9 A k d ^ x k v p ^ A J 6 G x x E E A M J 1 M v k d x T M 9 T G w J k w ^ x k J w ^ A ^ T 9 A v A E d M J k ^ 1 x T d J A p 9 E ^ : ^ k G d k M E ^ w d v ' ^ J A o.o.x G } ^ v M d ^ E d x x A M T A T ^ p 6 k A M 9 M G J ^ M k G @.G T M x M d A J E } A J J A E A G ^ G x x J d T ( J &.T A T G k G o.G v ' ( ' ' o.( ^ ( G G 8.J A 9 A ^ x G M E G J d E A M 1 p k k p p G x ^ T T A @.o.J G ",
"1 k v p ( T J A M k x M A M J &.A d ' G M ' ' E T A J d d 9 o.T d ( A T A J G T @.v w G w p 1 w } d w d M J A p d k M 1 6 9 w 9 G k d E k d x p ^ G T 1 G x x E E A M T : M x k k v T A 9 J G p T k w ^ x k J p ^ A ^ J w A M A E k A J k E 6 x E k J A p 9 E ^ & ^ k G k k A E ^ w d v ' ^ T A o.o.x G ' ^ M v d E E d x x A A T G J ( p 6 d G M 9 v G T ^ A x G &.A T M x M d M T E ' A J J A ^ M G E A x x J d J ' T &.T A J J k G } G v ' ( ' ' o.( ^ ( G A 4.G A 9 A ^ v A v E A T p E A M : p d k p p G x ( J J A @.o.G G ",
"6 d v d ( T T A A d x M A v J &.A p ' G A ' ' E T M J k d 9 o.T d ( A J A G G T o.v w G w p : w } p p d M J A w d k v 6 6 9 w 6 A k d ^ x d v p ^ G J 1 G x x ^ E A M J 1 M v k d x E M 9 J G p J x w ^ k k J p ^ A ^ T w A M A E k M J k ^ 6 x T d J G p 9 E ^ : ^ k G k k A E ^ w d v ' ^ T A o.o.x G ' ^ M v d E E d x x M A T A T ( p 6 d A M w M J T ^ A k J &.G T M x M d A J E ' A J J A ^ M G ^ G x x J d J ' J &.E A J J k A } G x ' ( ( ' o.( ( ( G G 8.G A 9 A E v G M E A T p E A M 1 p k k p p G x ( T J M @.o.J G ",
"6 d x d ^ T J M A d x M A M T &.A p ' G M ' ( T T M J d d w } T d ( A J M G G T o.v w A w w : w } p w d v J A p d d v 1 6 w w 6 A k d E k k v p ^ A T 1 G x x E ^ A M J 1 v v k k x T A 6 T G p J k w E x k G p ^ A ^ J w A M M E k M G x E 1 k E d J A p 9 E ( : ^ k G d x A E ^ p d v ' ^ T M o.o.x G } ^ M v d ^ T k x x A A T A T ( p 6 k A M w v G T ^ M k J @.G T M x A d M T E } A J J A ^ A G ^ A x x J k J ' J &.T G J G k G } G x ' ( ' ' } ( ^ ( G A 8.G A 9 A ^ v A v T G J p T M M 1 w k d p p G x ( T J A @.o.G G ",
"1 d v d ( T J A M d x M A v T &.A p ( G M ' ( T T M T d d 9 o.T d ( A T A J G T o.v w G w p 1 w } d p d v J A w d k v 1 6 9 w 6 A k d ^ k k v p ^ A T 1 G x x E E A M J 1 M v x d x E A 6 T G w T k w ^ x k J p ^ A ^ T w A M A E k M G k ^ 6 x E d J G p 9 E ( & ^ k G k k A E ^ w d v ' E T A o.o.x G } ^ M M p ^ E d x x A A T A T ( p 9 k G M w M G T ^ A x J @.G T A v A d M T T } A J J A E M J ^ A x x T d T ( T &.E A J J k A } A x ' ( ' ' o.( ^ ( G G 4.G A 9 A E v G M T A J p E A M : p k d p p G k ( J J A &.o.J G ",
"6 d v p ( T J A A d x M A v J &.A p ( G A ' ' E J M J d d 9 o.T p ( A J M J G T o.v w G w w : w } p w p v J A p d k M 1 6 6 w 6 A k p E k k v w ^ G J 1 G x v E E A A T 1 v v k k x E M 6 T G p T k w E x k J p ^ G ^ J w A M A E k M J x E 6 x E d J G p 9 E ( : ^ k G k k A E ^ p d v ' E T A o.@.v G } E M M d ^ E d x v M A T G T ^ p 6 d A A w M G T ^ M x J @.G T M v M d A J T ' A T J A ^ A G ^ G x x J d J ' J &.T A J J k G } G x ' ( ( ' } ( ^ ( G A 4.G A 9 A ^ v A v E A T p E A v 1 w k d p p G k ( T J M @.o.G A ",
"6 d x p ( T J A M d k M A v J &.A p ' G A ( ( T T M J d d 9 o.T p ( A J M J G T o.v 9 G w w : w } p w d v J A w p d v 6 1 9 w 6 A k p ^ k d v p ^ G J 1 G v x ^ E A M J 1 M v k k x E M 9 T G p T x p E x k J p ( A ^ T w A M A E k A J k ^ 6 x E d J G p 9 E ( : ( k G k x A E ^ w k v } ^ T A o.o.v G } ^ M M d ^ T k x v A A T A T ( p 6 k A M w M G T ^ M x J @.G T M v A d A T E ' A J J A E A G ^ G x x T d T ' J &.E A J G k G } A x ' ( ' ' } ( ^ ^ G A 4.G A 9 A E x G v E A J p T A v 1 w k k p p G x ( T J A &.o.J G ",
"1 d x p ^ T J A M d x M A v T &.M d ( G M ' ( T T M J d k 9 } J d ( A J A G A T o.v w G w w : w } p p p M J A w p k v 1 6 9 w 6 A k d E k d v w ^ A T 1 J x v E E A M T 1 M v k k v E A 6 T G p J x w ^ x x J p ( A ^ T w A M A E x M J x ^ 6 x E k J G p w ^ ( : ( k G k k A ^ ^ p d v ' ^ T A @.@.v G } ^ M v d ^ E k x v A A T G T ( p 6 k G A 9 M J T ^ A x J &.G E A v M d A T E } G J J A ^ A G ^ G x x J d J ( T &.T A J G k A } G x ' ( ( ( o.( ^ ^ G A 4.G M 9 A ^ x A v E A J p T A v : p k d p w G k ( J J A @.} G A ",
"1 d x p ^ T G M M k k M A v T @.A p ' G M ' ( T T M J d d 9 o.T p ( A J M J G T } v w G w p & w } p w d v G A w p d v 1 6 9 w 6 A k p E k k v p ^ A J 1 G v x ^ ^ A M T 1 M v x k v E A 9 T G p T k w ^ x k J d ( G ^ J w A M G ^ k A J x ^ 6 x E d J G p w E ( : ( x G k k A ^ ^ w k v } ^ T A o.o.v G } ^ M M d ^ E k x v A A T G T ( p 9 k A M w M J T ^ A x J &.G E A x A d A J E } A J T A ^ A J ^ G x x J d J ( J &.E A G G k A } G x ( ( ( ' o.( ^ ( G A 8.G A 6 A E v A v T A J w E A M : p k d p p G k ( J J A @.} J G ",
"1 d x p ^ T J A M d k v A v J &.A p ( A M ' ( T T M J d d 9 } T p ( A J M J G T o.v 9 A w w : w } p w p v G A w d d v 1 1 9 9 6 A k p E k d v w ^ G T 6 J v v E E A A J 6 M v x d v T A 9 T G p T k p ^ x x J p ^ G ^ T w A M A E k M J x ^ 6 x E k J J p w E ( 1 ^ x J k x A E ^ p k v ' ^ T A @.@.v G } ( M M d ^ T k x v A A E G T ^ p 9 k A A w M J T ^ A x J &.G E A v M k A T E } G J J A E A J ^ G x x T k J ' T @.T A J G d A } A x ' ^ ' ( } ( ^ ^ G A 4.G A 6 A E x A v E A T p E M v : w d k p w G k ^ T J M @.o.G A ",
"1 d x p ^ T J M M d k M A v T &.M p ( G M ' ( E J M G p d 9 } J p ( A J M G A T o.v 9 G w w : w } p w d v J A w d d v 1 1 9 9 6 A d d E k d v p ^ G T 1 J v v ^ ^ A M T 1 M v x k v E A 9 T G p T x p ^ x k J d ^ G ^ T p A M A ^ k M T x ^ 6 x E k J A p w E ( : ^ k G k x A ^ ( w d v } ^ T A o.@.v G } ^ M M d ^ E k v v A A T G E ' d 9 k G M w M J T ^ A x J &.G E M v A d A T E ' A T J A ^ A G ^ G x x J d J ' J &.T A J G d A } A x ( ( ( ' } ^ ^ ^ G A 4.G M 9 A E x A v T A J w E A M : p d d p w G k ^ T G A &.} G A ",
"1 d x p ^ T J A M d k M M v J @.A p ' A A ( ( T T M J d d 6 o.T p ^ A J M G G T o.x 9 A 9 w : 9 } w w d v J A w p d v 1 1 6 9 6 A k d ^ k k v p ^ G J 6 J v v E E A M T 6 M v k k v E A 9 T J p J x w ^ v x J d ^ G ^ T w A M G E k A J x ^ 6 v E d T G d w ^ ^ 1 ^ x J k x A E ( p k v ' ^ E A o.@.v J } ^ M M d ^ E k v v A A E G T ( p 9 k G M p M G T ^ A v T @.G E A x A d A E E } A J T A ^ A J ^ G x x J d J ' J @.E M J G k A } A x ' ^ ' ' } ( ^ ^ A A 4.G M 6 A E x A v T A J p E M v : w d k w p A k ^ J G M @.o.G A ",
"1 p x p ^ T G M M d k v A v J &.M p ( A M ' ( T J M J p d 9 } T p ^ M J M J G J } x 9 A 9 w : 9 } w w d v G M w d d v : 1 6 w 6 A k p E k k v p ^ G J 6 J v v ^ E G A T 1 M M x k v E A 9 T J d T x w ^ v x J d ( G ( T p A M A ^ k A J x ^ 6 v E k J G p p ^ ( 1 ( x J k x A ^ ( p k v } ^ E A @.@.v J } ( M M k ^ E k v M G A E G E ( d 9 k G A w M J E ^ A x J @.J E A v A d A T E } G J T A ^ A G ^ G x x J d J ( J @.T A J G d A } A x ( ^ ( ' } ^ ^ ^ G A 8.G M 9 M ^ x A v T A J p T M v : w k d w w G k ^ T J M @.} J A ",
"1 d x w ^ J J M M p k v M x T @.A p ' A M ( ( T T M J d d 9 } J p ^ A J M G A T o.x 9 A 9 w : 9 } p w p v G A w p d v 1 6 6 9 6 A k p E k k v p ( G T 6 J v M ^ E G M T 6 M v x k v E A 9 T J p J x p ^ v x J p ( G ^ T w A A A E x M T x ^ 9 v E k T G d w E ( 1 ( x J x x G E ( p k v } ^ E A @.@.v J } ^ A M d ^ E k v v G A E G E ( p 9 x G A w A J E ^ A v T &.J E A v A d A T E } A T J A E A G ^ A x x J d J ' J @.E M J G d A } A k ( ^ ( ' } ( E ^ A A 4.A M 6 A E x A x T A J w T A v : w d d p p G k ^ J G A @.o.G A ",
": d x p ^ T J M M d k v A x J &.M p ( G M ( ( T J M G p p 6 } T p ^ M J M G G J o.x 9 A 9 w & 9 ' p w p v G M w p d v 1 1 6 w 6 A k d ^ k k M p ( G J 6 J M v ^ ^ G M J 1 A v x k v E A w T J d T x p ^ v x T d ( J ^ T p A M G ^ x A J x ^ 9 v E k T G p w ^ ( 1 ( x J k x G ^ ( p k M } ^ E A @.@.v J } ^ M M d ^ E x v v A A E J E ( d 9 k G M p M J E ^ A v J &.J E A v G d A T E } A J J A ^ A G ^ A x k G d J ( J &.T M J G d A } A x ( ( ( ' ' ^ ^ ^ G M 4.A M 6 M E x M x T M J w T M v : w d d w w A k ^ J G M @.} G A ",
": d x w ^ T J M M p k M M x J @.M p ( A M ( ^ T T v G p d 6 } T p ^ A G M G A T o.x 9 A w w : 9 } w w p x G A 9 p d x 1 6 9 9 6 A k d E k k v p ( G J 6 J v v ^ E G A T 6 M M x x v E G w T J d T x p ^ v x J p ( G ( T w A A A ^ k M T x ^ 9 v E k T G d w ^ ( 1 ^ x J k x A ^ ( p d v } ^ T G @.@.M J } ^ A M k ( E x M v A G E G E ( d w x G A w A J E ^ G v J &.J E A v A k A T E } A T J G ^ M G E G x x J d G ' J @.T M G G d A ' A x ( ^ ( ( } ^ ^ ^ A A 4.G A 6 A E x A v T A G w E M v : w d d p w G k ^ J J M @.} G A ",
": d k p E T G M M p k v M v J @.M p ( A v ( ( T J M G p p 6 } J p ^ A G v G A J } x 6 A 9 w & 9 } w w p x G M w p d v 1 6 9 w 6 A k d E x k M d ^ G T 6 T v v ^ E G A T 6 M M x x v E A w E J d T x p ^ v v T d ( J ( T p A M G ^ k A J v ( 9 v ^ k J G p w ^ ( 1 ( x J x x A ^ ^ p k M } ^ E G @.@.v J } ( A M k ^ E x v M G G ^ G E ( k 9 x G A w A J E ( G v T &.G ^ G v A d A T E } A T J A ^ M J ^ A x k J d G ' G @.T M G G d A } A k ( ^ ( ( } ( ^ ^ A A 4.A M 6 M E x A x J M J w T M x & w k d p w G d ^ J G M @.o.G A ",
"1 p x w ^ T G M M p k v M v J @.M p ' A M ( ( T J v G p p 6 } T p ^ M G M G A T } x 9 A 9 w & 9 ' p 9 p v G A w p d v 1 1 9 w 6 G k d ^ k k v p ( G T 6 J v v ( ^ A A J 6 A M x x M E G w E J d T x p ^ v v J d ( G ( E p A M G ^ k M T v ( 9 v ^ k T J d p ^ ( 1 ( x T x x G ^ ( p k M } ^ E G @.@.M J } ( M A k ( E k v M G A E J E ( d w x J M p A J E ( G x J &.J E A v A k A T E } A J J A E A G E A x k G d G ( G &.T M G A p M } A k ( ^ ( ( } ^ E ^ A M 4.A M 6 M E k A v T A J w E M v : w d p w w A k ^ J G M @.} G M ",
": p k w ^ J G M v p k v M x J &.M w ( A M ( ( J J v G p p 6 } T w ^ A G M G A J o.x 6 A 9 9 & 9 } w w p x G A w d d v 1 6 9 w 6 A k d ^ x k v p ( G T 6 J M v ^ ^ G A T 6 M M v x v E G w E J d T v p ^ v v J d ' J ( E p A A G ^ x A T v ( 9 M E k T G d w ^ ( 6 ( x J x x G ^ ( d k M } ^ E G @.&.M J o.( A M k ( ^ x v M G A E J E ( d 9 x G A w A J E ( G v T @.J E A v A d A T E ' A J J A E A G ^ A k k G p G ( J @.T M G G d A ' M k ( E ( ( ' ^ E ^ A A 4.G M 6 M ^ k M x T A G w E M v & w d p w p A k ^ J G M @.} G A ",
": p k p ^ J G M M p d x A v J @.M p ( A M ( ( T T v G p p 6 } J p ^ M G v G A T } x 6 A 9 9 & 9 } w 9 p x G A w p d v 6 6 9 w 9 G k d ^ x k M d ( G T 6 J M M ^ ^ G A T 6 A M x x M E G w E J d T v p ( v x T d ( J ( E p G A A ^ x A J v ( w v ^ k T G d p ^ ' 1 ( v J x v G ^ ( d x M } ^ E G @.@.v T } ( M A k ^ E x M v G G E J ^ ' k w x J A p A J E ( G v T &.J E A v A d A T E ' A T J A ^ M G E A k k G p G ( G @.T M G A d A } A k ( ^ ( ( ' ^ E ^ A M <.A M 1 M E x A v J M G w T M x : 9 d p w w A d ^ G G M @.} A M ",
": p k w ^ J G M v w d v M x G @.M p ( M v ( ( J J v G w p 6 o.J w ^ M G v G A J } x 6 A 9 9 & 9 } w w p v G A w p k v 1 6 9 w 9 A x d E x x v d ( J T 6 J M M ^ E G A T 6 A M x x M ^ A w E J d T v p ^ v v J k ( J ( E p G A G ^ x A T v ( w v E x T G d p ^ ( 6 ( v T x v G ^ ( d k M } ( ^ G @.@.M J o.( A M k ( ^ x M M G G ^ J E ' d p v J A p A J E ( G x J &.J E A v A d A T T ' A J J M E M G E A x k G p G ( G @.J M G A d M ' M k ( E ( ( } ^ E ^ A M 4.A v 6 M E k M x T M J w T M x & w p p w w A k ^ J G v @.} G A ",
": p k w ^ J G M M p k v M x G @.v p ( A M ( ( T J v G p p 6 } J p E M G v G A J } x 6 A 9 9 & 9 ' p w p v G A w d k v 1 6 9 w 9 G k k ^ x x M d ( J T 9 J M M ^ ^ G A T 6 A M v x v ^ G w E T d E v d ( v v T d ' J ( E p A A A ^ x A T v ( w M ^ x T J d p ^ ' 6 ( v J v v G ( ( d x M o.( E G @.&.v T o.( A M x ( E x M M G G ^ J E ' d w x J A p A J ^ ( G v J &.J E A v A d A J E } A J J A E A A ^ A k k G p G ( G @.T M G A d M } A k ( ^ ( ( ' ^ E E A M 4.A M 1 M E k M x J M G w J M x & 9 d p w w A d ^ G G M @.} G M ",
": p k w ^ J G M v p d v M x G @.M w ^ A v ( ^ J J v J w w 6 ' J w ^ A G v G A T } k 6 M 9 9 & 9 } w w p v J A w d d M 6 6 9 w 9 A x k ^ x k M d ' J E 6 T M M ^ ^ G A T 6 A M v v M E G w ^ J d E v d ( M v T d ' J ( E p G A G ^ x A T v ' w v E x T G d p E ( 6 ' v T v v G ( ( d x M } ( ^ G @.@.M J } ( A A k ( ^ x M M G G E J E ' k w x J A p M J E ( G v T &.J E M v M d A J T ' A J G A E M G E A k k G p G ( G @.T M G A p A ' M k ( E ^ ^ ' E ^ ^ A A 4.M M 1 M E k A x J A G w T v x & w p p w w A d E G G v o.} A M ",
"& p k w ^ J G v v p d x M x G @.M w ( A v ( ^ T J v G p p 1 } J w E M G v A A J } x 9 A 9 w : 9 } p p p v J A w d k v 6 6 9 p 9 G x d ^ x x M d ( J E 9 J M M ( ^ G A T 6 A A v x M E G w E T k T v d ( M v T k ' J ( E p G A G ^ x G E v ( w M ^ x T G k p ^ ' 6 ( v J v v G ( ' d x M } ( E G @.&.M T o.( A A x ( ^ v M M G G ^ J ^ ' k w v J A p A J E ( A x J @.G E A x A d A T T } M J G A E A A E M k d G p A ^ G @.J M A A d M ' M d ^ ^ ^ ( } ^ E E M M 4.A M 1 v T k M x J M G 9 T v x & w p p w w A d ^ G G v @.} A A ",
": w k w ^ J G M v p d x v k G @.v w ( M v ( ^ J J v G p p 1 } J p E M G v G A J o.x 9 A 9 w & w ' p w d v J A p d d v 6 6 w w 9 G x k ^ x x A d ( J E 9 T M M ^ ^ G A T 9 A M v x M ^ G w E J k E M d ( M v T d ' J ( ^ d G A G ^ v G T v ( w M ^ x E J d p ^ ' 6 ( v T v v J ( ( k x M o.( E G &.@.M J o.( A A x ( ^ x M A G G ^ J ^ ' k w x J A p M T E ^ A x J &.G E M x A d M T T ' M J G M E M G E M k d G p A ^ G o.T v G A p M ' A k ( E ^ ( ' E E E A M 4.A M 1 v T k M k J M G w J M x % 9 p p w 9 M d ^ G A v o.} A M ",
"& p d w E G G v v w d x M x G @.M w ( A v ( ( J J v A w p 6 } J w ^ M G v G A J } x 6 A 9 w : w } p w p v G A w d k M 6 6 w p w G x k ^ x x M d ' J E 9 T M M ( ^ J G T 6 A A v x A ^ G p ^ J k E v d ' M v T d ' J ( E d G A G ( v G T M ( w M ^ x E J k d ( ' 6 ' v J v v J ( ' d x M o.( ^ J @.&.M T o.( A A x ( ^ v M M J J E T E ' k w x J A w A J E ^ A x J &.G T A x M p A J T ' A J G A E M A E M k k G p A ^ G @.J v A A p M ' M d ( E ^ ^ } ^ E E A M 4.M v 1 M E k M x J M G 9 T v k % 6 p p w 9 A d E G G v @.} A A ",
": p d w E J A v v p d x v k G o.M w ^ A v ^ ^ J G v G w w 1 } J w ^ M G v G A T } x 9 A 9 w : 9 } p w d M J A p d k v 6 9 w w 9 G x k ^ x x M d ( T T 9 J M M ( ( J G E 6 G A v v M ^ G w E T k E v d ( M v T k ' J ( ^ d G A G ( v G T v ( w M ^ x T J k p ( ' 6 ' v T v M J ( ' d x A } ' ^ J &.&.M T o.( A A x ' ^ v A M J G E J ^ ' d w v G A w A G T ^ A x J @.J T A x M d M T E ' M J G M E M A E A k k A w G ^ A o.J M A A w M ' M d ^ E ^ ^ } E E E A M 4.M M 1 v T d M x J v G 9 J v x % 6 p w w 9 A d E G A v o.} A M ",
"& w k w E J G v v w d x v k G @.v w ( M v ^ ^ J J x G w w 6 } J p E M J v G A J o.x 9 A w w : w } p p d M J A w k k v 6 9 w p w G x k ^ v x M k ( J T 9 T A A ( ( J A E 9 A A v v M ^ J p E J k E M d ' M v T k ' T ' E d G G J ^ v G T M ' p M ^ x E J k p ( ' 6 ' M T v M J ( ' d x A o.( ^ G &.@.M T o.( A A x ( ^ v M M J G ^ J E ' d w x G M p M J T ^ A x J &.G T M x M d A J T ' A G G M E M G E M d d A w G ^ G @.T v A A p M ' M k ^ E ^ ^ ' E E E M M <.A v 1 v T k M x J M G 9 T v x % 9 p p 9 w M d ^ G A v o.' A M ",
"& w k w E J G v v w d x M k G o.M w ^ M v ^ ( J G x G w p 1 } J w ^ M G M G A T o.x 9 A 9 w : w } p p d M J A p d x M 6 6 w p w G v k ( v v M d ' J E 9 T M M ( ( J G E 9 G M v v M ^ J p E T d ^ M d ( M M E k ' J ' E d J G G ( v G E M ' w M ( x E J k p ^ ' 9 ' v T M M J ( ' k x M o.( ^ J @.&.A T o.( G A x ' ^ v M A G G E J ^ ( d w k G A w A J T ^ A x J @.A T M x M d A J T ' M G G M E M G E M k d G w A ^ A @.J M A M p M ' v d ^ E ^ ^ ' E E E M M <.M v 1 v T d v k G v A 9 J x k % 6 p p 9 9 M p E A A v @.} A M ",
": w k 9 E G A v v w p k v x G o.v 9 ^ M x ^ ^ J J v A p w 6 } J p ( M G M G G J o.x 9 A w p : w } p w d v T G p k x M 6 9 w p w J v k ( v x A k ' T E w T A M ( ( J G E 9 G A M v A ^ J p ^ J k E M k ' M M E k ' T ' E d G G J ' v G E M ( p A ^ v E T k d ^ ' 9 ' v T v M J ' ( k x A o.( ^ J &.&.M T o.' G A x ( ^ x M M G G ^ J E ( d 9 x G A w M J T ^ A k J @.A T M x M p M J T ( M G G M T v A T M k d A p A ^ A o.J v A A w M ' M d ^ E E ^ ' E T E M M 4.A v : M T k M k J M G 9 J v k O 6 p w 9 9 A d E G A v o.' A M ",
"& w d 9 E J A v x w p k v k G o.M 9 ^ M v ^ ^ J G v G w w 6 } J w ^ M J M G G J o.v 9 A w w : w } p p d M J A w k k M 9 9 w p w J v x ( v v M k ' J E w T M A ( ( J G E 9 G A v v A ^ G p E T k E M k ( M M T x ' T ' ^ k J G G ( M G E M ' w M ( v E J k d ( ' 9 ' M T v M J ' ' k v A o.( ^ J &.&.M T o.( A A x ( ^ x M M G G E J E ' d w k G A w M G T ^ A k J &.G T M x M p A J T ' M J A M E v A T M d d A w A ^ A o.J v A A p v ' M d ^ T ^ ^ ' E T E A v <.M v : x T d v k G v G 9 J x k O 6 w p 9 9 M p E G A v o.' M M ",
"& w d 9 E G A v x w p x x k A o.v 9 ^ M v ^ ^ J J x G p p 6 o.J p ^ A J M G A T o.v 9 G w p 1 w } p p d M J G p k k M 9 w w p w J x x ( M v A k ' T E w T M A ( ' J G E 9 G A M v A ^ G p ^ T k ^ M k ( A v E x ' J ' E d J G J ( v G E M ' p M ( v E T x k ( ' 9 ' M T M M T ( ' k v A o.( ^ T @.&.M T o.( G A x ( ^ v M v G G E J E ( d 9 k G A w M J T ^ M x J @.A T M x v p M J J ' M J G M T v A T M d d G w A ^ G o.J v A M p M ' v d ^ E E ^ ' E T E M M 4.M v : x T d M k J v G 9 J x k % 6 p w 9 9 M d E A A v o.' A M "
};
