/* XPM */
static char *west[] = {
/* columns rows colors chars-per-pixel */
"256 256 104 2 ",
"   c gray30",
".  c #4E4E4E",
"X  c #515151",
"o  c #535353",
"O  c #565656",
"+  c #585858",
"@  c gray35",
"#  c gray37",
"$  c #606060",
"%  c #626262",
"&  c #656565",
"*  c gray40",
"=  c #686868",
"-  c DimGray",
";  c #6D6D6D",
":  c gray43",
">  c #6F6F6F",
",  c gray44",
"<  c #717171",
"1  c #727272",
"2  c gray45",
"3  c #747474",
"4  c gray46",
"5  c #767676",
"6  c gray47",
"7  c #797979",
"8  c gray48",
"9  c #7B7B7B",
"0  c #7C7C7C",
"q  c #7E7E7E",
"w  c gray50",
"e  c #808080",
"r  c #818181",
"t  c gray51",
"y  c #838383",
"u  c #848484",
"i  c gray52",
"p  c #868686",
"a  c gray53",
"s  c #888888",
"d  c #898989",
"f  c gray54",
"g  c gray55",
"h  c #8D8D8D",
"j  c #8E8E8E",
"k  c gray56",
"l  c #909090",
"z  c gray57",
"x  c #929292",
"c  c #939393",
"v  c gray58",
"b  c #959595",
"n  c gray59",
"m  c #979797",
"M  c #989898",
"N  c gray60",
"B  c #9A9A9A",
"V  c #9B9B9B",
"C  c gray61",
"Z  c gray62",
"A  c #9F9F9F",
"S  c #A0A0A0",
"D  c gray63",
"F  c #A2A2A2",
"G  c gray64",
"H  c #A4A4A4",
"J  c #A5A5A5",
"K  c gray65",
"L  c #A7A7A7",
"P  c gray66",
"I  c #A9A9A9",
"U  c #AAAAAA",
"Y  c gray67",
"T  c #ACACAC",
"R  c gray68",
"E  c #AEAEAE",
"W  c #AFAFAF",
"Q  c gray69",
"!  c #B1B1B1",
"~  c #B2B2B2",
"^  c gray70",
"/  c #B4B4B4",
"(  c #B6B6B6",
")  c gray72",
"_  c #B9B9B9",
"`  c gray73",
"'  c #BBBBBB",
"]  c #BCBCBC",
"[  c gray74",
"{  c gray",
"}  c #C0C0C0",
"|  c gray76",
" . c #C3C3C3",
".. c #C5C5C5",
"X. c #C6C6C6",
"o. c #C8C8C8",
"O. c gray79",
"+. c #CACACA",
"@. c gray80",
"#. c #CECECE",
"$. c #D2D2D2",
"%. c LightGray",
"&. c gray83",
"*. c gray87",
/* pixels */
"( ( ( ( ( ( ( ( ( ( ( ( ( ( ( ( ( ( ( ( ( ( ( ( ( ( ( ( ( ( ( ( ( ( ( ( ( ( ( ( ( ( ( ( ( ( ( ( ( ( ( ( ( ( ( ( ( ( ( ( ( ( ( ( ( ( ( ( ( ( ( ( ( ( ( ( ( ( ( ( ( ( ( ( ( ( ( ( ( ( ( ( ( ( ( ( ( ( ( ( ( ( ( ( ( ( ( ( ( ( ( ( ( ( ( ( ( ( ( ( ( ( ( ( ( ( ( ( ( ( ( ( ( ( ( ( ( ( ( ( ( ( ( ( ( ( ( ( ( ( ( ( ( ( ( ( ( ( ( ( ( ( ( ( ( ( ( ( ( ( ( ( ( ( ( ( ( ( ( ( ( ( ( ( ( ( ( ( ( ( ( ( ( ( ( ( ( ( ( ( ( ( ( ( ( ( ( ( ( ( ( ( ( ( ( ( ( ( ( ( ( ( ( ( ( ( ( ( ( ( ( ( ( ( ( ( ( ( ( ( ( ( ( ( ( ( ( ( ( ( ( ( ( ( ( ( ",
"~ ~ ~ ~ ~ ~ ~ ~ ~ ~ ~ ~ ~ ~ ~ ~ ~ ~ ~ ~ ~ ~ ~ ~ ~ ~ ~ ~ ~ ~ ~ ~ ~ ~ ~ ~ ~ ~ ~ ~ ~ ~ ~ ~ ~ ~ ~ ~ ~ ~ ~ ~ ~ ~ ~ ~ ~ ~ ~ ~ ~ ~ ~ ~ ~ ~ ~ ~ ~ ~ ~ ~ ~ ~ ~ ~ ~ ~ ~ ~ ~ ~ ~ ~ ~ ~ ~ ~ ~ ~ ~ ~ ~ ~ ~ ~ ~ ~ ~ ~ ~ ~ ~ ~ ~ ~ ~ ~ ~ ~ ~ ~ ~ ~ ~ ~ ~ ~ ~ ~ ~ ~ ~ ~ ~ ~ ~ ~ ~ ~ ~ ~ ~ ~ ~ ~ ~ ~ ~ ~ ~ ~ ~ ~ ~ ~ ~ ~ ~ ~ ~ ~ ~ ~ ~ ~ ~ ~ ~ ~ ~ ~ ~ ~ ~ ~ ~ ~ ~ ~ ~ ~ ~ ~ ~ ~ ~ ~ ~ ~ ~ ~ ~ ~ ~ ~ ~ ~ ~ ~ ~ ~ ~ ~ ~ ~ ~ ~ ~ ~ ~ ~ ~ ~ ~ ~ ~ ~ ~ ~ ~ ~ ~ ~ ~ ~ ~ ~ ~ ~ ~ ~ ~ ~ ~ ~ ~ ~ ~ ~ ~ ~ ~ ~ ~ ~ ~ ~ ~ ~ ~ ~ ~ ~ ~ ~ ~ ~ ~ ~ ~ ~ ~ ~ ~ ~ ",
"v v v v v v v v v v v v v v v v v v v v v v v v v v v v v v v v v v v v v v v v v v v v v v v v v v v v v v v v v v v v v v v v v v v v v v v v v v v v v v v v v v v v v v v v v v v v v v v v v v v v v v v v v v v v v v v v v v v v v v v v v v v v v v v v v v v v v v v v v v v v v v v v v v v v v v v v v v v v v v v v v v v v v v v v v v v v v v v v v v v v v v v v v v v v v v v v v v v v v v v v v v v v v v v v v v v v v v v v v v v v v v v v v v v v v v v v v v v v v v v v v v v v v v v v v v v v v v v v ",
"a a a a a a a a a a a a a a a a a a a a a a a a a a a a a a a a a a a a a a a a a a a s a a a a a a a a a a a a a a a a a a a a a a a a a a a a a a a a a a a a a a a a a a a a a a a s a a a a a a a a a a a a a a a a a a a a a a a a a a a a a a a a a a a a a a a a a a a a a a a s a a a a a a a a a a a a a a a a a a a a a a a a a a a a a a a a a a a a a a a a a a a a a a a s a a a a a a a a a a a a a a a a a a a a a a a a a a a a a a a a a a a a a a a a a a a a a a a s a a a a a a a a a a a a a a a a a a a a ",
"s s s s s s s s s s s s s s s s s s s s s s s s s s s s s s s s s s s s s s s s s s s s s s s s s s s s s s s s s s s s s s s s s s s s s s s s s s s s s s s s s s s s s s s s s s s s s s s s s s s s s s s s s s s s s s s s s s s s s s s s s s s s s s s s s s s s s s s s s s s s s s s s s s s s s s s s s s s s s s s s s s s s s s s s s s s s s s s s s s s s s s s s s s s s s s s s s s s s s s s s s s s s s s s s s s s s s s s s s s s s s s s s s s s s s s s s s s s s s s s s s s s s s s s s s s s s s s s s ",
"B B B B B B B B B B B B B B B B B B B B B B B B B B B B B B B B B B B B B B B B B B B B B B B B B B B B B B B B B B B B B B B B B B B B B B B B B B B B B B B B B B B B B B B B B B B B B B B B B B B B B B B B B B B B B B B B B B B B B B B B B B B B B B B B B B B B B B B B B B B B B B B B B B B B B B B B B B B B B B B B B B B B B B B B B B B B B B B B B B B B B B B B B B B B B B B B B B B B B B B B B B B B B B B B B B B B B B B B B B B B B B B B B B B B B B B B B B B B B B B B B B B B B B B B B B B B B B B B ",
"l l l l l l l l l l l l l l l l l l l l l l j l l l l l l l l l l l l l l l l l l l l l l l l l l l l l l l l l l l l l l l l l l l l l l l j l l l l l l l l l l l l l l l l l l l l l l l l l l l l l l l l l l l l l l l l l l l l l l l j l l l l l l l l l l l l l l l l l l l l l l l l l l l l l l l l l l l l l l l l l l l l l l l j l l l l l l l l l l l l l l l l l l l l l l l l l l l l l l l l l l l l l l l l l l l l l l l j l l l l l l l l l l l l l l l l l l l l l l l l l l l l l l l l l l l l l l l l l ",
"Z Z Z Z Z Z Z Z Z Z Z Z Z Z Z Z Z Z Z Z Z Z Z Z Z Z Z Z Z Z Z Z Z Z Z Z Z Z Z Z Z Z Z Z Z Z Z Z Z Z Z Z Z Z Z Z Z Z Z Z Z Z Z Z Z Z Z Z Z Z Z Z Z Z Z Z Z Z Z Z Z Z Z Z Z Z Z Z Z Z Z Z Z Z Z Z Z Z Z Z Z Z Z Z Z Z Z Z Z Z Z Z Z Z Z Z Z Z Z Z Z Z Z Z Z Z Z Z Z Z Z Z Z Z Z Z Z Z Z Z Z Z Z Z Z Z Z Z Z Z Z Z Z Z Z Z Z Z Z Z Z Z Z Z Z Z Z Z Z Z Z Z Z Z Z Z Z Z Z Z Z Z Z Z Z Z Z Z Z Z Z Z Z Z Z Z Z Z Z Z Z Z Z Z Z Z Z Z Z Z Z Z Z Z Z Z Z Z Z Z Z Z Z Z Z Z Z Z Z Z Z Z Z Z Z Z Z Z Z Z Z Z Z Z Z Z Z Z Z Z Z Z Z Z Z Z ",
"j j j j j j j j j j j j j j j j j j j j j j j j j j j j j j j j j j j j j j j j j j j j j j j j j j j j j j j j j j j j j j j j j j j j j j j j j j j j j j j j j j j j j j j j j j j j j j j j j j j j j j j j j j j j j j j j j j j j j j j j j j j j j j j j j j j j j j j j j j j j j j j j j j j j j j j j j j j j j j j j j j j j j j j j j j j j j j j j j j j j j j j j j j j j j j j j j j j j j j j j j j j j j j j j j j j j j j j j j j j j j j j j j j j j j j j j j j j j j j j j j j j j j j j j j j j j j j j j ",
"K K K K K K K P K K K K K K K K K K K K K K K K K K K K K K K P K K K K K K K K K K K K K K K K K K K K K K K K K K K K K K K K K K K K K K K K K K K K K K K K K K K K K K K K K K K K K K K K K K K K K K K K K K K K K K K K K K K K K K K K K K K K K K K K K K K K K K K K K K K K K K K K K K K K K K K K K K K K K K K K K K K K K K K K K K K K K K K K K K K K K K K K K K K K K K K K K K K K K K K K K K K K K K K K K K K K K K K K K K K K K K K K K K K K K K K K K K K K K K K K K K K K K K K K K K K K K K K K ",
"v B B B B v B v B B v B B B B v B B v B v B B B v B B B B v B v B B B v B B v B v B v B B v B B B B B v B B B v B B v B B B B v B B v B v B B B B B B v B B B v B B B v B B v B v B v B B v B B B B B v B B B v B B v B B B B v B B v B v B B B B B B v B B B v B B B v B B v B v B v B B v B B B B B v B B B v B B v B B B B v B B v B v B B B B B B v B B B v B B B v B B v B v B v B B v B B B B B v B B B v B B v B B B B v B B v B v B B B B B B v B B B v B B B v B B v B v B v B B v B B B B B v B B B v B B v B B B B v ",
"} } } } } } } } { } } } { } } } } } } { } } { } } } } } } } } { { } } } } } } } } } } } } } { } } { } } } { } { { } } } { } } } } } } { } } { } } { } } } { } { { } } } } } } } } } } } } } { } } { } } } { } { { } } } { } } } } } } { } } { } } { } } } { } { { } } } } } } } } } } } } } { } } { } } } { } { { } } } { } } } } } } { } } { } } { } } } { } { { } } } } } } } } } } } } } { } } { } } } { } { { } } } { } } } } } } { } } { } } { } } } { } { { } } } } } } } } } } } } } { } } { } } } { } { { } } } { } } } ",
"Z B Z B B B B B B B B Z B B Z B B B Z B B B Z B B B B B B B Z B B Z B B Z B B B Z B B B B B B B B B B B B B Z B B B Z B B B B B B B Z B B B Z B B B B B B B Z B B Z B B Z B B B Z B B B B B B B B B B B B B Z B B B Z B B B B B B B Z B B B Z B B B B B B B B B B Z B B Z B B B Z B B B B B B B B B B B B B Z B B B Z B B B B B B B Z B B B Z B B B B B B B Z B B Z B B Z B B B Z B B B B B B B B B B B B B Z B B B Z B B B B B B B Z B B B Z B B B B B B B B B B Z B B Z B B B Z B B B B B B B B B B B B B Z B B B Z B B B B B ",
"G G K G K K K G K G K K K G K G K K G K K K G K K K G K K K G K K G G K G K K K G K K K K K G K K K G K K K G K K K G K K K G K K K G K K K G K K K G K K K G K K G G K G K K K G K K K K K G K K K G K K K G K K K G K K K G K K K G K K K G K K K G K K K K K K G G K G K K K G K K K K K G K K K G K K K G K K K G K K K G K K K G K K K G K K K G K K K G K K G G K G K K K G K K K K K G K K K G K K K G K K K G K K K G K K K G K K K G K K K G K K K K K K G G K G K K K G K K K K K G K K K G K K K G K K K G K K K G K ",
"$ $ $ $ $ $ $ $ $ $ $ $ $ $ $ $ $ $ $ $ $ $ $ $ $ $ $ $ $ $ $ $ $ $ $ $ $ $ $ $ $ $ $ $ $ $ $ $ $ $ $ $ $ $ $ $ $ $ $ $ $ $ $ $ $ $ $ $ $ $ $ $ $ $ $ $ $ $ $ $ $ $ $ $ $ $ $ $ $ $ $ $ $ $ $ $ $ $ $ $ $ $ $ $ $ $ $ $ $ $ $ $ $ $ $ $ $ $ $ $ $ $ $ $ $ $ $ $ $ $ $ $ $ $ $ $ $ $ $ $ $ $ $ $ $ $ $ $ $ $ $ $ $ $ $ $ $ $ $ $ $ $ $ $ $ $ $ $ $ $ $ $ $ $ $ $ $ $ $ $ $ $ $ $ $ $ $ $ $ $ $ $ $ $ $ $ $ $ $ $ $ $ $ $ $ $ $ $ $ $ $ $ $ $ $ $ $ $ $ $ $ $ $ $ $ $ $ $ $ $ $ $ $ $ $ $ $ $ $ $ $ $ $ $ $ $ $ $ $ $ $ $ $ $ $ $ ",
"~ W ~ ~ ~ ~ ~ W ~ ~ W ~ ~ W ~ ~ W ~ ~ W ~ ~ W ~ ~ ~ ~ ~ W ~ ~ W ~ W ~ ~ ~ W ~ ~ ~ W ~ ~ ~ W ~ ~ ~ ~ ~ ~ W ~ ~ W ~ ~ W ~ ~ ~ ~ ~ W ~ ~ W ~ ~ W ~ ~ ~ ~ ~ W ~ ~ W ~ W ~ ~ ~ W ~ ~ ~ W ~ ~ ~ W ~ ~ ~ ~ ~ ~ W ~ ~ W ~ ~ W ~ ~ ~ ~ ~ W ~ ~ W ~ ~ W ~ ~ ~ ~ ~ W ~ ~ W ~ W ~ ~ ~ W ~ ~ ~ W ~ ~ ~ W ~ ~ ~ ~ ~ ~ W ~ ~ W ~ ~ W ~ ~ ~ ~ ~ W ~ ~ W ~ ~ W ~ ~ ~ ~ ~ W ~ ~ W ~ W ~ ~ ~ W ~ ~ ~ W ~ ~ ~ W ~ ~ ~ ~ ~ ~ W ~ ~ W ~ ~ W ~ ~ ~ ~ ~ W ~ ~ W ~ ~ W ~ ~ ~ ~ ~ W ~ ~ W ~ W ~ ~ ~ W ~ ~ ~ W ~ ~ ~ W ~ ~ ~ ~ ~ ~ W ~ ~ W ~ ~ W ~ ~ ~ ~ ~ ",
"G Z G G Z G Z G G G Z G Z G G G Z G G G Z G Z Z G G Z G Z G G G Z G Z G Z G Z G Z G G G Z G Z G G G Z G G Z G G Z G G G Z G Z Z G Z Z G Z G G G Z G Z G G Z G G Z G Z G Z G Z G Z G G G Z G Z G G Z G G Z G Z G G G Z G Z G G G Z Z G G Z G Z G G G Z G Z G G G Z G Z G Z G Z G Z G G G Z G Z G G G Z G G Z G G Z G G G Z G Z G G Z Z G Z G G G Z G Z Z G Z G G Z G Z G Z G Z G Z G G G Z G Z G G Z G G Z G Z G G G Z G Z G G G Z Z G G Z G Z G G G Z G Z G G G Z G Z G Z G Z G Z G G G Z G Z G G G Z G G Z G G Z G G G Z G Z G ",
"P P P P K P K K P P K P K K P P K K P P P P P P P P K P K K P P P P P P P P P P P K K P K P P K K K K K P P K K K K P P P P P P P P P P K K P P K P K K P P K K P P P P P P P P P K K P K P P K P K P P K P K K P P K P K K P P P P P P K P K K P P K P K K P P P P P P P P P P P K K P K P P K K K K K P P K K K K P P K P K K P P P P K K P P P P P P P P K K P P P P P P P P P K K P K P P K P K P P K P K K P P K P K K P P P P P P K P K K P P K P K K P P P P P P P P P P P K K P K P P K K K K K P P K K K K P P K P K K ",
"P W W P P W W P W P P W P P W P P P W P P W P W W P P W P P W P P W W P P W W P P W W P P W P W P W P W W P W P P P W P P W P W P W W P P W W P P W P W W P W P P W W P P W W P P W W P P W P W P W W P P W P W W P P W P W W P P W W P P W P W W P P W P W W P P W W P P W W P P W W P P W P W P W P W W P W P P W W P P W P W P W W P P P W P P W P W W P W P P W W P P W W P P W W P P W P W P W W P P W P W W P P W P W W P P W W P P W P W W P P W P W W P P W W P P W W P P W W P P W P W P W P W W P W P P W W P P W P W ",
"s s a s s s s s s s s s s j s s s j s s s s s s s s s s s j s s s s s s s s s s s s s s s s s s s s s s s s s s s j s s s s s s s s s s s s s s s s s s s s s s s s s s s s s s s s s s s s s s s s s s s s s s s s s s s s s s s s s s s s s s s s s s s s s s s s s s s s s s s s s s s s s s s s s s s s s s s s s s s s s s s s s s s j s s s s s s s s s s s s s s s s s s s s s s s s s s s s s s s s s s s s s s s s s s s s s s s s s s s s s s s s s s s s s s s s s s s s s s s s s s s s s s s s s s s s s s s s s s ",
"B Z B Z Z Z B Z Z B Z B B Z B Z B Z B Z Z Z B Z Z B Z B B Z B Z Z B Z B Z B Z B Z B Z B Z Z B Z Z Z B Z B Z B Z B Z B Z Z Z B Z Z Z B Z B Z B Z Z Z B Z B Z B Z Z B Z B Z B Z B Z B Z B Z Z B Z B Z B Z Z Z B Z Z B Z B B Z B Z B Z B Z Z Z B Z Z B Z B B Z B Z Z B Z B Z B Z B Z B Z B Z Z B Z Z Z B Z B Z B Z B Z B Z Z Z B Z Z Z B Z B Z B Z Z Z B Z B Z B Z Z B Z B Z B Z B Z B Z B Z Z B Z B Z B Z Z Z B Z Z B Z B B Z B Z B Z B Z Z Z B Z Z B Z B B Z B Z Z B Z B Z B Z B Z B Z B Z Z B Z Z Z B Z B Z B Z B Z B Z Z Z B Z ",
"( ( ( ( ( ( ( ( ( ( ( ( ( ( ( ( ( ( ( ( ( ( ( ( ( ( ( ( ( ( ( ( ( ( ( ( ( ( ( ( ( ( ( ( ( ( ( ( ( ( ( ( ( ( ( ( ( ( ( ( ( ( ( ( ( ( ( ( ( ( ( ( ( ( ( ( ( ( ( ( ( ( ( ( ( ( ( ( ( ( ( ( ( ( ( ( ( ( ( ( ( ( ( ( ( ( ( ( ( ( ( ( ( ( ( ( ( ( ( ( ( ( ( ( ( ( ( ( ( ( ( ( ( ( ( ( ( ( ( ( ( ( ( ( ( ( ( ( ( ( ( ( ( ( ( ( ( ( ( ( ( ( ( ( ( ( ( ( ( ( ( ( ( ( ( ( ( ( ( ( ( ( ( ( ( ( ( ( ( ( ( ( ( ( ( ( ( ( ( ( ( ( ( ( ( ( ( ( ( ( ( ( ( ( ( ( ( ( ( ( ( ( ( ( ( ( ( ( ( ( ( ( ( ( ( ( ( ( ( ( ( ( ( ( ( ( ( ( ( ( ( ( ( ( ( ( ",
"e q q q q q q q q q q q q e q e q e q q q q q q q q q q q e q e q q q e q q e q q q q e q q q q q q q q q q q q q e q q q q q q q q q q q q q q q q q q q q q q q q q e q q e q q q q e q q q q q e q q q q q q q q q q q e q e q e q q q q q q q q q q q e q e q q q e q q e q q q q e q q q q q q q q q q q q q e q q q q q q q q q q q q q q q q q q q q q q q q q e q q e q q q q e q q q q q e q q q q q q q q q q q e q e q e q q q q q q q q q q q e q e q q q e q q e q q q q e q q q q q q q q q q q q q e q q q q q q ",
"~ ( ( ~ ( ( ~ ( ( ~ ( ( ~ ( ~ ( ~ ( ( ~ ( ( ~ ( ( ~ ( ( ~ ( ~ ( ( ( ~ ( ( ~ ( ~ ( ( ~ ( ~ ( ( ( ( ~ ( ( ( ~ ( ( ~ ( ( ~ ( ( ~ ( ~ ( ( ~ ( ( ( ( ( ~ ( ( ( ~ ( ( ( ( ~ ( ( ~ ( ~ ( ( ~ ( ~ ( ( ( ~ ( ( ~ ( ( ~ ( ( ~ ( ( ~ ( ~ ( ~ ( ( ~ ( ( ~ ( ( ~ ( ( ~ ( ~ ( ( ( ~ ( ( ~ ( ~ ( ( ~ ( ~ ( ( ( ( ~ ( ( ( ~ ( ( ~ ( ( ~ ( ( ~ ( ~ ( ( ~ ( ( ( ( ( ~ ( ( ( ~ ( ( ( ( ~ ( ( ~ ( ~ ( ( ~ ( ~ ( ( ( ~ ( ( ~ ( ( ~ ( ( ~ ( ( ~ ( ~ ( ~ ( ( ~ ( ( ~ ( ( ~ ( ( ~ ( ~ ( ( ( ~ ( ( ~ ( ~ ( ( ~ ( ~ ( ( ( ( ~ ( ( ( ~ ( ( ~ ( ( ~ ( ( ~ ( ",
"G G Z Z Z Z Z Z Z Z G Z Z Z Z Z Z Z G Z Z Z Z Z Z Z G Z Z Z Z Z Z Z Z Z Z Z Z Z Z Z G Z Z Z Z Z Z Z G Z Z Z Z Z Z G Z Z Z Z Z G Z Z G Z Z Z Z Z Z Z G Z Z Z Z Z Z Z Z Z Z Z Z Z Z Z G Z Z Z Z Z Z Z G Z Z Z Z Z Z Z G Z Z Z Z Z Z Z G Z Z Z Z Z Z Z G Z Z Z Z Z Z Z Z Z Z Z Z Z Z Z G Z Z Z Z Z Z Z G Z Z Z Z Z Z G Z Z Z Z Z G Z Z G Z Z Z Z Z Z Z G Z Z Z Z Z Z Z Z Z Z Z Z Z Z Z G Z Z Z Z Z Z Z G Z Z Z Z Z Z Z G Z Z Z Z Z Z Z G Z Z Z Z Z Z Z G Z Z Z Z Z Z Z Z Z Z Z Z Z Z Z G Z Z Z Z Z Z Z G Z Z Z Z Z Z G Z Z Z Z Z G ",
"Z Z G Z G Z G Z G Z G Z G Z G Z G Z G Z G Z G Z G Z G Z G Z G Z Z G G Z G Z Z G Z G Z G Z G Z G Z G Z Z G G Z G G Z G Z G Z G Z Z G Z G Z G Z G Z G Z Z G G Z G Z G G Z G Z Z G Z G Z G Z G Z G G Z G Z G Z G Z G Z G Z G Z G Z G Z G Z G Z G Z G Z G Z G Z G Z Z G G Z G Z Z G Z G Z G Z G Z G Z G Z Z G G Z G G Z G Z G Z G Z Z G Z G Z G Z G Z G Z Z G G Z G Z G G Z G Z Z G Z G Z G Z G Z G G Z G Z G Z G Z G Z G Z G Z G Z G Z G Z G Z G Z G Z G Z G Z G Z Z G G Z G Z Z G Z G Z G Z G Z G Z G Z Z G G Z G G Z G Z G Z G Z ",
"( ( ~ ( ~ ( ~ ~ ( ( ~ ( ~ ( ~ ~ ( ( ~ ( ~ ( ~ ~ ( ( ~ ( ~ ( ~ ~ ( ~ ( ( ( ~ ( ~ ~ ~ ( ( ~ ( ( ~ ( ~ ( ( ~ ~ ( ~ ~ ( ~ ( ( ~ ~ ~ ~ ~ ( ( ~ ( ( ~ ( ~ ( ( ~ ~ ( ~ ( ~ ( ( ( ~ ( ~ ~ ~ ( ( ~ ( ( ~ ( ( ~ ( ~ ( ~ ~ ( ( ~ ( ~ ( ~ ~ ( ( ~ ( ~ ( ~ ~ ( ( ~ ( ~ ( ~ ~ ( ~ ( ( ( ~ ( ~ ~ ~ ( ( ~ ( ( ~ ( ~ ( ( ~ ~ ( ~ ~ ( ~ ( ( ~ ~ ~ ~ ~ ( ( ~ ( ( ~ ( ~ ( ( ~ ~ ( ~ ( ~ ( ( ( ~ ( ~ ~ ~ ( ( ~ ( ( ~ ( ( ~ ( ~ ( ~ ~ ( ( ~ ( ~ ( ~ ~ ( ( ~ ( ~ ( ~ ~ ( ( ~ ( ~ ( ~ ~ ( ~ ( ( ( ~ ( ~ ~ ~ ( ( ~ ( ( ~ ( ~ ( ( ~ ~ ( ~ ~ ( ~ ( ( ~ ~ ~ ",
"e e a e a e a a e e a e a e a a e e a e a e a a e e a e a e a a e a e a e a e a a a e e a e e a e a e a e a a e e a a e e a e a a a e e a e e a e a e a e a a e e a e a e a e a a a e e a e e a e e a e a e a a e e a e a e a a e e a e a e a a e e a e a e a a e a e a e a e a a a e e a e e a e a e a e a a e e a a e e a e a a a e e a e e a e a e a e a a e e a e a e a e a a a e e a e e a e e a e a e a a e e a e a e a a e e a e a e a a e e a e a e a a e a e a e a e a a a e e a e e a e a e a e a a e e a a e e a e a ",
"Z Z Z B Z B Z B Z Z Z B Z B Z B Z Z Z B Z B Z B Z Z Z B Z B Z B B Z Z B Z Z B Z B Z B Z B Z Z B Z Z B Z B Z B Z B Z Z B Z Z B Z B Z B Z B Z Z B Z Z B Z B Z B Z B Z Z B Z Z B Z B Z B Z B Z B Z Z Z Z B Z B Z B Z Z Z B Z B Z B Z Z Z B Z B Z B Z Z Z B Z B Z B B Z Z B Z Z B Z B Z B Z B Z Z B Z Z B Z B Z B Z B Z Z B Z Z B Z B Z B Z B Z Z B Z Z B Z B Z B Z B Z Z B Z Z B Z B Z B Z B Z B Z Z Z Z B Z B Z B Z Z Z B Z B Z B Z Z Z B Z B Z B Z Z Z B Z B Z B B Z Z B Z Z B Z B Z B Z B Z Z B Z Z B Z B Z B Z B Z Z B Z Z B Z ",
"&.%.%.%.&.&.%.%.&.%.%.%.&.&.%.%.&.%.%.%.&.&.%.%.&.%.%.%.&.&.%.%.&.%.%.%.&.&.&.%.%.%.&.&.&.%.%.%.&.&.%.%.%.%.&.&.&.%.%.%.&.&.&.%.%.%.&.&.&.%.%.%.&.&.%.%.%.%.&.&.&.%.%.%.&.&.&.%.%.%.&.&.&.&.&.%.&.%.%.%.&.&.%.%.&.%.%.%.&.&.%.%.&.%.%.%.&.&.%.%.&.%.%.%.&.&.%.%.&.%.%.%.&.&.&.%.%.%.&.&.&.%.%.%.&.&.%.%.%.%.&.&.&.%.%.%.&.&.&.%.%.%.&.&.&.%.%.%.&.&.%.%.%.%.&.&.&.%.%.%.&.&.&.%.%.%.&.&.&.&.&.%.&.%.%.%.&.&.%.%.&.%.%.%.&.&.%.%.&.%.%.%.&.&.%.%.&.%.%.%.&.&.%.%.&.%.%.%.&.&.&.%.%.%.&.&.&.%.%.%.&.&.%.%.%.%.&.&.&.%.%.%.&.&.&.%.",
"B B B B B B B B B B B B B B B B B B B B B B B B B B B B B B B B B B B B B B B B B B B B B B B B B B B B B B B B B B B B B B B B B B B B B B B B B B B B B B B B B B B B B B B B B B B B B B B B B B B B B B B B B B B B B B B B B B B B B B B B B B B B B B B B B B B B B B B B B B B B B B B B B B B B B B B B B B B B B B B B B B B B B B B B B B B B B B B B B B B B B B B B B B B B B B B B B B B B B B B B B B B B B B B B B B B B B B B B B B B B B B B B B B B B B B B B B B B B B B B B B B B B B B B B B B B B B B B B ",
"P W P W P W P W P W P W P W P W P W P W P W P W P W P W P W P W W P W P W P W P W P W P W P W P W P W P W P W P W P W P W P W P W P W P W P W P W P W P W P W P W P W P W P W P W P W P W P P W P W P W P W P W P W P W P W P W P W P W P W P W P W P W P W P W W P W P W P W P W P W P W P W P W P W P W P W P W P W P W P W P W P W P W P W P W P W P W P W P W P W P W P W P W P W P W P P W P W P W P W P W P W P W P W P W P W P W P W P W P W P W P W P W W P W P W P W P W P W P W P W P W P W P W P W P W P W P W P W P ",
"................................................................................................................................................................................................................................................................................................................................................................................................................................................................................................................................",
"3 3 2 2 3 3 2 2 3 3 2 2 3 3 2 2 3 3 2 2 3 3 2 2 3 3 2 2 3 3 2 2 3 2 3 2 3 3 3 3 2 2 3 3 3 3 3 2 3 3 3 3 2 2 3 3 3 3 3 2 3 3 3 3 2 2 3 3 3 3 3 2 3 3 3 3 2 2 3 3 3 3 3 2 3 3 3 3 2 2 3 3 3 3 3 2 3 3 2 2 3 3 2 2 3 3 2 2 3 3 2 2 3 3 2 2 3 3 2 2 3 3 2 2 3 3 2 2 2 3 3 3 2 2 3 3 3 3 3 2 3 3 3 3 2 2 3 3 3 3 3 2 3 3 3 3 2 2 3 3 3 3 3 3 2 2 3 3 3 3 2 2 3 3 3 3 2 2 3 3 3 3 3 2 3 3 3 3 2 2 3 3 3 3 2 2 3 3 2 2 3 3 2 2 3 3 2 2 3 3 2 2 3 3 2 2 3 3 2 2 3 3 2 2 3 2 3 2 3 3 3 3 2 2 3 3 3 3 3 2 3 3 3 3 2 2 3 3 3 3 3 2 3 3 3 3 ",
"K G G K K G G K K G G K K G G K K G G K K G G K K G G K K G G K K K G K K K K G G K G G K K G K K K K G K K G K K K G K K K K G G K G G K K G K K K K G K K G K K K G K K K K G G K G G K K G K K G G K K G G K K G G K K G G K K G G K K G G K K G G K K G G K K K K G K K G K K K G K K K K G G K G G K K G K K K K G K K G K K K K G K K G K K K G K G G K G G K G G K K G K K K K G K K G K K G G K K G G K K G G K K G G K K G G K K G G K K G G K K G G K K K G K K K K G G K G G K K G K K K K G K K G K K K G K K K K G ",
"8 8 q 8 8 8 8 8 8 8 q 8 8 8 8 8 8 8 q 8 8 8 8 8 8 8 q 8 8 8 8 8 8 8 8 8 8 8 8 8 q 8 8 8 8 8 8 8 8 8 8 8 8 8 8 q 8 8 8 8 8 8 8 8 q 8 8 8 8 8 8 8 8 8 8 8 8 8 8 q 8 8 8 8 8 8 8 8 q 8 8 8 8 8 8 8 8 8 q 8 8 8 8 8 8 8 q 8 8 8 8 8 8 8 q 8 8 8 8 8 8 8 8 q 8 8 8 8 8 8 8 8 8 8 8 q 8 8 8 8 8 8 8 8 q 8 8 8 8 8 8 8 8 8 8 8 8 8 8 q 8 8 8 8 8 8 8 q 8 8 8 8 8 q 8 8 q 8 8 8 8 8 8 8 8 8 8 8 8 8 8 q 8 8 q 8 8 8 8 8 8 8 q 8 8 8 8 8 8 8 q 8 8 8 8 8 8 8 q 8 8 8 8 8 8 8 8 8 8 8 8 8 q 8 8 8 8 8 8 8 8 8 8 8 8 8 8 q 8 8 8 8 8 8 8 8 ",
"a a e a a e a a a a e a a e a a a a e a a e a a a a e a a e a a e a e a e a a e a e a a e a a e e a a e a e a e e a e a e a a e a e a a e a e a e a a e a e a e e a e a e a a e a e a a e a a e a a e a a e a a a a e a a e a a a a e a a e a a a a e a a e a a e a a e a e a e e a e a e a a e a e a a e a e a e a a e a e a e e a a e a e a e e a e a a a e a a e a a e a a e e a a e a e a e a a e a a e a a a a e a a e a a a a e a a e a a a a e a a e a a e a e a e a a e a e a a e a a e e a a e a e a e e a e a e a a e ",
"a a a a s s a a a a a a s a a a a a a a s s a a a a a a s s a a s s s s s s s s s s a s s s s a s s s s s s s s s s s s s s s s s s s s s s s s s s s s s s s s s s s s s s s s s s a s s s s a a a a a s s a a a a a a s a a a a a a a s s a a a a a a s a a a s s s s s s s s s s s s s s s s s s s s s s s s s s s s s s s s s s s s s s s s s s s s a a a a s s a s s s a a s s s s s s s s a a a a s s a a a a a a s a a a a a a a s s a a a a a a s s a a s s s s s s s s s s a s s s s a s s s s s s s s s s s s s s s s ",
"B B B B B B B B B B B B B B B B B B B B B B B B B B B B B B B B B B B B B B B B B B B B B B B B B B B B B B B B B B B B B B B B B B B B B B B B B B B B B B B B B B B B B B B B B B B B B B B B B B B B B B B B B B B B B B B B B B B B B B B B B B B B B B B B B B B B B B B B B B B B B B B B B B B B B B B B B B B B B B B B B B B B B B B B B B B B B B B B B B B B B B B B B B B B B B B B B B B B B B B B B B B B B B B B B B B B B B B B B B B B B B B B B B B B B B B B B B B B B B B B B B B B B B B B B B B B B B B B ",
"Z Z Z Z Z Z Z Z Z Z Z Z Z Z Z Z Z Z Z Z Z Z Z Z Z Z Z Z Z Z Z Z Z Z Z Z Z Z Z Z Z Z Z Z Z Z Z Z Z Z Z Z Z Z Z Z Z Z Z Z Z Z Z Z Z Z Z Z Z Z Z Z Z Z Z Z Z Z Z Z Z Z Z Z Z Z Z Z Z Z Z Z Z Z Z Z Z Z Z Z Z Z Z Z Z Z Z Z Z Z Z Z Z Z Z Z Z Z Z Z Z Z Z Z Z Z Z Z Z Z Z Z Z Z Z Z Z Z Z Z Z Z Z Z Z Z Z Z Z Z Z Z Z Z Z Z Z Z Z Z Z Z Z Z Z Z Z Z Z Z Z Z Z Z Z Z Z Z Z Z Z Z Z Z Z Z Z Z Z Z Z Z Z Z Z Z Z Z Z Z Z Z Z Z Z Z Z Z Z Z Z Z Z Z Z Z Z Z Z Z Z Z Z Z Z Z Z Z Z Z Z Z Z Z Z Z Z Z Z Z Z Z Z Z Z Z Z Z Z Z Z Z Z Z Z Z ",
"~ ~ ~ ~ ~ ~ ~ ~ ~ ~ ~ ~ ~ W ~ ~ ~ ~ ~ ~ ~ ~ ~ ~ ~ ~ ~ ~ ~ ~ ~ ~ ~ ~ ~ ~ ~ ~ ~ ~ ~ ~ ~ ~ ~ ~ ~ ~ W ~ W ~ ~ ~ ~ ~ ~ ~ ~ ~ W ~ W ~ ~ ~ ~ ~ ~ ~ ~ ~ W ~ W ~ ~ ~ ~ ~ ~ ~ ~ ~ ~ ~ ~ ~ ~ ~ ~ ~ ~ ~ ~ ~ ~ ~ ~ ~ ~ ~ ~ ~ ~ ~ ~ ~ ~ W ~ ~ ~ ~ ~ ~ ~ ~ ~ ~ ~ ~ ~ ~ ~ W ~ ~ W ~ W ~ ~ ~ ~ ~ ~ ~ ~ ~ W ~ W ~ ~ ~ ~ ~ ~ W ~ ~ ~ W ~ W ~ ~ ~ ~ ~ W ~ ~ ~ ~ ~ ~ ~ ~ ~ ~ ~ ~ ~ ~ ~ W ~ ~ ~ ~ ~ ~ W ~ W ~ ~ ~ ~ ~ ~ ~ ~ ~ ~ ~ ~ ~ ~ ~ ~ ~ ~ W ~ ~ ~ ~ ~ ~ ~ ~ ~ ~ ~ ~ ~ ~ ~ ~ ~ ~ ~ ~ ~ ~ ~ ~ ~ ~ ~ ~ ~ ~ ~ ~ ~ ~ W ~ W ~ ~ ~ ~ ~ ~ ~ ~ ~ W ~ W ~ ",
"P P P W P P W P P W P W W P P W P P P W P P W P P W P W P P P W W P P P P W P W P P W P P W P W P W P W W P P W W P W P P W P P P W P W P P P W P W P W W P P W W P P P P W P W P P W P P W P W P P P W P P W P P W P W W P P W P P P W P P W P P W P W W P P W P W P W W P P W W P W P P W P P P W P W W P P W P W P W W P P W P W P W P W P P W P P W P P W P W P P P W P W P P W P W W P P W P P P W P P W P P W P W W P P W P P P W P P W P P W P W P P P W W P P P P W P W P P W P P W P W P W P W W P P W W P W P P W P P ",
"B v v v v v v v v v v v v v v v B v v v v v v v v v v v v v v v v v B v v v v v v v v v v v v v v B v v v v v v v v v v v v B v v v v v v v v v v B v v v v v v v v B v v v v v v v v v v v v v B v v v v v v v v v v v v v v v B v v v v v v v v v v v v v v v v B v v v v v v v v v v v v B v v v v v v v v v v B v v v v v v v B v v v v v B v v B v B v v v v B v v v v v v v B v v v v v v B v v v v v v v v v v v v v v v B v v v v v v v v v v v v v v v v v B v v v v v v v v v v v v v v B v v v v v v v v v v v v B v ",
"Z B Z Z Z Z Z Z B Z Z Z Z B Z Z Z B Z Z Z Z Z Z B Z Z Z Z Z Z Z Z B Z Z B Z Z Z Z Z Z Z B Z Z Z B Z Z B Z Z B Z Z Z Z Z Z B Z Z B Z Z Z Z Z Z Z B Z Z B Z Z B Z Z B Z Z B Z Z Z Z Z Z Z B Z Z Z Z B Z Z Z Z Z Z B Z Z Z Z B Z Z Z B Z Z Z Z Z Z B Z Z Z Z B Z Z B Z Z B Z Z B Z Z Z Z Z Z B Z Z B Z Z Z Z B Z Z B Z Z B Z Z B Z Z B B Z Z Z B Z Z B B Z B B Z Z B Z Z Z Z Z Z Z B Z Z B Z Z B Z Z B Z Z Z Z Z Z B Z Z Z Z B Z Z Z B Z Z Z Z Z Z B Z Z Z Z Z Z Z Z B Z Z B Z Z Z Z Z Z Z B Z Z Z B Z Z B Z Z B Z Z Z Z Z Z B Z Z ",
"e q e e e q e e q e e e e q e e e q e e e q e e e e e q e e e e e e q e e e q e e e q e e e e e e q e e q e e e e q e q e q e e e e e q e q e e e q e e q e e e e e q e e e q e e e q e e e e e e e e q e q e e q e e e e q e e e e e q e q e e q e e e e q e e e q e e q e e e e q e q e q e e e e e q e q e e e q e e q e e e q e e e q e e q e e e e e e e e q e e q e e e q e q e e q e e e e q e e e q e e q e e e e q e e e q e e e q e e e e e q e e e e e e q e e e q e e e q e e e e e e q e e q e e e e q e q e q e e ",
"K K K K K G G K G K K G K G K K K K K K K G G K K K K G K G K K K K K K G K K K G K K K G K K K K G G K G K K G K G K K K K G K K K K G K K K K K G G K G K K G K K K K G K K K G K K K G K K K K G K K K G G K K K K G K G K K K G K K K G G K K K K G K G K K K G G K G K K G K G K K K K G K K K K G K K K K K G G K K K K G K G G K K G K G K G K K K G G K K G K G K G K K K G G K K K K G K K K K K G G K G K K G K G K K K K K K K G G K K K K G K G K K K K K K G K K K G K K K G K K K K G G K G K K G K G K K K K G K ",
"_ _ _ _ _ _ _ _ _ { _ _ _ _ _ _ _ _ _ _ _ _ _ _ _ _ _ _ _ _ _ _ _ _ _ _ _ _ _ _ _ _ _ _ _ _ _ _ _ _ _ _ _ { _ _ _ _ _ { _ _ _ _ _ _ _ _ _ _ _ _ _ _ _ _ _ { _ _ _ _ _ _ _ _ _ _ _ _ _ _ _ _ _ _ _ _ _ _ { _ _ _ _ _ _ _ _ _ _ _ _ _ _ _ { _ _ _ _ _ _ _ _ _ _ _ _ _ _ _ _ { _ _ _ _ _ { _ _ _ _ _ _ _ _ _ _ _ _ _ _ _ _ _ _ _ _ _ _ _ _ _ { _ _ _ _ _ _ _ _ _ _ _ { _ _ _ _ _ _ { _ _ _ _ _ _ _ _ _ _ _ _ _ _ _ _ { _ _ _ _ _ _ _ _ _ _ _ _ _ _ _ _ _ _ _ _ _ _ _ _ _ _ _ _ _ _ _ _ _ _ _ _ _ _ _ _ _ _ _ { _ _ _ _ _ { _ _ _ _ ",
"q q q q e q q q q q q q q q q q q q q q e q q q q q q q q q q q q q q q q q q q q q q q q q q q e q q q q q q q q q q q q q q q q q q q q q q q e q q q q q q q q q q q q q q q q q q q q q q q q q q q q q q q q q e q q q q q q q q q q q q q q q e q q q q q e q q q q q q q q q q q q q q q q q q q q q q q e q q q q q q q e q q q q q q q q q q q e q q q q q q q q q q q q q q q q q q q q q q q e q q q q q q q q q q q q q q q e q q q q q q q q q q q q q q q q q q q q q q q q q q q e q q q q q q q q q q q q q q q ",
"j j j l j j j j j l j l j j l j j j j j j j j j j j j j j j j j j j j j l j j j j j j j j j j j l j j l j j j j j l j l j j l j j j j j j j j j j j j j j j j j j j j j l j j j j j j j j j j j j j j l j j j j j j j j j j j j j j j j j l j j j j l j j j j j l j j j j j j j j l j j l j j j j j j l j j l j j l j j l j j j l j l j l j j l l j l j j l j j j l j j j j l j j l j j l j j j j j j l j j j j j l j l j j l j j j j j j j j j j j j j j j j j j j j j l j j j j j j j j j j j l j j l j j j j j l j l j j l j ",
"G Z Z G G Z G Z Z G Z G G Z Z G G G G Z Z G G G G Z Z G G Z G Z G G Z G G Z G G G Z G G G Z G Z G Z Z G G Z G Z Z G Z G G Z Z G G G G Z Z G G G G Z Z G G Z G Z G G Z G G Z G G G Z G G G Z G Z G Z Z G G Z G Z Z G G G G Z Z G G Z G Z Z G G Z G Z Z G G Z G Z Z G G G G Z Z G Z Z G Z Z G G G Z G Z G G Z Z G Z Z G Z Z G G G Z G Z G G Z Z G Z G G Z Z G G Z Z G G Z G Z Z G Z G G Z Z G G G G Z Z G G Z G Z Z G Z G G Z Z G G G G Z Z G G G G Z Z G G Z G Z G G Z G G Z G G G Z G G G Z G Z G Z Z G G Z G Z Z G Z G G Z Z G ",
"P W W P P W W W W P W P P W W P W P P W W P W P P W W P P W W W P W P W P W W P P W W P P W W W P W W P P W W W W P W P P W W P W P P W W P W P P W W P P W W W P W P W P W W P P W W P P W W W P W W P P W W W W P W P P W W P P W W W P W P W P W W P P W W W W P W P P W W P W W P W W P W P W P W P P W W P W W P W W P W P W P W P P W P W W P P W P W P W P W P W P W W P W P P W W P W P P W W P P W W W W P W P P W W P W P P W W P W P P W W P P W W W P W P W P W W P P W W P P W W W P W W P P W W W W P W P P W W P ",
"j j j j j j j l j j j j j j j j j j j j j j j j j j j j j j j l j j j j j j l l j j j j j j j j j j j j j j j l j j j j j j j j j j j j j j j j j j j j j j j l j j j j j j l l j j j j j j j j j j j j j j j l j j j j j j j j j j j l l j j j j j j j j j j l j j j j j j j j j j j j j j j j j j j j j j j j j j j j j j j j j j j j j j j j j j l j l j j j l j j j j j j j j j l j j j j j j j j j j j j l j j j j j j j j j j j j j j j j j j j j j j j l j j j j j j l l j j j j j j j j j j j j j j j l j j j j j j j j ",
"v v v v v v v v v v v v v v v v v v v v v v v v v v v v v v v v l v v v v v v v l v v v v v v v v v v v v v v v v v v v v v v v v v v v v v v v v v v v v v v v l v v v v v v v l v v v v v v v v v v v v v v v v v v v v v v v v v v v v v v v v v v v v v v v v v v v v v v v v v v v v v v v v v v v v v v v v v v v v v v v v v v v v v v v v v v v v v v v v v v v v v v v v v v v v v v v v v v v v v v v v v v v v v v v v v v v v v v v v v v v v v v v l v v v v v v v l v v v v v v v v v v v v v v v v v v v v v v v ",
"v v v v v v v v B v v v v v B v v v v B v v v v v v v v B v v v v v v v v v v v v v B v B v v v v v v v v v v v B v v v v v B v v v v B v v v v v v v v B v v v v v v v v v v v v v B v v B v v v v v v B v v v v B v v v v v B v v v v v v v v v v v v B v v v B v v v v v B v v v B v v B v v B v v v v v B v v v B v v B v v B v v v v v v v B v v v v v B v B v v v v v B v B v v v v v B v v v v v v v v v B v v v v v B v v v v B v v v v v v v v B v v v v v v v v v v v v v B v B v v v v v v v v v v v B v v v v v B v ",
"*.*.*.*.*.*.*.*.*.*.*.*.*.*.*.*.*.*.*.*.*.*.*.*.*.*.*.*.*.*.*.*.*.*.*.*.*.*.*.*.*.*.*.*.*.*.*.*.*.*.*.*.*.*.*.*.*.*.*.*.*.*.*.*.*.*.*.*.*.*.*.*.*.*.*.*.*.*.*.*.*.*.*.*.*.*.*.*.*.*.*.*.*.*.*.*.*.*.*.*.*.*.*.*.*.*.*.*.*.*.*.*.*.*.*.*.*.*.*.*.*.*.*.*.*.*.*.*.*.*.*.*.*.*.*.*.*.*.*.*.*.*.*.*.*.*.*.*.*.*.*.*.*.*.*.*.*.*.*.*.*.*.*.*.*.*.*.*.*.*.*.*.*.*.*.*.*.*.*.*.*.*.*.*.*.*.*.*.*.*.*.*.*.*.*.*.*.*.*.*.*.*.*.*.*.*.*.*.*.*.*.*.*.*.*.*.*.*.*.*.*.*.*.*.*.*.*.*.*.*.*.*.*.*.*.*.*.*.*.*.*.*.*.*.*.*.*.*.*.*.*.*.*.*.*.*.",
"..} } ....} ..} } } } ..} ..} } } ..} ..} ....} ..} ..} } } ..} } ..} ....} } ..} ..} } } } ..} ..} } ....} ..} } } } ..} ..} } } ..} ..} ....} ..} ..} } } ..} } ..} ....} } ..} ..} } } } ..} ..} ..} } } ..} } } } ..} ..} } ..} } ..} ....} ..} ..} } } ..} } } } ..} ..} } } ..} } ..} } } } } } ..} ..} } } ..} } ..} } } } } } ..} ..} ..} } ..} ..} } } } } } ..} ..} } } } ..} ..} } } ..} } ....} ..} } } } ..} ..} } } ..} ..} ....} ..} ..} } } ..} } ..} ....} } ..} ..} } } } ..} ..} } ....} ..} } } } ..} ..} } ",
"~ ~ ~ ~ ~ ~ ~ ( ( ~ ~ ~ ~ ~ ~ ~ ~ ~ ~ ~ ~ ~ ~ ~ ~ ~ ~ ( ~ ~ ~ ~ ( ~ ~ ~ ~ ~ ~ ~ ~ ~ ~ ~ ~ ~ ~ ~ ~ ~ ~ ~ ~ ~ ~ ( ( ~ ~ ~ ~ ~ ~ ~ ~ ~ ~ ~ ~ ~ ~ ~ ~ ~ ~ ( ~ ~ ~ ~ ( ~ ~ ~ ~ ~ ~ ~ ~ ~ ~ ~ ~ ~ ~ ~ ~ ~ ~ ~ ~ ~ ~ ( ( ~ ~ ~ ~ ~ ~ ~ ~ ~ ~ ~ ~ ~ ~ ~ ~ ~ ~ ( ~ ~ ~ ( ( ~ ~ ~ ( ~ ~ ~ ~ ~ ~ ~ ( ~ ~ ~ ( ~ ~ ~ ( ~ ~ ~ ~ ~ ~ ~ ( ~ ~ ~ ( ~ ~ ~ ( ~ ~ ~ ~ ~ ~ ~ ( ~ ~ ~ ( ~ ~ ~ ( ~ ~ ~ ~ ~ ~ ~ ( ~ ~ ~ ~ ~ ~ ~ ~ ~ ~ ( ( ~ ~ ~ ~ ~ ~ ~ ~ ~ ~ ~ ~ ~ ~ ~ ~ ~ ~ ( ~ ~ ~ ~ ( ~ ~ ~ ~ ~ ~ ~ ~ ~ ~ ~ ~ ~ ~ ~ ~ ~ ~ ~ ~ ~ ~ ( ( ~ ~ ~ ~ ~ ~ ~ ",
"= = = = = = = = = = = = = = = = = = = = = = = = = = = = = = = = = = = = = = = = = = = = = = = = = = = = = = = = = = = = = = = = = = = = = = = = = = = = = = = = = = = = = = = = = = = = = = = = = = = = = = = = = = = = = = = = = = = = = = = = = = & = = = & = = = = = = = = = = = = = = = = = = = = = = = = = = = = = = = = = = = = = = = = = = = = = = = = = = = = = = = = = = = = = = = = = = = = = = = = = = = = = = = = = = = = = = = = = = = = = = = = = = = = = = = = = = = = = = = = = = = = = = = = = = = = = = = = = ",
"e e e e e e e e e e e e e e e e e e e e e e e e e e e e e e e e e e e e e e e e e e e e e e e e e e e e e e e e e e e e e e e e e e e e e e e e e e e e e e e e e e e e e e e e e e e e e e e e e e e e e e e e e e e e e e e e e e e e e e e e e e e e e e e e e e e e e e e e e e e e e e e e e e e e e e e e e e e e e e e e e e e e e e e e e e e e e e e e e e e e e e e e e e e e e e e e e e e e e e e e e e e e e e e e e e e e e e e e e e e e e e e e e e e e e e e e e e e e e e e e e e e e e e e e e e e e e e e e ",
"{ { { _ { { _ { { { { _ { { { { { _ { { { { { _ { { _ { { { _ { { _ { { { _ { { { _ { { { { { _ { { { _ { { _ { { { { _ { { { { { _ { { { { { _ { { _ { { { _ { { _ { { { _ { { { _ { { { { { _ { { { _ { { _ { { { { _ { { { { { { { _ { _ { { { { _ { { { _ { { _ { { _ { { _ { _ { { _ { { _ { _ { { _ { { _ { _ { { _ { { _ { _ { { _ { { _ { _ { { _ { { _ { _ { { _ { { _ { _ { { _ { { _ { { { _ { { _ { { { { _ { { { { { _ { { { { { _ { { _ { { { _ { { _ { { { _ { { { _ { { { { { _ { { { _ { { _ { { { { _ { { { { ",
"W W ~ W ~ ~ W ~ ~ ~ ~ W W ~ ~ W ~ ~ W ~ ~ ~ ~ W W ~ ~ W ~ W W W ~ ~ ~ ~ ~ W ~ W ~ W W W ~ ~ ~ ~ W W ~ W ~ ~ W ~ ~ ~ ~ W W ~ ~ W ~ ~ W ~ ~ ~ ~ W W ~ ~ W ~ W W W ~ ~ ~ ~ ~ W ~ W ~ W W W ~ ~ ~ ~ W W ~ W ~ ~ W ~ ~ ~ ~ W W ~ ~ W W ~ W W ~ W W W ~ ~ ~ W ~ W W W ~ ~ W ~ W W W ~ ~ W W ~ W W W ~ ~ ~ W ~ W W W ~ ~ W W ~ W W W ~ ~ W W ~ W W W ~ ~ W W ~ W W W ~ ~ W W ~ W W W ~ ~ W W ~ W W W ~ W W ~ W ~ ~ W ~ ~ ~ ~ W W ~ ~ W ~ ~ W ~ ~ ~ ~ W W ~ ~ W ~ W W W ~ ~ ~ ~ ~ W ~ W ~ W W W ~ ~ ~ ~ W W ~ W ~ ~ W ~ ~ ~ ~ W W ~ ~ W ",
"_ { _ _ _ { _ _ _ _ _ { _ _ { _ _ { _ _ _ _ _ { _ _ { _ { _ _ { _ _ _ _ _ { _ _ { _ _ { _ _ _ _ _ { _ _ _ { _ _ _ _ _ { _ _ { _ _ { _ _ _ _ _ { _ _ { _ { _ _ { _ _ _ _ _ { _ _ { _ _ { _ _ _ _ _ { _ _ _ { _ _ _ _ _ { _ _ { _ { _ _ { _ { _ { _ _ { _ _ { _ { _ _ { _ { _ { _ { _ { _ { _ { _ _ _ { _ { _ { _ { _ { _ { _ { _ { _ { _ { _ { _ { _ { _ { _ { _ { _ { _ { _ { _ { _ { _ { _ { _ _ { _ _ _ { _ _ _ _ _ { _ _ { _ _ { _ _ _ _ _ { _ _ { _ { _ _ { _ _ _ _ _ { _ _ { _ _ { _ _ _ _ _ { _ _ _ { _ _ _ _ _ { _ _ { _ ",
"_ _ _ { _ _ _ _ _ _ _ _ _ _ _ _ _ _ _ _ _ _ _ _ _ _ _ _ _ _ _ _ _ _ _ _ _ _ _ { _ _ _ _ _ _ _ _ _ _ _ { _ _ _ _ _ _ _ _ _ _ _ _ _ _ _ _ _ _ _ _ _ _ _ _ _ _ _ _ _ _ _ _ _ _ _ { _ _ _ _ _ _ _ _ _ _ _ { _ _ _ _ _ _ _ _ _ _ _ _ _ _ _ _ _ _ _ _ _ _ _ _ _ _ _ _ _ _ _ _ _ _ _ _ _ _ _ _ _ _ _ _ _ _ _ _ _ _ _ _ _ _ _ _ _ _ _ _ _ _ _ _ _ _ _ _ _ _ _ _ _ _ _ _ _ _ _ _ _ _ _ _ _ _ _ _ _ _ _ _ _ _ _ { _ _ _ _ _ _ _ _ _ _ _ _ _ _ _ _ _ _ _ _ _ _ _ _ _ _ _ _ _ _ _ _ _ _ _ { _ _ _ _ _ _ _ _ _ _ _ { _ _ _ _ _ _ _ _ _ _ _ _ ",
"~ W W W W W W W W ~ W W ~ W W W W W W W W ~ W W ~ W W W W W ~ W W ~ W W ~ W W W W W ~ W W ~ W W ~ W W W W W W W W ~ W W ~ W W W W W W W W ~ W W ~ W W W W W ~ W W ~ W W ~ W W W W W ~ W W ~ W W ~ W W W W W W W W ~ W W ~ W W W W W ~ W W ~ W W ~ W W W W W ~ W ~ W ~ W W W ~ W W W ~ W W W ~ W ~ W ~ W W W ~ W W W ~ W W W ~ W W W ~ W W W ~ W W W ~ W W W ~ W W W ~ W W W ~ W W W ~ W W W ~ W ~ W W W W W W W W ~ W W ~ W W W W W W W W ~ W W ~ W W W W W ~ W W ~ W W ~ W W W W W ~ W W ~ W W ~ W W W W W W W W ~ W W ~ W W W ",
"# $ # $ $ # $ $ $ $ $ # $ $ # $ $ # $ $ $ $ $ # $ $ # $ $ # $ $ $ $ $ # $ $ # $ $ # $ $ $ $ $ # $ $ # $ $ # $ $ $ $ $ # $ $ # $ $ $ # $ $ # $ $ $ $ $ # $ $ # $ $ # $ $ $ $ $ # $ $ # $ $ # $ $ # $ $ # $ $ # $ $ # $ $ $ $ $ # $ $ # $ $ # $ $ $ $ $ $ $ $ $ $ $ # $ $ $ # $ $ $ # $ $ $ # $ # $ # $ $ $ # $ $ $ # $ $ $ # $ # $ # $ $ $ # $ $ $ # $ $ $ # $ # $ # $ $ $ # $ $ $ # $ $ $ # $ # # # $ $ # $ $ # $ $ $ $ $ # $ $ $ $ $ # $ $ # $ $ # $ $ $ $ $ # $ $ # $ $ # $ $ $ $ $ # $ $ # $ $ # $ $ $ $ $ # $ $ # $ $ # $ $ ",
"_ _ _ ( _ _ _ _ ( _ _ _ _ _ _ ( _ _ _ _ ( _ _ _ _ _ _ ( _ _ _ _ ( _ _ _ _ _ _ ( _ _ _ _ ( _ _ _ _ _ _ ( _ _ _ _ ( _ _ _ _ _ _ ( _ _ _ ( _ _ _ _ ( _ _ _ _ _ _ ( _ _ _ _ ( _ _ _ _ _ _ ( _ _ _ _ _ ( _ _ _ _ _ ( _ _ _ _ ( _ _ _ _ _ _ ( _ _ _ _ _ ( _ ( _ _ ( _ _ _ _ ( _ _ _ ( _ _ _ ( _ _ _ _ _ _ _ ( _ _ _ ( _ _ _ ( _ _ _ _ _ _ _ ( _ _ _ ( _ _ _ ( _ _ _ _ _ _ _ ( _ _ _ ( _ _ _ ( _ _ _ _ _ _ _ _ _ ( _ _ _ _ ( _ _ _ _ _ ( _ _ _ _ _ _ ( _ _ _ _ ( _ _ _ _ _ _ ( _ _ _ _ ( _ _ _ _ _ _ ( _ _ _ _ ( _ _ _ _ _ _ ( _ _ _ _ ",
"W ~ ~ ~ W ~ W ~ ~ W ~ W W ~ ~ ~ W ~ W ~ ~ W ~ W W ~ ~ ~ W ~ W ~ ~ W ~ W W ~ ~ ~ W ~ W ~ ~ W ~ W W ~ ~ ~ W ~ W ~ ~ W ~ W W ~ ~ ~ W ~ ~ ~ W ~ W ~ ~ W ~ W W ~ ~ ~ W ~ W ~ ~ W ~ W W ~ ~ ~ W ~ W ~ ~ ~ W ~ W ~ ~ ~ W ~ W ~ ~ W ~ W W ~ ~ ~ W ~ W ~ ~ ~ W ~ W ~ ~ ~ ~ W ~ ~ ~ W ~ W ~ W ~ ~ ~ W ~ W ~ W ~ ~ ~ W ~ W ~ W ~ ~ ~ W ~ W ~ W ~ ~ ~ W ~ W ~ W ~ ~ ~ W ~ W ~ W ~ ~ ~ W ~ W ~ W ~ ~ ~ W ~ W ~ ~ W ~ ~ ~ W ~ W ~ ~ ~ ~ ~ W ~ ~ W ~ W W ~ ~ ~ W ~ W ~ ~ W ~ W W ~ ~ ~ W ~ W ~ ~ W ~ W W ~ ~ ~ W ~ W ~ ~ W ~ W W ~ ~ ~ W ~ W ~ ",
"l l l l l l l l l l l l l l l l l l l l l l l j l l l l l l l l l l l l l l l l l l l l l l l j l l l l l l l l l l l l l l l l l l l l l l l l l l l l l l l l l l l l l l l j l l l l l l l l l l l j l l l l l l l l l l l j l l l l l l l l l l l j l l j l l l l l l l l l l l l l l l l j l l l l l l l l l l l l l l l j l l l l l l l l l l l l l l l j l l l l l l l l l l l l l l l j l l l j l l l j l l j l l l l j l l l l l l l l l l l l l l l j l l l l l l l l l l l l l l l l l l l l l l l j l l l l l l l l ",
"G Z G G G G G G G G Z G G G G G G G G G G G G G G Z G G G G G G G G Z G G G G G G G G G G G G G G Z G G G G G G G G Z G G G G G G Z G G G G G G G G Z G G G G G G G G G G G G G G Z G G G G G G G Z G G G G G G G G G G G G G G G Z G G G G G G G Z G G G G G G G G G G G G Z G G G G G G G G G G G G G G G Z G G G G G G G G G G G G G G G Z G G G G G G G G G G G G G G G Z G G G G G G G G G G G G G Z G G G Z G G G G G G G G G Z G G G G G G G G G G G G G G Z G G G G G G G G Z G G G G G G G G G G G G G G Z G G G G G G ",
"%.%.%.%.%.%.%.%.%.%.%.%.%.%.%.%.%.%.%.%.%.%.%.%.%.%.%.%.%.%.%.%.%.%.%.%.%.%.%.%.%.%.%.%.%.%.%.%.%.%.%.%.%.%.%.%.%.%.%.%.%.%.%.%.%.%.%.%.%.%.%.%.%.%.%.%.%.%.%.%.%.%.%.%.%.%.%.%.%.%.%.%.%.%.%.%.%.%.%.%.%.%.%.%.%.%.%.%.%.%.%.%.%.%.%.%.%.%.%.%.%.%.%.%.%.%.%.%.%.%.%.%.%.%.%.%.%.%.%.%.%.%.%.%.%.%.%.%.%.%.%.%.%.%.%.%.%.%.%.%.%.%.%.%.%.%.%.%.%.%.%.%.%.%.%.%.%.%.%.%.%.%.%.%.%.%.%.%.%.%.%.%.%.%.%.%.%.%.%.%.%.%.%.%.%.%.%.%.%.%.%.%.%.%.%.%.%.%.%.%.%.%.%.%.%.%.%.%.%.%.%.%.%.%.%.%.%.%.%.%.%.%.%.%.%.%.%.%.%.%.%.%.%.%.%.%.",
"K K K K K K K K K K K K K K K K K K K K G K K K K K K K K K K K K K K K K K K K K K K K G K K K K K K K K K K K K K K K K K K K K K K K K K K K K K K K K K K K K K K K G K K K K K K K K K K K K K K K K K K K K K K K G K K K K K K K K K K K K K K K K K K K K K K K K K K K K K K K K K K K K K K K K K K K K K K K K K K K K K K K K K K K K K K K K K K K K K K K K K K K K K K K K K K K K K K K K K K K K K K K K K G K K K K K K K K K K K K K G K K K K K K K K K K K K K K K K K K K K K K K G K K K K K K K K K K K ",
"2 2 2 2 2 2 2 2 2 2 2 2 2 2 2 2 2 2 2 2 2 2 2 2 2 2 2 2 2 2 2 2 2 2 2 2 2 2 2 2 2 2 2 2 2 2 2 2 2 2 2 2 2 2 2 2 2 2 2 2 2 2 2 2 2 2 2 2 2 2 2 2 2 2 2 2 2 2 2 2 2 2 2 2 2 2 2 2 2 2 2 2 2 2 2 2 2 2 2 2 2 2 2 2 2 2 2 2 2 2 2 2 2 2 2 2 2 2 2 2 2 2 2 2 2 2 2 2 2 2 2 2 2 2 2 2 2 2 2 2 2 2 2 2 2 2 2 2 2 2 2 2 2 2 2 2 2 2 2 2 2 2 2 2 2 2 2 2 2 2 2 2 2 2 2 2 2 2 2 2 2 2 2 2 2 2 2 2 2 2 2 2 2 2 2 2 2 2 2 2 2 2 2 2 2 2 2 2 2 2 2 2 2 2 2 2 2 2 2 2 2 2 2 2 2 2 2 2 2 2 2 2 2 2 2 2 2 2 2 2 2 2 2 2 2 2 2 2 2 2 2 2 2 2 2 2 ",
"B Z B Z Z B Z B Z B Z B Z B Z B B Z B Z B Z B Z B Z Z B Z B Z B Z B Z B Z B Z B Z B Z Z Z B Z Z B Z B Z Z B Z B Z B Z B Z B Z B B Z B Z Z B Z B Z B Z B Z B Z B B Z B Z B Z B Z B Z Z B Z B Z B Z B Z B Z B Z B B Z B Z B Z B Z B Z B Z Z B Z B Z B Z B Z B Z B B B Z B Z B Z B Z B Z B Z B Z B B B Z B Z B Z B Z B Z B Z B Z B B B Z B Z B Z B Z B Z B Z B Z B B B Z B Z B Z B Z B Z B Z B Z B B Z B Z B Z B Z Z B Z B Z B Z B Z B Z B Z B Z B B Z B Z B Z Z Z B Z B Z Z B Z B Z B Z B Z B Z B B Z B Z B Z B Z B Z Z B Z B Z B ",
"%.%.%.%.&.&.%.%.%.%.%.%.&.&.%.%.%.%.%.&.%.%.%.&.%.%.%.&.%.%.%.%.%.&.%.%.%.%.%.&.%.%.%.&.%.%.%.&.%.%.%.%.&.&.%.%.%.%.%.%.&.&.%.%.%.%.%.%.&.&.%.%.%.%.%.%.&.&.%.%.%.%.%.&.%.%.%.&.%.%.%.&.%.%.%.%.%.&.%.%.%.%.%.&.%.%.%.&.%.%.%.&.%.%.%.%.%.&.%.%.%.%.%.%.%.&.%.%.%.%.%.&.%.%.%.%.&.&.%.%.%.%.%.&.%.%.%.&.%.%.%.%.%.&.%.%.%.%.%.&.%.%.%.&.%.%.%.%.&.&.%.%.%.%.%.&.%.%.%.&.%.%.%.%.%.&.%.%.%.%.%.&.%.%.%.&.%.%.%.&.%.%.%.%.%.%.%.%.%.&.%.%.%.%.%.&.%.%.%.%.%.%.%.&.%.%.%.%.&.&.%.%.%.%.%.%.&.&.%.%.%.%.%.&.%.%.%.&.%.%.%.&.%.%.%.%.",
"o.o...o.o.o.o.o.o.o.o.o.o.o.o.o.o.o.o.o.o.o...o...o.o.o.o.o.o.o.o.o.o.o.o.o.o.o...o.o.o...o.o.o.o.o...o.o.o.o.o.o.o.o.o.o.o.o.o.o.o...o.o.o.o.o.o.o.o.o.o.o.o.o.o.o.o.o.o.o...o...o.o.o.o.o.o.o.o.o.o.o.o.o.o.o.o.o.o.o.o.o...o.o.o...o.o.o.o.o.o...o.o.o.o.o.o.o.o.o.o.o.o.o.o.o.o.o.o.o.o.o.o.o.o.o.o.o.o.o.o.o.o.o.o.o.o.o.o.o.o.o.o.o.o.o.o.o.o.o.o.o.o.o.o.o.o.o.o.o.o.o.o.o.o.o.o.o.o.o.o.o.o.o.o.o.o...o.o.o.o.o.o.o.o.o.o.o.o.o.o.o.o.o.o.o.o.o.o.o.o.o.o.o...o.o.o.o.o.o.o.o.o.o.o.o.o.o.o.o.o.o.o...o...o.o.o.o.o.o.o.",
"P W P P P P W P P W P P P P W P P P P W P P W P P P W P P W P P P W P P P P W P P P P P W P P P P W P P P P W P P W P P P P W P P W P P P P W P P W P P P P W P P P P W P P W P P P W P P W P P P W P P P P W P P P P W P P W P P P W P P W P P P W P P P W P P P P W P P W P P P P W P P P W P P P W P P W P P P W P P P P W P P P W P P W P P P P W P P P W P P P W P P W P P P W P P P P W P P P P W P P W P P P W P P W P P P W P P P P W P P P P W P P P P P W P P P P W P P W P P P P W P P P P W P P W P P P W P P W P P ",
"$ $ $ $ $ $ $ $ $ $ $ $ $ $ $ $ $ # $ $ $ $ $ $ $ $ $ $ $ $ $ $ $ $ $ $ $ $ $ $ $ # $ $ $ $ $ $ $ $ $ $ $ $ $ $ $ $ $ $ $ $ $ $ $ $ $ $ $ $ $ $ $ $ $ $ $ $ $ $ $ # $ $ $ $ $ $ $ $ $ $ $ $ $ $ $ $ $ $ $ $ $ $ $ # $ $ # $ $ $ $ $ # $ $ $ $ $ $ $ # $ $ $ $ $ $ $ $ $ $ $ $ $ $ $ $ $ $ $ $ $ $ $ $ $ $ $ $ $ # $ $ $ $ $ $ # $ $ $ $ $ $ $ $ $ $ $ $ $ $ $ $ $ $ $ $ $ $ $ $ # $ $ $ $ $ $ # $ # $ $ $ $ $ $ $ $ $ $ $ $ $ $ $ $ $ $ $ $ $ $ $ # $ $ # $ $ $ $ $ $ $ $ $ $ $ $ $ $ $ $ $ $ $ $ # $ $ $ $ $ $ $ $ $ $ $ $ $ $ ",
"v B v B v B v B v B v B v B v B B B B v v B B v B v B v B v v B B v v B B v B v B B B v B v v B v B v B v B v B v B v B v B v B v B v B v B v B v B v B v B v B B B B v v B B v B v B v B v v B B v v B B v B v B B B v B v B v v B B v B v B v B B B v B v B v B v B v B v v B v B B v B v B v B v B v B v v B B v v B v B v B B v B v B v v B v B B v B v B v B v B v B v v B B v v B v B v B B B B v v B B v B v B v B v v B B v v B B v B v B B B v B v v B v B v B v B v B v B v B v B v B B B B v v B B v B v B v B v v B ",
"( ( ( ( ( ( ( ( ( ( ( ( ( ( ( ( ( ( ( ( ( ( ( ( ( ( ( ( ( ( ( ( ( ( ( ( ( ( ( ( ( ( ( ( ( ( ( ( ( ( ( ( ( ( ( ( ( ( ( ( ( ( ( ( ( ( ( ( ( ( ( ( ( ( ( ( ( ( ( ( ( ( ( ( ( ( ( ( ( ( ( ( ( ( ( ( ( ( ( ( ( ( ( ( ( ( ( ( ( ( ( ( ( ( ( ( ( ( ( ( ( ( ( ( ( ( ( ( ( ( ( ( ( ( ( ( ( ( ( ( ( ( ( ( ( ( ( ( ( ( ( ( ( ( ( ( _ ( ( ( ( ( ( ( ( ( ( ( ( ( ( ( ( ( ( ( ( ( ( ( ( ( ( ( ( ( ( ( _ ( ( ( ( ( ( ( ( ( ( ( ( ( ( ( ( ( ( ( ( ( ( ( ( ( ( ( ( ( ( ( ( ( ( ( ( ( ( ( ( ( ( ( ( ( ( ( ( ( ( ( ( ( ( ( ( ( ( ( ( ( ( ( ( ( ( ( ",
"q 8 8 8 q 8 8 8 q 8 8 8 q 8 8 8 8 8 q 8 8 8 8 q 8 8 8 q 8 8 8 q 8 8 q 8 8 8 q 8 8 8 q 8 8 q 8 8 q 8 8 8 q 8 8 8 q 8 8 8 q 8 8 8 q 8 8 8 q 8 8 8 q 8 8 8 q 8 8 8 8 8 q 8 8 8 8 q 8 8 8 q 8 8 8 q 8 8 q 8 8 8 q 8 8 8 q 8 8 q 8 8 q 8 8 q 8 q 8 8 8 8 8 q 8 q 8 8 8 8 8 q 8 8 8 q 8 8 8 q 8 8 8 q 8 8 8 q 8 8 8 q q 8 8 8 q 8 8 8 8 8 8 q 8 8 8 q 8 8 8 q 8 8 8 q 8 8 8 q 8 8 8 q q 8 8 8 q 8 8 8 8 8 q 8 8 8 8 q 8 8 8 q 8 8 8 q 8 8 q 8 8 8 q 8 8 8 q 8 q 8 8 q q 8 8 8 q 8 8 8 q 8 8 8 q 8 8 8 8 8 q 8 8 8 8 q 8 8 8 q 8 8 8 q ",
"q q q q q q q q q q q q q e q q q e q q q q q q q q e q q q q q e q q q q q e q q q q q q q q q q q q q q q q q q q q q q e q q q q q q q q q q q q q q q q q q q e q q q q q q q q e q q q q q e q q q q q e q q q q q e q q q q q q e q q q e q q q e q e q q q q q q q q q q q q e q q q q q e q q q q q e q q q q q q q q q q q q q q q q q q q e q q q q q e q q q q q e q q q q q q q q q q q e q q q q q q q q q q q e q q q e q q q q q q q q q q q e q q q q q q q q q q q q q q e q q q e q q q q q q q q e q q q q q ",
"s j s s s j s s s j s s s s s s s s j s s s s j s s s s s j s s s s s j s s s s s j s s s s s j s j s s s j s s s j s s s s s s s j s s s j s s s j s s s j s s s s j s s s s j s s s s s j s s s s s j s s s s s j s s s s s j s j s s s j s s s j s s s s s s s j s s s s s j s s s s s j s s s s s j s s s s s j s s s s s j s j s s s s s j s s s s s j s s s s s j s s s s s j s s s s s j s s s s s j s s s s s j s s s s j s s s s j s s s s s j s s s s s j s s s j s s s j s s s s s s s s j s s s s j s s s s s j s s ",
"3 3 2 2 3 3 3 2 3 3 3 2 3 3 2 2 2 2 2 2 2 2 2 2 3 3 3 2 3 3 3 3 2 2 2 3 3 3 3 3 3 3 3 3 2 2 2 2 3 3 2 2 3 3 3 2 3 3 3 2 3 3 2 2 3 3 2 2 3 3 3 2 3 3 2 2 3 3 3 2 2 2 2 2 2 2 2 2 3 3 3 2 3 3 3 3 2 2 2 2 3 3 3 2 3 3 3 3 2 2 2 2 2 2 2 2 2 2 3 2 2 2 3 2 3 3 2 2 2 3 3 3 2 2 2 2 3 3 3 2 3 3 3 3 2 2 2 3 3 3 3 3 3 3 3 3 2 2 2 2 2 3 3 3 2 2 2 2 3 3 3 2 3 3 3 3 2 2 2 3 3 3 3 3 3 3 3 3 2 2 2 2 3 3 3 3 3 3 3 3 2 2 2 2 3 3 3 2 2 2 2 2 3 3 3 3 2 2 2 2 3 3 3 2 3 3 2 2 3 3 3 2 3 3 3 2 3 3 2 2 2 2 2 2 2 2 2 2 3 3 3 2 3 3 3 3 ",
"& & & & & & & $ & & & & & & & & & & & & & & & & & & & & & & & & & & & $ & & & & & & & & & & & & & & & & & & & $ & & & & & & & & & & & & & & & $ & & & & & & & $ & & & & & & & & & & & & & & & & & & & & & & & & & & & & & & & & & & & & & & & $ & & & & & & & & & & & & & & & & & & & & & & & & & & & $ & & & & & & & & & & & & & & & & & & & & & & & & & & & & & & & $ & & & & & & & & & & & & & & & & & & & & & & & & & & & & & & & & & & & & & & & & & & & & & & & & & & & $ & & & & & & & & & & & & & & & & & & & & & & & & ",
"a a a a a a a a a a a a a a a a a a a a a a a a a a a a a a a a a a a a a a a a a a a a a a a a a a a a a a a a a a a a a a a a a a a a a a a a a a a a a a a a a a a a a a a a a a a a a a a a a a a a a a a a a a a a a a a a a a a a a a a a a a a a a a a a a a a a a a a a a a a a a a a a a a a a a a a a a a a a a a a a a a a a a a a a a a a a a a a a a a a a a a a a a a a a a a a a a a a a a a a a a a a a a a a a a a a a a a a a a a a a a a a a a a a a a a a a a a a a a a a a a a a a a a a a a a a a a a a a ",
"~ ~ ~ ~ ( ~ ~ ~ ~ ~ ~ ~ ~ ( ~ ~ ~ ~ ~ ~ ~ ~ ~ ~ ~ ~ ~ ~ ~ ~ ~ ~ ( ~ ~ ~ ~ ~ ~ ( ~ ~ ~ ~ ~ ~ ~ ~ ~ ~ ~ ~ ( ~ ~ ~ ~ ~ ~ ~ ~ ( ~ ~ ~ ~ ~ ~ ( ~ ~ ~ ~ ~ ~ ~ ( ~ ~ ~ ~ ~ ~ ~ ~ ~ ~ ~ ~ ~ ~ ~ ~ ~ ~ ~ ~ ( ~ ~ ~ ~ ~ ( ~ ~ ~ ( ~ ~ ~ ~ ~ ~ ~ ~ ( ~ ~ ~ ~ ~ ~ ~ ~ ( ~ ~ ~ ~ ~ ~ ~ ~ ~ ~ ~ ~ ~ ~ ~ ~ ~ ~ ( ~ ~ ~ ~ ~ ~ ( ~ ~ ~ ~ ~ ~ ~ ~ ~ ~ ~ ~ ~ ~ ~ ~ ~ ~ ~ ~ ~ ~ ~ ~ ( ~ ~ ~ ~ ~ ~ ( ~ ~ ~ ~ ~ ~ ~ ~ ~ ~ ~ ~ ~ ~ ~ ~ ~ ( ~ ~ ~ ~ ~ ( ~ ~ ~ ~ ~ ~ ~ ~ ~ ( ~ ~ ~ ~ ~ ( ~ ~ ~ ~ ( ~ ~ ~ ~ ~ ~ ~ ~ ( ~ ~ ~ ~ ~ ~ ~ ~ ~ ~ ~ ~ ~ ~ ~ ~ ~ ~ ",
"v B B v v B v B v B B v B v v B B B v B v B v B B v v B v B B v v B v B v B B v B B v B v B v B v B B v v B v B v B B v B v v B v B B v v B v B v B B v v B v B B B v B v B v B B v v B v B B v B v B v v B v B B v B v v B v B v B B v v B v B v B B v B v v B B B v B v B v B B v v B v B B v v B v B v B B v B B v B v B v B B B v B v B v B B v v B v B B v v B v B v B B v B B v B v B v B B v v B v B B v B v v B v B B v B v v B v B B v B v v B v B B v v B B v v B v B v B B v B v v B B B v B v B v B B v v B v B B v ",
"_ _ _ _ _ _ _ _ _ _ _ _ _ _ _ ( ( _ _ _ _ _ _ _ _ _ _ _ _ _ _ _ _ _ _ _ ( _ _ ( ( _ _ _ _ _ _ _ _ _ _ _ _ _ _ _ _ _ _ _ _ _ _ ( _ _ _ _ _ _ _ _ _ _ _ _ _ _ _ _ ( _ _ _ _ _ _ _ _ _ _ _ _ _ _ _ ( _ _ _ _ ( _ ( ( _ _ _ _ _ _ _ _ _ _ _ _ _ _ _ _ _ _ _ _ _ _ ( ( _ _ _ _ _ _ _ _ _ _ _ _ _ _ _ _ _ _ _ ( _ _ ( ( _ _ _ _ _ _ _ ( _ _ _ _ _ _ _ _ _ _ _ _ _ _ _ _ _ _ _ ( _ _ ( ( _ _ _ _ _ _ _ _ _ _ _ _ _ _ _ _ _ _ ( _ _ ( _ _ _ _ _ _ _ _ _ _ _ _ ( _ _ ( _ _ _ _ _ _ _ _ _ _ _ _ _ _ _ _ ( ( _ _ _ _ _ _ _ _ _ _ _ _ _ _ _ ",
"Z B B Z B B Z B B Z B B Z B B Z Z B Z Z Z Z Z Z Z B B Z B B Z B B Z B B Z B B Z Z B Z Z Z Z Z Z Z B B Z B B Z B B Z B B Z B B Z Z B Z B Z B B Z B Z B B Z B Z B Z B Z Z Z Z Z Z Z B B Z B B Z B B Z B B Z B B Z Z Z Z B Z Z Z Z Z B B Z B B Z B B Z B B Z B B Z Z B Z Z Z Z Z Z Z B B Z B B Z B B Z B B Z B B Z Z B Z Z Z Z Z Z Z B Z Z Z Z Z Z Z B B Z B B Z B B Z B B Z B B Z Z B Z Z Z Z Z Z Z B B Z Z B Z Z Z Z Z B Z B Z Z Z B B Z Z B Z Z Z Z Z B Z B Z Z Z B B Z B B Z B B Z B B Z B B Z Z B Z Z Z Z Z Z Z B B Z B B Z B ",
"j j j j j j j j j j j j j j j j j j j j j s j j j j j j j j j j j j j j j j j j j j j j j s j j j j j j j j j j j j j j j j j j j j j l j j j j j j j j j j j l j j j j j s j j j j j j j j j j j j j j j j j j j s j j j s j j j j j j j j j j j j j j j j j j j j j j j s j j j j j j j j j j j j j j j j j j j j j j j s j j j j j j j s j j j j j j j j j j j j j j j j j j j j j j j s j j j j j j j j j s j s j j j j j s j j j j j j j s j s j j j j j s j j j j j j j j j j j j j j j j j j j j j s j j j j j j j j j j ",
"3 3 3 8 8 3 3 3 3 8 3 3 3 3 3 8 3 3 3 3 3 3 3 3 3 3 3 8 8 3 3 3 3 8 3 3 3 3 3 8 3 3 3 3 3 3 3 3 3 3 3 8 8 3 3 3 3 8 3 3 3 3 3 8 3 3 3 3 3 3 3 3 3 8 3 3 3 3 3 3 3 3 3 3 3 3 3 3 3 3 3 8 8 3 3 3 3 8 3 3 3 3 3 8 3 3 3 8 3 3 3 3 3 3 8 3 3 8 3 3 8 3 3 3 3 3 8 3 3 3 3 3 3 3 3 3 3 3 3 8 8 3 3 3 3 8 3 3 3 3 3 8 3 3 3 3 3 3 3 3 3 3 3 3 3 3 3 3 3 3 3 8 8 3 3 3 3 8 3 3 3 3 3 8 3 3 3 3 3 3 3 3 3 3 3 3 8 3 3 3 8 3 3 3 8 3 3 3 3 3 3 3 8 3 3 3 8 3 3 3 8 3 3 3 3 3 3 8 8 3 3 3 3 8 3 3 3 3 3 8 3 3 3 3 3 3 3 3 3 3 3 8 8 3 3 3 ",
"X X X X X X X X X X X X X X X X X X X X X X X X X X X X X X X X X X X X X X X X X X X X X X X X X X X X X X X X X X X X X X X X X X o X o X X X X X X X X X o X X X X X X X X X X X X X X X X X X X X X X X X X X X X X X X X X X X X X X X X X X X X X X X X X X X X X X X X X X X X X X X X X X X X X X X X X X X X X X X X X X X X X X X X X X X X X X X X X X X X X X X X X X X X X X X X X X X X X X X X X X X X X X X X X X X X X X X X X X X X X X X X X X X X X X X X X X X X X X X X X X X X X X X X X X X X X X X X X ",
"Z Z G Z G Z G Z G Z G Z Z Z G Z G Z G Z G Z G Z Z Z G Z G Z G Z G Z G Z Z Z G Z G Z G Z G Z G Z Z Z G Z G Z G Z G Z G Z Z Z G Z Z G Z G G G Z Z G Z G Z Z Z G Z G Z G Z G Z G Z Z Z G Z G Z G Z G Z Z G Z G Z Z G Z G Z G Z G Z Z Z G Z G Z G Z G Z G Z Z Z G Z G Z G Z G Z G Z Z Z G Z G Z G Z G Z G Z Z Z G Z G Z G Z G Z G Z G Z G Z G Z G Z Z Z G Z G Z G Z G Z G Z Z Z G Z G Z G Z G Z G Z G G G Z G Z G Z G Z G Z G Z G Z G G G Z G Z G Z G Z G Z G Z G Z Z Z G Z G Z G Z G Z G Z Z Z G Z G Z G Z G Z G Z Z Z G Z G Z G Z ",
"Z Z Z Z Z Z Z Z Z Z Z Z Z Z Z Z Z Z Z Z Z Z Z Z Z Z Z Z Z Z Z Z Z Z Z Z Z Z Z Z Z Z Z Z Z Z Z Z Z Z Z Z Z Z Z Z Z Z Z Z Z Z Z Z Z Z Z Z Z Z Z Z Z Z Z Z Z Z Z Z Z Z Z Z Z Z Z Z Z Z Z Z Z Z Z Z Z Z Z Z Z Z Z Z Z Z Z Z Z Z Z Z Z Z Z Z Z Z Z Z Z Z Z Z Z Z Z Z Z Z Z Z Z Z Z Z Z Z Z Z Z Z Z Z Z Z Z Z Z Z Z Z Z Z Z Z Z Z Z Z Z Z Z Z Z Z Z Z Z Z Z Z Z Z Z Z Z Z Z Z Z Z Z Z Z Z Z Z Z Z Z Z Z Z Z Z Z Z Z Z Z Z Z Z Z Z Z Z Z Z Z Z Z Z Z Z Z Z Z Z Z Z Z Z Z Z Z Z Z Z Z Z Z Z Z Z Z Z Z Z Z Z Z Z Z Z Z Z Z Z Z Z Z Z Z Z ",
"2 2 2 2 2 3 2 2 2 2 2 2 2 2 2 2 2 3 2 2 2 2 2 2 2 2 2 2 2 3 2 2 2 2 2 2 2 2 2 2 2 3 2 2 2 2 2 2 2 2 2 2 2 3 2 2 2 2 2 2 2 2 2 2 2 2 2 2 2 2 2 2 2 2 2 2 2 2 2 2 2 3 2 2 2 2 2 2 2 2 2 2 2 3 2 2 2 2 2 2 2 2 2 2 3 3 2 2 2 2 2 2 2 2 2 2 2 3 2 2 2 2 2 2 2 2 2 2 2 3 2 2 2 2 2 2 2 2 2 2 2 3 2 2 2 2 2 2 2 2 2 2 2 3 2 2 3 2 2 2 2 3 2 2 2 2 2 2 2 2 2 2 2 3 2 2 2 2 2 2 2 2 2 2 2 3 2 2 3 2 2 2 2 2 2 2 2 2 2 2 2 2 2 2 2 2 2 2 2 2 2 2 2 2 2 2 2 2 2 2 2 2 2 2 2 2 2 2 2 3 2 2 2 2 2 2 2 2 2 2 2 3 2 2 2 2 2 2 2 2 2 2 2 3 2 2 ",
"B B B B B v B B B v B B B B B B B v B B B v B B B B B B B v B B B v B B B B B B B v B B B v B B B B B B B v B B B v B B B B B B B B B v B B B B B v B B B B B B B v B B B v B B B B B B B v B B B B v B B B B B B v B B B v B B B B B B B v B B B v B B B B B B B v B B B v B B B B B B B v B B B v B B B B B B B v B B v B B B B v B B B v B B B B B B B v B B B v B B B B B B B v B B v B B B B B v B B B v B B B v B B B v B B B v B B B v B B B v B B B v B B B B B B v B B B v B B B B B B B v B B B v B B B B B B B v B B ",
"a a a e e a a a a e a e a a a a e a a a a e e a a a a e a e a a a a a e a e a a a a a a a a e a e a a a a e e a a a a e a e a a e a e a a e a a a a a a a a e a e a a a a e a e a a a a a e a a a a a e a e a a a a a a a a e a e a a a a e a e a a a a a e a a a a a a a a e a e a a a a e e a a a a e a e a a a a a a a a e a e a a a a e e a a a a e a e a a a a a a a a e a e a a a a e e a a a a a e a e a a a a a e a e a a a a a e a e a a a a a e a e a a e a e a a a a a e a e a a e a a a a e e a a a a e a e a a a a ",
"P W W W W W W P W W W W W P W P W W P W W W W W W P W W W W W P W P W W W W W P W P P W P W W W W W P W W W W W W P W W W W W P W W P W W W W P W P P W P W W W W W W P W W W W W P W P W W W P W P W W W W W P W P P W P W W W W W W P W W W W W P W P W W W P W P P W P W W W W W P W W W W W W P W W W W W P W P P W P W W W W W P W W W W W W P W W W W W P W P P W P W W W W W P W W W W W P W P W W W W W P W P W W W W W P W P W W W W W P W P W W W W W W W W W W P W P W W W W W P W W P W W W W W W P W W W W W P W P ",
"v v l v v v v v v l v v v v v v v v v v l v v v v l v v v v v v v l v v v v v v v v v v v v l v v v v v l v v v v l v v v v v v v l v v v v v v v v v v v v l v v v v v v l v l v v v v v v v v v l v v v v v v v v v v v v l v v v v v v l v l v v v v l v v v v v v v v v l v v v v v l v v v v l v v v v v v v v v v v v l v v v v v l v v v v l v v v v v v v v v v v v l v v v v v l v v v v v l v v v v v v v l v v v v v v v l v v v v v v v l v v v v v v l v v v v v v l v v v v v v v v v l v v v v v v l v v v v v v ",
"> > > > > > > > > > > > > > > > > > > > > > > > > > > > > > > > > > > > > > > > > > > > > > > > > > > > > > > > > > > > > > > > > > > 2 > > > > > > > > > > > > > > > > > > 2 > > > > > > > > > > > > > > > > > > > > > > > > > > > > > > > 2 > > > > > > > 2 > > > > > > > > > > > > > > > > > > > > > > > > > > > > > > > > > > > > > > > > > > > > > > > > > > > > > > > > > > > > > > > > > > > > > > > > > > > > > > > > > > > > > > > > > > > > > > > > > > > > > > > > > > > > > > > > > > > > > > > > > > > > > > > > > ",
"e e e e e e e e e e e e e e e e e e e e e e e e e e e e e e e e e e e e e e e e e e e e e e e e e e e e e e e e e e e e e e e e e e e e e e e e e e e e e e e e e e e e e e e e e e e e e e e e e e e e e e e e e e e e e e e e e e e e e e e e e e e e e e e e e e e e e e e e e e e e e e e e e e e e e e e e e e e e e e e e e e e e e e e e e e e e e e e e e e e e e e e e e e e e e e e e e e e e e e e e e e e e e e e e e e e e e e e e e e e e e e e e e e e e e e e e e e e e e e e e e e e e e e e e e e e e e e e e ",
"~ ~ W ~ ~ ~ W ~ ~ W ~ W ~ W ~ ~ W W ~ ~ ~ ~ ~ W ~ ~ W W ~ ~ W W ~ ~ W W ~ ~ W W ~ ~ ~ W ~ W ~ ~ W W ~ ~ ~ ~ ~ W ~ ~ W W ~ ~ W W ~ ~ W W ~ ~ W W ~ ~ ~ W ~ W ~ ~ ~ W ~ W ~ W ~ ~ W ~ W W ~ ~ W W ~ ~ W W ~ ~ W W ~ ~ ~ W ~ W ~ ~ ~ W ~ W ~ W ~ ~ W ~ W W ~ ~ W W ~ ~ ~ W ~ W ~ ~ W W ~ ~ ~ ~ ~ W ~ ~ W W ~ ~ W W ~ ~ ~ W ~ W ~ ~ W W ~ ~ ~ ~ ~ W ~ ~ W W ~ ~ W W ~ ~ ~ W ~ W ~ ~ W W ~ ~ ~ ~ ~ W ~ ~ W ~ ~ W ~ W ~ ~ W ~ ~ W ~ W ~ ~ W ~ ~ W ~ W ~ ~ W ~ ~ W ~ W ~ W ~ W ~ W ~ ~ W ~ ~ ~ ~ W ~ W ~ ~ W ~ ~ ~ W ~ ~ W ~ W ~ W ~ ~ ",
"_ _ _ _ _ _ _ _ _ _ _ _ _ _ _ _ _ _ _ _ _ _ _ _ _ _ _ _ _ _ _ _ _ _ _ _ _ _ _ _ _ _ _ _ _ _ _ _ _ _ _ _ _ _ _ _ _ _ _ _ _ _ _ _ _ _ _ _ _ _ _ _ _ _ _ _ _ _ _ _ _ _ _ _ _ _ _ _ _ _ _ _ _ _ _ _ _ _ _ _ _ _ _ _ _ _ _ _ _ _ _ _ _ _ _ _ _ _ _ _ _ _ _ _ _ _ _ _ _ _ _ _ _ _ _ _ _ _ _ _ _ _ _ _ _ _ _ _ _ _ _ _ _ _ _ _ _ _ _ _ _ _ _ _ _ _ _ _ _ _ _ _ _ _ _ _ _ _ _ _ _ _ _ _ _ _ _ _ _ _ _ _ _ _ _ _ _ _ _ _ _ _ _ _ _ _ _ _ _ _ _ _ _ _ _ _ _ _ _ _ _ _ _ _ _ _ _ _ _ _ _ _ _ _ _ _ _ _ _ _ _ _ _ _ _ _ _ _ _ _ _ _ _ _ _ _ ",
"W ~ W W W ~ W W W ~ ~ W W ~ W W ~ W W ~ W W ~ ~ ~ W W ~ ~ W W ~ ~ W W ~ ~ W W ~ W W W ~ W W ~ W ~ W W ~ W W ~ ~ ~ W W ~ ~ W W ~ ~ W W ~ ~ W W ~ W W W ~ W W ~ W W ~ W W ~ W W ~ ~ W W ~ ~ W W ~ ~ W W ~ ~ W W ~ W W W ~ W W ~ W W ~ W W ~ W W ~ ~ W W ~ ~ W W ~ W W W ~ W W ~ W ~ W W ~ W W W ~ ~ W W ~ ~ W W ~ W W W ~ W W ~ W ~ W W ~ W W ~ ~ ~ W W ~ ~ W W ~ W W W ~ W W ~ W ~ W W ~ W W W ~ ~ W W ~ W ~ W W ~ W W ~ W ~ W ~ ~ W W ~ W ~ W W ~ W W ~ W ~ W ~ W ~ ~ W W ~ W W W W ~ W W ~ ~ W W ~ W W W ~ W W W ~ ~ W W ~ W W ",
"{ { { { { { { { { { { { { { { { } { { { { { { { { { { { { { { { { { { { { { { { { { { { { { { { } { { { { { { { { { { { { { { { { { { { { { { { { { { { { { { { { { { { { { { { { { { { { { { { { { { { { { { { { { { { { { { { { { { { { { { { { { { { { { { { { { { { { { { { { { { { { { { { { { { { { { { { { { { { { { { { } { { { { { { { { { { { { { { { { { { { { { { { { { { { { { { { { _ { { { { { { { { { { { { { { { _ { { { { { { { { { { { { { { { { { { } { { { { { { { { { { { { { { { { { { { { { { { { { { { ",
"l l j l l l j l l j l l l l l l l l l l l l l l l l j l l l j l l l j l l l j l l l l l l l l l l l l l l l l l l l j l l l j l l l j l l l j l l l l l l l l l v l l l l l l l l l j l l l j l l l j l l l j l l l l l l l l l v l l l l l l l l l j l l l j l l l l l l l l l l l l l l l l l l l j l l l j l l l l l l l l l l l l l l l l l l l j l l l j l l l l l l l l l l l l l l l l l l l l l l l l l l l l l l l l l l l l l l l l l l l l l l l l l l l l j l l l l l l l l l l l l l l j l l l j l l j l l l l l l ",
"e a e a e a e a e e a e a e a e e e a e a e e e e a e a e a e a e a e a e a e a e e a e e e e a e e a e a e e e e a e a e a e a e a e a e a e a e e a e e e e a e e a e e e a e e a e a e a e a e a e a e a e a e e a e e e e a e e a e e e a e e a e a e a e a a e e a e a a e a e e a e a a e e a e a e a e a e e a e e e e a e e a e a e e e e a e a e a e a a e e a e a a e a e e a e a a e a e a e e e e a e a a e e e a e a e a e e e e a e a a e e e a e e e e a e e a e a e a e e a a e e a e a e a e a e e a e a e a e ",
"Z B Z B Z B Z Z Z Z B Z B Z B Z Z B Z B B Z Z Z Z B Z B Z B Z Z Z B Z B Z B Z B Z Z B Z Z Z B Z Z B Z B B Z Z Z Z B Z B Z B Z Z Z B Z B Z B Z B Z Z B Z Z Z B Z Z B Z B Z Z B Z Z B Z B Z B Z Z Z B Z B Z B Z B Z Z B Z Z Z B Z Z B Z B Z Z B Z Z B Z B Z B Z Z Z B Z B B Z B Z Z B Z B B Z B Z Z B Z B Z B Z B Z Z B Z Z Z B Z Z B Z B B Z Z Z Z B Z B Z B Z B Z B Z B B Z B Z Z B Z B B Z B Z B Z B Z Z Z B Z B Z B B Z Z B Z B Z B Z Z Z B Z B Z B B Z Z B Z Z Z B Z Z B Z Z B Z B Z B Z B Z Z B Z B Z B Z Z Z Z B Z B Z B Z ",
"3 8 8 3 3 8 8 3 8 8 3 8 8 3 8 8 8 3 8 8 8 8 3 8 3 8 8 3 3 8 8 3 3 8 8 3 8 3 8 8 8 8 3 8 8 8 3 8 8 3 8 8 8 8 3 8 3 8 8 3 3 8 8 3 3 8 3 8 8 3 8 8 8 8 3 8 8 8 3 8 8 3 8 8 8 8 3 8 3 8 8 3 3 8 8 3 3 8 3 8 8 3 8 8 8 8 3 8 8 8 3 8 8 3 8 8 8 8 3 8 3 8 8 3 3 8 8 3 3 8 8 3 8 8 8 3 3 8 8 3 8 8 8 3 3 8 8 3 8 3 8 8 8 8 3 8 8 8 3 8 8 3 8 8 8 8 3 8 3 8 8 3 8 3 8 8 3 8 8 3 8 8 8 3 3 8 8 3 8 8 8 3 8 8 3 8 8 8 3 8 8 3 8 8 3 8 8 3 8 8 3 8 8 8 3 8 8 3 8 8 3 8 8 3 8 8 3 8 8 3 8 3 8 3 8 3 8 8 3 8 3 8 8 3 3 8 8 3 8 8 3 8 8 3 8 8 ",
"K K K K K K K K K K K K K K K K K K K K K K K K K K K K K K K K K K K K K K K K K K K K K K K K K K K K K K K K K K K K K K K K P K K K K K K K K K K K K K K K K K K K K K K K K K K K K K K K P K K K K K K K K K K K K K K K K K K K K K K K K K K K K K K K K K K K K K K K K K K K K K K K K K K K K K K K K K K K K K K K K K K K K K K K K K K K K K K K K K K K K K K K K K K K K K K K K K K K K K K K K K K K K K K K K K K K K K K K K K K K K K K K K K K K K K K K K K K K K K K K K K K K K K K K K K K K K K K K ",
"_ ( _ _ ( _ ( ( ( _ ( ( ( ( ( _ ( ( ( ( ( _ ( ( _ ( _ _ ( _ ( _ _ ( _ _ ( ( ( ( ( _ ( ( _ ( _ ( ( ( ( ( ( _ ( ( _ ( _ _ ( _ ( _ ( ( _ _ ( ( ( ( ( _ ( ( _ ( _ ( ( ( ( ( ( _ ( ( _ ( _ _ ( _ ( _ ( ( _ _ ( ( ( ( ( _ ( ( _ ( _ ( ( ( ( ( ( _ ( ( _ ( _ _ ( _ ( _ _ ( ( ( ( ( _ ( _ ( ( ( ( ( _ ( _ ( _ _ ( ( ( ( ( _ ( ( _ ( _ ( ( ( ( ( ( _ ( ( _ ( _ _ ( ( _ ( _ ( ( ( ( ( _ ( _ ( ( ( ( ( _ ( ( _ ( ( _ ( _ ( ( ( _ ( _ _ ( ( ( _ ( ( _ ( _ ( ( ( _ ( _ _ ( _ ( ( _ ( _ _ ( ( _ ( _ ( ( ( _ ( _ ( _ _ ( _ ( ( ( _ ( ( ( ( ( _ ",
"2 2 2 2 2 2 2 2 2 2 2 2 2 2 2 2 2 2 2 2 2 2 2 2 2 2 2 2 2 2 2 2 2 2 2 2 2 2 2 2 2 2 2 2 2 2 2 2 2 2 2 2 2 2 2 2 2 2 2 2 2 2 2 2 2 2 2 2 2 2 2 2 2 2 2 2 2 2 2 2 2 2 2 2 2 2 2 2 2 2 2 2 2 2 2 2 2 2 2 2 2 2 2 2 2 2 2 2 2 2 2 2 2 2 2 2 2 2 2 2 2 2 2 2 2 2 2 2 2 2 2 2 2 2 2 2 2 2 2 2 2 2 2 2 2 2 2 2 2 2 2 2 2 2 2 2 2 2 2 2 2 2 2 2 2 2 2 2 2 2 2 2 2 2 2 2 2 2 2 2 2 2 2 2 2 2 2 2 2 2 2 2 2 2 2 2 2 2 2 2 2 2 2 2 2 2 2 2 2 2 2 2 2 2 2 2 2 2 2 2 2 2 2 2 2 2 2 2 2 2 2 2 2 2 2 2 2 2 2 2 2 2 2 2 2 2 2 2 2 2 2 2 2 2 2 2 ",
"K K K K P K P K K K P K P K K P K P K P K K K K K K P K P K K P K K K K P K P K K K P K P K K P K P K P K K K K K K P K P K K P K K K P K K K K K K P K P K K P K P K P K K K K K K P K P K K P K K K P K K K K K K P K P K K P K P K P K K K K K K P K P K K P P K P K K K K K P K P K P K P K K K K K K P K K K K K P K K K K K K K K K K K P K K K K K P K K P K P K K K K K P K P K P K P K K K K K K P K K K K K P K K K K K K K K K K K P K K K K K P K K P K P K K K K K P K P K P K P K K K K K K P K K K K K P K K K K ",
"G G G G G G G K G G G G G K G G G G G G K G G K G G G G G K G G G G G G G G G K G G G G G K G G G G G G K G G K G G G G G K G G G G G G K G G K G G G G G K G G G G G G K G G K G G G G G K G G G G G G K G G K G G G G G K G G G G G G K G G K G G G G G K G G G G G G G G K G G G G G G G G G G G G K G G K G G K G G K G G K G K K G G K G G K G G K G G K G G G G G G G K G G G G G G G G G G G G G G G K G G K G G K G G K G K K G G K G G K G G K G G K G G G G G G G K G G G G G G G G G G G G K G G K G G K G G K G G K ",
"l l l j l l j l l l l l j l l j l l l j l l j l l l l l j l l j l l l j l l j l l l l l j l l j l l l j l l j l l l l l j l l j l l l j l l j l l l l l j l l j l l l j l l j l l l l l j l l j l l l j l l j l l l l l j l l j l l l j l l j l l l l l j l l j l l j l l l j l l l j l l l j l l l j l l l l l j l l j l l j l l l l l j l l j l l j l l l l l l l j l l l j l l l j l l l j l l l l l l l l l j l l j l l j l l l l l j l l j l l j l l l l l l l j l l l j l l l j l l l j l l l j l l l l l j l l j l l j l ",
"j s j j j j s j j s j j j s j j j s j j j j s j j s j j j s j j j s j j j j s j j s j j j s j j j s j j j j s j j s j j j s j j j s j j j j s j j s j j j s j j j s j j j j s j j s j j j s j j j s j j j j s j j s j j j s j j j s j j j j s j j s j j j s j j s j j j s j j j s j j j s j j j j j s j j s j j j s j j j j s j s j j s j s j j j j s j j s j j s j j j s j j j s j j j s j j j j j s j j s j j j s j j j j s j s j j s j s j j j j s j j s j j s j j j s j j j s j j j s j j j j j s j j s j j j s j j j j s j ",
"P W P W P W P W W P W P W P W P P W P W P W P W W P W P W P W P P W P W P W P W W P W P W P W P P W P W P W P W W P W P W P W P P W P W P W P W W P W P W P W P P W P W P W P W W P W P W P W P P W P W P W P W W P W P W P W P P W P W P W P W W P W P W P W P W P W P P W W P W P W P W P W P P W W P W W W P P W P W P W P W P W P W P W P W P W W P W W W P W P W P P W W P W P W P W P W P P W W P W W W P P W P W P W P W P W P W P W P W P W W P W W W P W P W P P W W P W P W P W P W P P W W P W W W P P W P W P W P W ",
"~ ~ ~ ~ ~ ~ ~ ~ ~ ~ ~ ~ ~ ~ ~ ~ ~ ~ ~ ~ ~ ~ ~ ~ ~ ~ ~ ~ ~ ~ ~ ~ ~ ~ ~ ~ ~ ~ ~ ~ ~ ~ ~ ~ ~ ~ ~ ~ ~ ~ ~ ~ ~ ~ ~ ~ ~ ~ ~ ~ ~ ~ ~ ~ ~ ~ ~ ~ ~ ~ ~ ~ ~ ~ ~ ~ ~ ~ ~ ~ ~ ~ ~ ~ ~ ~ ~ ~ ~ ~ ~ ~ ~ ~ ~ ~ ~ ~ ~ ~ ~ ~ ~ ~ ~ ~ ~ ~ ~ ~ ~ ~ ~ ~ ~ ~ ~ ~ ~ ~ ~ ~ ~ ~ ~ ~ ~ ~ ~ ~ ~ ~ ~ ~ W ~ ~ ~ ~ ~ ~ ~ ~ W ~ ~ ~ ~ ~ W ~ ~ ~ ~ ~ ~ ~ ~ ~ ~ ~ ~ ~ ~ ~ ~ ~ ~ ~ ~ ~ ~ ~ W ~ ~ ~ ~ ~ ~ ~ ~ W ~ ~ ~ ~ ~ ~ ~ ~ W ~ ~ ~ ~ ~ W ~ ~ ~ ~ ~ ~ ~ ~ ~ ~ ~ ~ ~ ~ ~ ~ ~ ~ ~ ~ ~ ~ ~ W ~ ~ ~ ~ ~ ~ ~ ~ W ~ ~ ~ ~ ~ ~ ~ ~ W ~ ~ ~ ~ ~ W ~ ~ ~ ~ ~ ~ ~ ~ ~ ~ ",
"v v v v v v v v v v B v v v v B v v v v v v v v v v B v v v v B v v v v v v v v v v B v v v v B v v v v v v v v v v B v v v v B v v v v v v v v v v B v v v v B v v v v v v v v v v B v v v v B v B v v B v v v v v B v v v v B v v v v v v v v v v B v v v v B v v v v v B v v v v v v v v v v v v B v v v B v v v v v v v v v v B v v v v v v v v B v v v B v v v v v v B v v v v v v v v v v v v B v v v B v v v v v v v v v v B v v v v v v v v B v v v B v v v v v v B v v v v v v v v v v v v B v v v B v v v v v v v v v ",
"B B B B B B v B B v B v B B v B B B B B B B v B B v B v B B v B B B B B B B v B B v B v B B v B B B B B B B v B B v B v B B v B B B B B B B v B B v B v B B v B B B B B B B v B B v B v B B v B B v B B v B v B B v B v B B v B B B B B B B v B B v B v B B v B B B B B v B B B B B B B B B B B B v B v B v B v B B B B B B v B v B B B B B B B B v B v B v B v B B B B v B B B B B B B B B B B B v B v B v B v B B B B B B v B v B B B B B B B B v B v B v B v B B B B v B B B B B B B B B B B B v B v B v B v B B B B B B v B ",
"( ( ( ( ( ( ( ( ( ( ( ( ( ( ( ( ( ( ( ( ( ( ( ( ( ( ( ( ( ( ( ( ( ( ( ( ( ( ( ( ( ( ( ( ( ( ( ( ( ( ( ( ( ( ( ( ( ( ( ( ( ( ( ( ( ( ( ( ( ( ( ( ( ( ( ( ( ( ( ( ( ( ( ( ( ( ( ( ( ( ( ( ( ( ( ( ( ( ( ( ( ( ( ( ( ( ( ( ( ( ( ( ( ( ( ( ( ( ( ( ( ( ( ( ( ( ( ( ( ( ( ( ( ( ( ( ( ( ( ( ( ( ( ( ( ( ( ( ( ( ( ( ( ( ( ( ( ( ( ( ( ( ( ( ( ( ( ( ( ( ( ( ( ( ( ( ( ( ( ( ( ( ( ( ( ( ( ( ( ( ( ( ( ( ( ( ( ( ( ( ( ( ( ( ( ( ( ( ( ( ( ( ( ( ( ( ( ( ( ( ( ( ( ( ( ( ( ( ( ( ( ( ( ( ( ( ( ( ( ( ( ( ( ( ( ( ( ( ( ( ( ( ( ( ( ( ",
"= = = = = & = = = = = = = & = = = = = = = & = = = = = = = & = = = = = = = & = = = = = = = & = = = = = = = & = = = = = = = & = = = = = = = & = = = = = = = & = = = = = = = & = = = = = = = & = = = = = = = = = = = = = = = & = = = = = = = & = = = = = = = & = = = = = = = = = = = & = = = = = = = = = & = = = = = = = = = = = = = & = = = = = = = = = & = = = = = = = = = = = = = & = = = = = = = = = & = = = = = = = = = = = = = & = = = = = = = = = & = = = = = = = = = = = = = & = = = = = = = = = & = = = = = = = = = = = = ",
"K K K K K K K K K K K K K K K K K K K K K K K K K K K K K K K K K K K K K K K K K K K K K K K K K K K K K K K K K K K K K K K K K K K K K K K K K K K K K K K K K K K K K K K K K K K K K K K K K K K K K K K K K K K K K K K K K K K K K K K K K K K K K K K K K K K K K K K K K K K K K K K K K K K K K K K K K K K K K K K K K K K K K K K K K K K K K K K K K K K K K K K K K K K K K K K K K K K K K K K K K K K K K K K K K K K K K K K K K K K K K K K K K K K K K K K K K K K K K K K K K K K K K K K K K K K K K K K K ",
"P W P W W W P W P W P W W W P W P W P W W W P W P W P W W W P W P W P W W W P W P W P W W W P W P W P W W W P W P W P W W W P W P W P W W W P W P W P W W W P W P W P W W W P W P W P W W W P W P W P W P W P W W P W W W W P W P W P W W W P W P W P W W W P W W P W P W P W W W W P W W P W P P W W P W W P W W P W P W P W W W W P W W P W P P W W P W W P W W P W P W P W W W W P W W P W P P W W P W W P W W P W P W P W W W W P W W P W P P W W P W W P W W P W P W P W W W W P W W P W P P W W P W W P W W P W P W P W W ",
"e e e q e q e q e q e q e q e q e e e q e q e q e q e q e q e q e e e q e q e q e q e q e q e q e e e q e q e q e q e q e q e q e e e q e q e q e q e q e q e q e e e q e q e q e q e q e q e q e e q e q e q e q q q e q e e q e e e q e q e q e q e q e q e q q e q q q q q e q q e q q e q q e q e q q q e q q e q q q q q e q q e q q e q q e q e q q q e q q e q q q q q e q q e q q e q q e q e q q q e q q e q q q q q e q q e q q e q q e q e q q q e q q e q q q q q e q q e q q e q q e q e q q q e q q e q q q q q e ",
"s s s s s s s s s s s s s s s s s s s s s s s s s s s s s s s s s s s s s s s s s s s s s s s s s s s s s s s s s s s s s s s s s s s s s s s s s s s s s s s s s s s s s s s s s s s s s s s s s s s s s s s s s s s s s s s s s s s s s s s s s s s s s s s s s s s a a s s s s s s s s s s s s s s s s s s s s s s a a s s s s s s s s s s s s s s s s s s s s s s a a s s s s s s s s s s s s s s s s s s s s s s a a s s s s s s s s s s s s s s s s s s s s s s a a s s s s s s s s s s s s s s s s s s s s s s a a s s s ",
"a a a a a a a s a a a s a a a s a a a a a a a s a a a s a a a s a a a a a a a s a a a s a a a s a a a a a a a s a a a s a a a s a a a a a a a s a a a s a a a s a a a a a a a s a a a s a a a s a a a s a a a s a a a a a a a a a a a a a a a s a a a s a a a s a a a a a a a a a a a a a a a a a a a a a a a a a a a a a a a a a a a a a a a a a a a a a a a a a a a a a a a a a a a a a a a a a a a a a a a a a a a a a a a a a a a a a a a a a a a a a a a a a a a a a a a a a a a a a a a a a a a a a a a a a a a a a a a a ",
"e a e e e a e e e a e e e a e e e a e e e a e e e a e e e a e e e a e e e a e e e a e e e a e e e a e e e a e e e a e e e a e e e a e e e a e e e a e e e a e e e a e e e a e e e a e e e a e e e a e e e a e e e a e e e a e e e a e e e a e e e a e e e a e e a e e a e e a e e a e e a e e a e e a e e a e e a e e a e e a e e a e e a e e a e e a e e a e e a e e a e e a e e a e e a e e a e e a e e a e e a e e a e e a e e a e e a e e a e e a e e a e e a e e a e e a e e a e e a e e a e e a e e a e e a e e a e e a e ",
"e a e e e a e e e a e e e a e e e a e e e a e e e a e e e a e e e a e e e a e e e a e e e a e e e a e e e a e e e a e e e a e e e a e e e a e e e a e e e a e e e a e e e a e e e a e e e a e e e a e e e a e e e a e e e a e e e a e e e a e e e a e e e a e e e e e a e a e e e e a a e e e a e a e e e e a a e e e a e a e e e e a a e e e a e a e e e e a a e e e a e a e e e e a a e e e a e a e e e e a a e e e a e a e e e e a a e e e a e a e e e e a a e e e a e a e e e e a a e e e a e a e e e e a a e e e a e a e e ",
"l l v l l l v l l l v l l l v l l l v l l l v l l l v l l l v l l l v l l l v l l l v l l l v l l l v l l l v l l l v l l l v l l l v l l l v l l l v l l l v l l l v l l l v l l l v l l l v l l l v l l l v l l l v l l l v l l l v l l l v l l l v l l l v l v l l l l l l v l l l l v l l l l l l v l l l l v l l l l l l v l l l l v l l l l l l v l l l l v l l l l l l v l l l l v l l l l l l v l l l l v l l l l l l v l l l l v l l l l l l v l l l l v l l l l l l v l l l l v l l l l l l v l l l l v l l l l l l v ",
"K K K G K K K K K K K G K K K K K K G K K K K K K K G K K K K K K K K G K K K K K K K G K K K K K K G K K K K K K K G K K K K K K K K G K K K K K K K G K K K K K K G K K K K K K K G K K K K K K K K G K K K K K K K G K K K K K K G K K K K K K K G K K K K K K K K G K K K K G K K K K K K G K K K K G K K K K K K G K K K K G K K K K K K G K K K K G K K K K K K G K K K K G K K K K K K G K K K K G K K K K K K G K K K K G K K K K K K G K K K K G K K K K K K G K K K K G K K K K K K G K K K K G K K K K K K G K K K K ",
"%.%.%.%.%.%.%.%.%.%.%.%.%.%.%.%.%.%.%.%.%.%.%.%.%.%.%.%.%.%.%.%.%.%.%.%.%.%.%.%.%.%.%.%.%.%.%.%.%.%.%.%.%.%.%.%.%.%.%.%.%.%.%.%.%.%.%.%.%.%.%.%.%.%.%.%.%.%.%.%.%.%.%.%.%.%.%.%.%.%.%.%.%.%.%.%.%.%.%.%.%.%.%.%.%.%.%.%.%.%.%.%.%.%.%.%.%.%.%.%.%.%.%.%.%.%.%.%.%.%.%.%.%.%.%.%.%.%.%.%.%.%.%.%.%.%.%.%.%.%.%.%.%.%.%.%.%.%.%.%.%.%.%.%.%.%.%.%.%.%.%.%.%.%.%.%.%.%.%.%.%.%.%.%.%.%.%.%.%.%.%.%.%.%.%.%.%.%.%.%.%.%.%.%.%.%.%.%.%.%.%.%.%.%.%.%.%.%.%.%.%.%.%.%.%.%.%.%.%.%.%.%.%.%.%.%.%.%.%.%.%.%.%.%.%.%.%.%.%.%.%.%.%.%.%.%.",
"j j j j l j j l j j j j l j j l j j j j l j j l j j j j l l j l j j j j l j j l j j j j l j j l j j j j l j j l j j j j l l j l j j j j l j j l j j j j l j j l j j j j l j j l j j j j l l j l j j j j l j j l j j j j l j j l j j j j l j j l j j j j l l j l j l j j j j j j l j j l j j j j j j l j j j l j j l j j j j j j l j j l j l j j j j l j j j l j j l j j j j j j l j j l j j j j j j l j j j l j j l j j j j j j l j j l j l j j j j l j j j l j j l j j j j j j l j j l j j j j j j l j j j l j j l j j j j j j ",
"= = = = = = = = = = = = = = = = = = = = = = = = = = = = = = = = = = = = = = = = = = = = = = = = = = = = = = = = = = = = = = = = = = = = = = = = = = = = = = = = = = = = = = = = = = = = = = = = = = = = = = = = = = = = = = = = = = = = = = = = = = = = = = = = = = = = & = = = = = = = = = = = = & = = = = = = = = = = & = = = = = = = = = = = = & = = = = = = = = = = & = = = = = = = = = = = = & = = = = = = = = = = & = = = = = = = = = = = = & = = = = = = = = = = & = = = = = = = = = = = = & = = = = = = = = = = & = = = ",
"..} ......} ..} ..} ......} ..} ......} } ....} ......} ..} } ....} ......} ..} ..} ......} ..} ......} } ....} ......} ..} } ....} ......} ..} ..} ......} ..} ......} } ....} ......} ..} } ....} ......} ..} ..} ......} ..} ......} } ....} ......} ..} } ....} } ........} } ....} ........} ....} ....} ....} } ........} } ....} ....} ..} ....} ....} ....} } ........} } ....} ........} ....} ....} ....} } ........} } ....} ....} ..} ....} ....} ....} } ........} } ....} ........} ....} ....} ....} } ........} ",
"e e e e e e e e e e e e e e e e e e e e e e e e e e e e e e e e e e e e e e e e e e e e e e e e e e e e e e e e e e e e e e e e e e e e e e e e e e e e e e e e e e e e e e e e e e e e e e e e e e e e e e e e e e e e e e e e e e e e e e e e e e e e e e e e e e e e e e e e e e e e e e e e e e e e e e e e e e e e e e e e e e e e e e e e e e e e e e e e e e e e e e e e e e e e e e e e e e e e e e e e e e e e e e e e e e e e e e e e e e e e e e e e e e e e e e e e e e e e e e e e e e e e e e e e e e e e e e e e ",
"_ _ _ _ _ _ _ _ _ _ _ _ _ _ { _ _ _ _ _ _ _ _ _ _ _ _ _ _ _ _ _ _ _ _ _ _ _ _ _ _ _ _ _ _ _ { _ _ _ _ _ _ _ _ _ _ _ _ _ _ _ _ _ _ _ _ _ _ _ _ _ _ _ _ _ _ _ { _ _ _ _ _ _ _ _ _ _ _ _ _ _ _ _ _ _ _ _ _ _ _ _ _ _ _ _ _ _ _ { _ _ _ _ _ _ _ _ _ _ _ _ _ _ _ _ _ _ _ _ _ _ _ _ _ _ _ _ _ _ _ _ _ _ _ _ { _ _ _ _ _ _ { _ _ _ _ _ _ _ _ _ _ _ { _ _ _ _ { _ _ _ _ _ _ _ _ _ _ _ _ _ _ _ _ _ _ _ _ _ _ _ { _ _ _ _ _ _ { _ _ _ _ _ _ _ _ _ _ _ { _ _ _ _ { _ _ _ _ _ _ _ _ _ _ _ _ _ _ _ _ _ _ _ _ _ _ _ { _ _ _ _ _ _ { _ _ _ _ _ ",
"$ $ $ $ $ $ $ $ $ $ $ $ $ $ $ $ $ $ $ $ $ $ $ $ $ $ $ $ $ $ $ $ $ $ $ $ $ $ $ $ $ $ $ $ $ $ $ $ $ $ $ $ $ $ $ $ $ $ $ $ $ $ $ $ $ $ $ $ $ $ $ $ $ $ $ $ $ $ $ $ $ $ $ $ $ $ $ $ $ $ $ $ $ $ $ $ $ $ $ $ $ $ $ $ $ $ $ $ $ $ $ $ $ $ $ $ $ $ $ $ $ $ $ $ $ $ $ $ $ $ $ $ $ $ $ $ $ $ $ $ $ $ $ $ $ $ $ $ $ $ $ $ $ $ $ $ $ $ $ $ $ $ $ $ $ $ $ $ $ $ $ $ $ $ $ $ $ $ $ $ $ $ $ $ $ $ $ $ $ $ $ $ $ $ $ $ $ $ $ $ $ $ $ $ $ $ $ $ $ $ $ $ $ $ $ $ $ $ $ $ $ $ $ $ $ $ $ $ $ $ $ $ $ $ $ $ $ $ $ $ $ $ $ $ $ $ $ $ $ $ $ $ $ $ $ $ ",
"o + o + o + o + o + + o + o + o o o + + + o o + + o + o + o + + o + o + o + o + o + + o + o + o o o + + + o o + + o + o + o + + o + o + o + o + o + + o + o + o o o + + + o o + + o + o + o + + o + o + o + o + o + + o + o + o o o + + + o o + + o + o + o + + o + + o + o + o + + + o o + + o o + + o + o o + + o + o + o o + o + + o + o + o o + + o + o o + o + + o + o + o + + + o o + + o o + + o + o o + + o + o + o o + o + + o + o + o o + + o + o o + o + + o + o + o + + + o o + + o o + + o + o o + + o + o + o o + ",
"v v v v v v v v v v v v v v v v v v v v v v v v v v v v v v v v v v v v v v v v v v v v v v v v v v v v v v v v v v v v v v v v v v v v v v v v v v v v v v v v v v v v v v v v v v v v v v v v v v v v v v v v v v v v v v v v v v v v v v v v v v v v v v v v v v v v v v v v v v v v v v v v v v v v v v v v v v v v v v v v v v v v v v v v v v v v v v v v v v v v v v v v v v v v v v v v v v v v v v v v v v v v v v v v v v v v v v v v v v v v v v v v v v v v v v v v v v v v v v v v v v v v v v v v v v v v v v v v ",
"P P P P P P P P P P P P P P P P P P P P P P P P P P P P P P P P P P P P P P P P P P P P P P P P P P P P P P P P P P P P P P P P P P P P P P P P P P P P P P P P P P P P P P P P P P P P P P P P P P P P P P P P P P P P P P P P P P P P P P P P P P P P P P P P W P P P P P P P P P P P P P P P P P P P P P P P P P P P P P P P P P P P P P P P P P P P P P P P W P P P P P P P P P P P P P P P P P P P P P P P P P P P P P P P P P P P P P P P P P P P P P P P W P P P P P P P P P P P P P P P P P P P P P P P P P P P P P P P ",
"j s j j j j j j s j j j j s j j j s j j j j j j s j j j j s j j j s j j j j j j s j j j j s j j j s j j j j j j s j j j j s j j j s j j j j j j s j j j j s j j j s j j j j j j s j j j j s j j j s j j j j j j s j j j j s j j j s j j j j j j s j j j j s j j s j j s j j j s j j j s j j j s j j j j s j j j j s j j j j j j s j j j j s j j j j j j s j j j s j j s j j j s j j j s j j j s j j j j s j j j j s j j j j j j s j j j j s j j j j j j s j j j s j j s j j j s j j j s j j j s j j j j s j j j j s j j j j j j ",
"( ( ( ~ ~ ( ( ~ ( ~ ~ ( ( ( ( ~ ( ( ( ~ ~ ( ( ~ ( ~ ~ ( ( ( ( ~ ( ( ( ~ ~ ( ( ~ ( ~ ~ ( ( ( ( ~ ( ( ( ~ ~ ( ( ~ ( ~ ~ ( ( ( ( ~ ( ( ( ~ ~ ( ( ~ ( ~ ~ ( ( ( ( ~ ( ( ( ~ ~ ( ( ~ ( ~ ~ ( ( ( ( ~ ( ( ( ~ ~ ( ( ~ ( ~ ~ ( ( ( ( ~ ( ( ( ~ ~ ( ( ~ ( ~ ~ ( ( ( ( ~ ( ( ~ ( ( ( ~ ( ( ( ~ ( ( ( ~ ( ~ ( ~ ( ( ~ ~ ( ( ( ( ~ ~ ( ~ ( ( ~ ~ ( ( ( ( ~ ~ ( ~ ( ( ~ ~ ( ( ( ~ ( ( ( ~ ( ( ( ~ ( ( ( ~ ( ~ ( ~ ( ( ~ ~ ( ( ( ( ~ ~ ( ~ ( ( ~ ~ ( ( ( ( ~ ~ ( ~ ( ( ~ ( ( ( ( ~ ( ( ( ~ ( ( ( ~ ( ( ( ~ ( ~ ( ~ ( ( ~ ~ ( ( ( ( ~ ~ ( ~ ( ",
"P K P P P P P P P P P P P K P P P K P P P P P P P P P P P K P P P K P P P P P P P P P P P K P P P K P P P P P P P P P P P K P P P K P P P P P P P P P P P K P P P K P P P P P P P P P P P K P P P K P P P P P P P P P P P K P P P K P P P P P P P P P P P K P P P P P P K P P P K P P P K P P P P P P K P P P P P K P P P P P K P P P P P K P P P P P K P P P P P P P P K P P P K P P P K P P P P P P K P P P P P K P P P P P K P P P P P K P P P P P K P P P P P P P P K P P P K P P P K P P P P P P K P P P P P K P P P P P K ",
"P P P P P P W P P P P P P P P W P P P P P W P P W P P W P P W P P P P P P P W P P P P P P P P W P P P P P W P P W P P W P P W P P P P P P P W P P P P P P P P W P P P P P W P P W P P W P P W P P P P P P P W P P P P P P P P W P P P P P W P P W P P W P P W P P P P P P P P P P P P P P P P P P P P P P P P P P W P P P P P W P P P P P W P P W P P W P P W P P P P P P P P P P P P P P P P P P P P P P P P W P P W P P W P P W P P P P P P W P P W P P W P P P P P P P P P P P P P P P P P P P P P P P P P P P W P P P P P W ",
"( ( ( ( ~ ( ~ ( ( ( ( ~ ( ( ~ ( ( ~ ( ( ( ~ ~ ~ ( ~ ( ~ ~ ( ~ ( ( ( ( ( ~ ( ~ ( ( ( ( ~ ( ( ~ ( ( ~ ( ( ( ~ ~ ~ ( ~ ( ~ ~ ( ~ ( ( ( ( ( ~ ( ~ ( ( ( ( ~ ( ( ~ ( ( ~ ( ( ( ~ ~ ~ ( ~ ( ~ ~ ( ~ ( ( ( ( ( ~ ( ~ ( ( ( ( ~ ( ( ~ ( ( ~ ( ( ( ~ ~ ~ ( ~ ( ~ ~ ( ~ ( ( ( ( ~ ( ( ( ~ ( ( ( ~ ( ( ( ~ ( ( ( ( ( ~ ( ( ~ ( ( ~ ( ( ( ~ ( ~ ( ( ( ~ ~ ~ ( ~ ( ~ ~ ( ~ ( ( ( ( ~ ( ( ( ~ ( ( ( ~ ( ( ( ~ ( ( ( ~ ( ( ( ~ ~ ~ ( ~ ( ~ ~ ~ ( ( ( ( ( ( ~ ( ~ ~ ( ~ ( ~ ~ ~ ( ( ( ~ ( ( ( ~ ( ( ( ~ ( ( ( ~ ( ( ( ( ( ~ ( ( ~ ( ( ~ ( ( ( ~ ",
"W P W P P W P W W P W P W P W P P W W P P W P W W P P W P W P W W P W P P W P W W P W P W P W P P W W P P W P W W P P W P W P W W P W P P W P W W P W P W P W P P W W P P W P W W P P W P W P W W P W P P W P W W P W P W P W P P W W P P W P W W P P W P W P W W P P W W W P W W P P W W W P W W P W P P W P W W P P W W P P W P W W P P W P W W P P W P W P W W P P W W W P W W P P W W W P W W P P W W P P W P W W P P W P W P W P P W P W P P W W P P W P W W P P W W W P W W P P W W W P W W P W P P W P W W P P W W P P W ",
"2 2 2 2 2 2 2 2 2 2 2 2 2 2 2 2 2 2 2 2 2 2 2 2 2 2 2 2 2 2 2 2 2 2 2 2 2 2 2 2 2 2 2 2 2 2 2 2 2 2 2 2 2 2 2 2 2 2 2 2 2 2 2 2 2 2 2 2 2 2 2 2 2 2 2 2 2 2 2 2 2 2 2 2 2 2 2 2 2 2 2 2 2 2 2 2 2 2 2 2 2 2 2 2 2 2 2 2 2 2 2 2 2 2 2 2 2 2 2 2 2 2 2 2 2 2 2 2 2 2 2 > 2 2 2 2 2 2 2 > 2 2 2 2 2 2 2 2 2 2 2 2 2 2 2 2 2 2 2 2 2 2 2 2 2 2 2 2 2 2 2 2 2 2 2 2 2 2 2 > 2 2 2 2 2 2 2 > 2 2 2 2 2 2 2 2 2 2 2 2 2 2 2 2 2 2 2 2 2 2 2 2 2 2 2 2 2 2 2 2 2 2 2 2 2 2 2 > 2 2 2 2 2 2 2 > 2 2 2 2 2 2 2 2 2 2 2 2 2 2 2 2 2 2 2 2 ",
"P W W P W P W P P W P W P W P W W P P W P W P W P P W P W P W P P W W P W P W P P W P W P W P W W P P W P W P W P P W P W P W P P W W P W P W P P W P W P W P W W P P W P W P W P P W P W P W P P W W P W P W P P W P W P W P W W P P W P W P W P P W P W P W P P W P W W P P W P W P W W P P W P P W P P W W P P W P W P W P W W P P W P W P W P P W P W P W P P W P W W P P W P W P W W P P W P W P W P W P W W P W W P W P W P W P W P W P W W P W W P W P W P W P W W P P W P W P W W P P W P P W P P W W P P W P W P W P W ",
"l l v l l l v l v l l v l l l l v l v l l l v l v l l v v l v l l l v l l l v l v l l v l l l l v l v l l l v l v l l v v l v l l l v l l l v l v l l v l l l l v l v l l l v l v l l v v l v l l l v l l l v l v l l v l l l l v l v l l l v l v l l v v l v l v l l l v l v l v l l l v l v l l v v l l l v l l l v l l l l l v l v l l l v l v l l v v l v l v l l l v l v l v l l l v l v l l l v l l l l l l v l l l v l l v l l v l l l l l v l l l v l l v l l l v l v l v l l l v l v l l v v l l l v l l l v l l l l l ",
"....o...o...o...........o...o.....o...o.o...o.....o.........o.......o...o...o...........o...o.....o...o.o...o.....o.........o.......o...o...o...........o...o.....o...o.o...o.....o.........o.......o...o...o...........o...o.....o...o.o...o.....o.........o.........o...o...o.......o...o...o.o.....o.o.....o.o...o.........o...o...o.o...o.....o.........o.........o...o...o.......o...o...o.o...o.........o.....o...o.....o.........o...o.......o...o.....o.......o...o...o.......o...o...o.o.....o.o.....o.o...o.........o.",
"o o o o o o o o o o o o o o o o o o o o o o o o o o o o o o o o o o o o o o o o o o o o o o o o o o o o o o o o o o o o o o o o o o o o o o o o o o o o o o o o o o o o o o o o o o o o o o o o o o o o o o o o o o o o o o o o o o o o o o o o o o o o o o o o o o o o o o o o o o o o o o o o o o o o o o o o o o o o o o o o o o o o o o o o o o o o o o o o o o o o o o o o o o o o o o o o o o o o o o o o o o o o o o o o o o o o o o o o o o o o o o o o o o o o o o o o o o o o o o o o o o o o o o o o o o o o o o o o ",
"+ + + + + + + + + + o + + + + + + + + + + + + + + + + + + + + + + + + + + + + + + + o + + + + + + + + + + + + + + + + + + + + + + + + + + + + + + + o + + + + + + + + + + + + + + + + + + + + + + + + + + + + + + + o + + + + + + + + + + + + + + + + + + + + + + + o + + + + + + + + + + + + + + + + + + + + + + + o + + + + + + + + + + + + + + + + + + + + + + + o + + + + + + + + + + + + + + + + + + + + + + + + + + + + + + + + + + + + + + + + + + + + + + + o + + + + + + + + + + + + + + + + + + + + + + + o + + + + + ",
"s a s s a a a a s s a a s a a s a a a a a s a s s a s s a a a a s a s s a a a a s s a a s a a s a a a a a s a s a a a a a a a a s a s s a a a a s s a a s a a s a a a a a s a s s a s s a a a a s a s s a a a a s s a a s a a s a a a a a s a s a a a a a a a a s s a a s a a s a a a a a s a s s a s s a a a a s s a a s a a s a a a a a s a s s a s s a a a a s s a a s a a s a a a a a s a s s a a s a s s a s a a s a s s a s a a s a s s a s a a s a s s a s s a a s a a s a a a a a s a s s a s s a a a a s s a a s a a s ",
"e a e e e e e a e e a a e a e a a e e e e e a e e a e e e e e a e a e e e e e a e e a a e a e a a e e e e e a e e e e a e e a e e a e e e e e a e e a a e a e a a e e e e e a e e a e e e e e a e a e e e e e a e e a a e a e a a e e e e e a e e e e a e e a e e e a a e a e a a e e e e e a e e a e e e e e a e e a a e a e a a e e e e e a e e a e e e e e a e e a a e a e a a e e e e e a e e a e a e e e e e e e e e e e e e a e a e e e e e e e e e e e e e e a a e a e a a e e e e e a e e a e e e e e a e e a a e a e a ",
"$ $ & $ & $ $ $ & $ $ $ $ $ $ $ $ $ & $ $ & $ $ $ $ & $ & $ $ $ $ $ & $ & $ $ $ & $ $ $ $ $ $ $ $ $ & $ $ & $ $ $ & $ & $ & $ $ $ $ & $ & $ $ $ & $ $ $ $ $ $ $ $ $ & $ $ & $ $ $ $ & $ & $ $ $ $ $ & $ & $ $ $ & $ $ $ $ $ $ $ $ $ & $ $ & $ $ $ & $ & $ & $ $ & $ $ $ $ $ $ $ $ $ & $ $ & $ $ $ $ & $ & $ $ $ & $ $ $ $ $ $ $ $ $ & $ $ & $ $ $ $ & $ & $ $ $ & $ $ $ $ $ $ $ $ $ & $ $ & $ $ $ $ $ $ & $ & $ & & $ & & $ & $ $ $ $ $ & $ & $ & & $ & & $ & $ & $ $ $ $ $ $ $ $ $ & $ $ & $ $ $ $ & $ & $ $ $ & $ $ $ $ $ $ $ ",
". . . . . . . . . . . . . . . . . . . . . . . . . . . . . . . . . . . . . . . . . . . . . . . . . . . . . . . . . . . . . . . . . . . . . . . . . . . . . . . . . . . . . . . . . . . . . . . . . . . . . . . . . . . . . . . . . . . . . . . . . . . . . . . . . . . . . . . . . . . . . . . . . . . . . . . . . . . . . . . . . . . . . . . . . . . . . . . . . . . . . . . . . . . . . . . . . . . . . . . . . . . . . . . . . . . . . . . . . . . . . . . . . . . . . . . . . . . . . . . . . . . . . . . . . . . . . . . . ",
"q 8 8 8 8 8 8 8 8 8 8 8 q 8 8 8 8 8 8 8 8 8 8 8 q 8 8 8 8 8 8 8 q 8 8 8 8 8 8 8 8 8 8 8 q 8 8 8 8 8 8 8 8 8 8 8 q 8 8 8 8 8 8 8 q 8 8 8 8 8 8 8 8 8 8 8 q 8 8 8 8 8 8 8 8 8 8 8 q 8 8 8 8 8 8 8 q 8 8 8 8 8 8 8 8 8 8 8 q 8 8 8 8 8 8 8 8 8 8 8 q 8 8 8 8 8 8 8 8 8 8 8 q 8 8 8 8 8 8 8 8 8 8 8 q 8 8 8 8 8 8 8 8 8 8 8 q 8 8 8 8 8 8 8 8 8 8 8 q 8 8 8 8 8 8 8 8 8 8 8 q 8 8 8 8 8 8 8 8 8 8 8 8 q 8 8 8 8 8 8 8 8 8 8 8 8 8 8 8 q 8 8 8 8 8 8 8 8 8 8 8 8 8 8 8 8 8 8 q 8 8 8 8 8 8 8 8 8 8 8 q 8 8 8 8 8 8 8 8 8 8 8 q 8 8 8 ",
"2 2 2 3 2 2 2 2 2 2 2 2 2 2 3 3 2 2 2 2 2 2 2 2 2 2 2 3 2 2 2 2 2 2 2 3 2 2 2 2 2 2 2 2 2 2 3 3 2 2 2 2 2 2 2 2 2 2 2 3 2 2 3 3 2 2 2 3 2 2 2 2 2 2 2 2 2 2 3 3 2 2 2 2 2 2 2 2 2 2 2 3 2 2 2 2 2 2 2 3 2 2 2 2 2 2 2 2 2 2 3 3 2 2 2 2 2 2 2 2 2 2 2 3 2 2 3 3 2 2 2 2 2 2 3 3 2 2 2 2 2 2 2 2 2 2 2 3 2 2 2 2 2 2 2 2 2 2 3 3 2 2 2 2 2 2 2 2 2 2 2 3 2 2 2 2 2 2 2 2 2 2 3 3 2 2 2 2 2 3 2 2 3 2 2 2 2 2 2 2 3 3 3 2 2 2 2 2 3 2 2 2 2 2 2 2 3 3 3 2 2 2 2 2 2 2 2 2 2 2 3 3 2 2 2 2 2 2 2 2 2 2 2 3 2 2 2 2 2 2 2 2 2 2 3 3 ",
"G G G G G G G G G G G G G G G G G G G G G G G G G G G G G G G G G G G G G G G G G G G G G G G G G G G G G G G G G G G G G G G G G G G G G G G G G G G G G G G G G G G G G G G G G G G G G G G G G G G G G G G G G G G G G G G G G G G G G G G G G G G G G G G G G G G G G G G G G G G G G G G G G G G G G G G G G G G G G G G G G G G G G G G G G G G G G G G G G G G G G G G G G G G G G G G G G G G G G G G G G G G G G G G G G G G G G G G G G G G G G G G G G G G G G G G G G G G G G G G G G G G G G G G G G G G G G G G G ",
"e a e a a e e a a e a e a e a e a e a e e a a e e a a e a e a e e a a e e a a e a e a e e a a e e a a e a e a e a e a e a e a e e a e a a e e a a e a e a e a e a e a e e a a e e a a e a e a e e a a e e a a e a e a e e a a e e a a e a e a e a e a e a e a e e a e a e a a e e a a e a e a e e a a e e a a e a e a e e a a e e a e a e a a e e a a e a e a e e a a e e a a e a e a e e a a e a e e a a e e a a e e a a e e a a e e a a e e a a e e a a e e a e a e a a e e a a e a e a e a e a e a e e a a e e a a e a e a e ",
"> > > 2 > > > > > 2 > > > > > > > > > > > 2 > > > > > 2 > > > > > 2 > > > > > 2 > > > > > 2 > > > > > 2 > > > > > 2 > > > > > > > > > 2 > > > > > 2 > > > > > > > > > > > 2 > > > > > 2 > > > > > 2 > > > > > 2 > > > > > 2 > > > > > 2 > > > > > 2 > > > > > > > > > > > 2 > > > > > 2 > > > > > 2 > > > > > 2 > > > > > 2 > > > > > > > 2 > > > > > 2 > > > > > 2 > > > > > 2 > > > > > 2 > > > > > > > > > > > > > > > > > > > > > > > > > > > > > > > > > > > > > 2 > > > > > 2 > > > > > > > > > > > 2 > > > > > 2 > > > > ",
"l v v v v v v v v v v v v v v v v v v v v v v v v v v v v v v v v v v v v v v v v v v v v v v v v v v v v v v v v v v v v v v v l v v v v v v v v v v v v v v v v v v v v v v v v v v v v v v v v v v v v v v v v v v v v v v v v v v v v v v v v v v v v v v v v v l v v v v v v v v v v v v v v v v v v v v v v v v v v v v v B v l v v v v v v v v v v v v v v v v v v v v v v v v v v v v v v v v B v v v B v v v B v v v B v v v B v v v B v v v B v v v B l v v v v v v v v v v v v v v v v v v v v v v v v v v v v v v v ",
"o.@.@.o.@.@.o.o.o.@.o.o.o.o.@.@.@.o.@.o.@.o.@.o.o.o.@.o.@.@.o.o.@.o.@.o.o.o.@.o.@.@.o.o.@.o.@.o.o.o.@.o.@.@.o.o.o.@.o.o.o.o.@.@.o.@.@.o.@.@.o.o.o.@.o.o.o.o.@.@.@.o.@.o.@.o.@.o.o.o.@.o.@.@.o.o.@.o.@.o.o.o.@.o.@.@.o.o.@.o.@.o.o.o.@.o.@.@.o.o.o.@.o.o.o.o.@.@.@.o.@.o.@.o.@.o.o.o.@.o.@.@.o.o.@.o.@.o.o.o.@.o.@.@.o.o.@.o.@.o.o.o.@.o.@.o.@.o.o.o.@.o.@.@.o.o.@.o.@.o.o.o.@.o.@.@.o.o.@.o.@.o.o.o.o.@.o.o.o.o.o.o.o.@.o.o.o.o.o.o.o.@.o.o.o.o.o.o.o.@.o.o.o.o.o.@.@.o.@.@.o.o.o.@.o.o.o.o.@.@.@.o.@.o.@.o.@.o.o.o.@.o.@.@.o.o.",
"a a a a s a a a a a a a a a a a s s s a a a a a a a a a s s a a a a a a a a a a s s a a a a a a a a a a s s a a a a a a a a a a a a a a s a a a a a a a a a a a s s s a a a a a a a a a s s a a a a a a a a a a s s a a a a a a a a a a s s a a a a a a a a a a s s s a a a a a a a a a s s a a a a a a a a a a s s a a a a a a s s a a a a a a a a a a s s a a a a a a a a a a s s a a a a a a s s a a a a a a s s a a a a a a s s a a a a a a s s a a a a a a a a a a s a a a a a a a a a a a s s s a a a a a a a a a s s a a ",
"# # # # # # # # # # # # # # # # # # # # # # # # # # # # # # # # # # # # # # # # # # # # # # # # # # # # # # # # # # # # # # # # # # # # # # # # # # # # # # # # # # # # # # # # # # # # # # # # # # # # # # # # # # # # # # # # # # # # # # # # # # # # # # # # # # # # # # # # # # # # # # # # # # # # # # # # # # # # # # # # # # # # # # # # # # # # # # # # # # # # # # # # # # # # # # # # $ # # # # # # # $ # # # # # # # $ # # # # # # # $ # # # # # # # # # # # # # # # # # # # # # # # # # # # # # # # # # # # # # # # ",
"8 8 8 8 8 8 8 8 8 8 8 8 8 3 8 8 8 8 8 8 8 8 8 8 8 8 8 8 8 8 8 8 8 8 8 8 8 8 8 8 8 8 8 8 8 8 8 8 8 8 8 8 8 8 8 8 8 8 8 8 8 3 8 8 8 8 8 8 8 8 8 8 8 8 8 8 8 3 8 8 8 8 8 8 8 8 8 8 8 8 8 8 8 8 8 8 8 8 8 8 8 8 8 8 8 8 8 8 8 8 8 8 8 8 8 8 8 8 8 8 8 8 8 8 8 3 8 8 8 8 8 8 8 8 8 8 8 8 8 8 8 8 8 8 8 8 8 8 8 8 8 8 8 8 8 8 8 8 8 8 8 8 8 8 8 8 8 8 8 8 8 8 8 8 8 8 8 8 8 8 8 8 8 8 8 8 8 8 8 8 8 8 8 8 8 8 8 8 8 8 8 8 8 8 8 8 8 8 8 8 8 8 8 8 8 8 8 8 8 8 8 8 8 8 8 8 8 8 8 8 8 8 8 8 8 8 8 3 8 8 8 8 8 8 8 8 8 8 8 8 8 8 8 8 8 8 ",
"j s s j s j j s j s j s j j j s j s j s j s j s j s s j s j j s s j s j j s s j j s j s j s j s j s s j s j j s j s j s j j j s j s s j s j j s j s j s j j j s j s j s j s j s j s s j s j j s s j s j j s s j j s j s j s j s j s s j s j j s j s j s j j j s j s j s j s j s j s s j s j j s s j s j j s s j j s j s j s j s j s j s j s j s j s s j s j j s s j s j j s s j j s j s j s j s s j j s s j s j s j j s s j s j s j j s s j s j s j j s s j s j j s s j s j j s j s j s j j j s j s j s j s j s j s s j s j j s ",
"W W W P ~ W W W W W P W ~ W W W W W W W W W W W W W ~ W W W W P ~ W W W W P W W W W W W W W W W W W W P ~ W W W W W P W ~ W W W W W W P ~ W W W W W P W ~ W W W W W W W W W W W W W ~ W W W W P ~ W W W W P W W W W W W W W W W W W W P ~ W W W W W P W ~ W W W W W W W W W W W W W ~ W W W W P ~ W W W W P W W W W W W W W W W W W W W W W W W W W ~ W W W W P ~ W W W W P W W W W W W W W W W W W ~ W W W W P ~ W W W W P W W W W ~ W W W W P W W W W W P W W W W W P ~ W W W W W P W ~ W W W W W W W W W W W W W ~ W W W W P ",
"3 3 3 3 3 3 2 3 2 3 3 3 3 3 2 3 3 3 3 3 3 3 3 3 3 2 3 3 2 3 3 3 3 3 2 3 3 3 3 3 3 3 3 3 2 3 3 3 3 3 3 3 3 3 2 3 2 3 3 3 3 3 2 3 3 3 3 3 3 3 2 3 2 3 3 3 3 3 2 3 3 3 3 3 3 3 3 3 3 2 3 3 2 3 3 3 3 3 2 3 3 3 3 3 3 3 3 3 2 3 3 3 3 3 3 3 3 3 2 3 2 3 3 3 3 3 2 3 3 3 3 3 3 3 3 3 3 2 3 3 2 3 3 3 3 3 2 3 3 3 3 3 3 3 3 3 2 3 3 3 3 3 3 3 3 3 3 3 3 2 3 3 2 3 3 3 3 3 2 3 3 3 3 3 3 3 3 3 2 3 3 3 3 2 3 3 2 3 3 3 3 3 2 3 3 3 3 3 3 2 3 3 2 3 3 3 3 3 2 3 3 3 3 3 3 3 3 3 3 3 2 3 2 3 3 3 3 3 2 3 3 3 3 3 3 3 3 3 3 2 3 3 2 3 3 3 ",
"l v v v v l v l v l v l v l v l l v l v l v l v l v v l v l v v v l v l v v l l l v l v l v l v l v v v v l v l v l v l v l v l l v v v v l v l v l v l v l v l l v l v l v l v l v v l v l v v v l v l v v l l l v l v l v l v l v v v v l v l v l v l v l v l l v l v l v l v l v v l v l v v v l v l v v l l l v l v l v l v l v l v l v l v l v v l v l v v v l v l v v l l l v l v l v l v l v v l v l v v v l v l v v l l l v v l v l v v v v v l v v l l l v v v v l v l v l v l v l v l l v l v l v l v l v v l v l v v ",
"Z B B B B B B B B B B Z B B B B B B B B B B B B B B B B B B B B B B B B B B Z B B B B B B B B B Z B B B B B B B B B B Z B B B B Z B B B B B B B B B B Z B B B B B B B B B B B B B B B B B B B B B B B B B B Z B B B B B B B B B Z B B B B B B B B B B Z B B B B B B B B B B B B B B B B B B B B B B B B B B Z B B B B B B B B B B B B B B B B B B B B B B B B B B B B B B B Z B B B B B B B B B B B B B B B B B B B B B B B Z B B B B B B B B B B B B B B B Z B Z B B B B B B B B B B Z B B B B B B B B B B B B B B B B B B B B ",
"W W W W W W W W W W W W W W W W W W W W W W W W W ~ W W W W W W W W W W W W W W W W W W ~ W W ~ W W W W W W W W W W W W W W W W W W W W W W W W W W W W W W W W W W W W W W W W W ~ W W W W W W W W W W W W W W W W W W ~ W W ~ W W W W W W W W W W W W W W W W W W W W W W W W W ~ W W W W W W W W W W W W W W W W W W ~ W W ~ W W W W W W W W W ~ W W W W W W W W W W W W W W W W W W ~ W W ~ W ~ W W W W W W ~ W W ~ W W W W W ~ W W W W W W W W W W W ~ W W W W W W W W W W W W W W W W W W W W W W W W W W W ~ W W W W W W ",
"P P P P P P P P W P P P P P P P P W P P W P P P P P P P W P P P W P P P P W P P P W P P P P P P P P P P P P P P W P P P P P P P P P P P P P P P W P P P P P P P P W P P W P P P P P P P W P P P W P P P P W P P P W P P P P P P P P P P P P P P W P P P P P P P P W P P W P P P P P P P W P P P W P P P P W P P P W P P P P P P P W P P W P P P P P P P W P P P W P P P P W P P P W P P P P P P P P P P W P P P P P P P P W P P P P P P W P P P W P P P P P P P P P P P P P P P W P P P P P P P P W P P W P P P P P P P W P P P ",
"G G G G G G G G G Z G G G G G G Z G G G G Z Z G G G Z G G G G G G Z G Z G G G Z Z G G G Z G G G G G G G G G G G G Z G G G G G G G G G G G G G G G Z G G G G G G Z G G G G Z Z G G G Z G G G G G G Z G Z G G G Z Z G G G Z G G G G G G G G G G G G Z G G G G G G Z G G G G Z Z G G G Z G G G G G G Z G Z G G G Z Z G G G Z G G G Z G G G G Z Z G G G Z G G G G G G Z G Z G G G Z Z G G G Z G G G G G Z G G G G G Z G G Z G G G Z G G Z G G G G G G Z Z G G G G G G G G G G G G G G Z G G G G G G Z G G G G Z Z G G G Z G G G G G ",
". . . . . . . . . . . . . . . . . . . . . . . . . . . . . . . . . . . . . . . . . . . . . . . X . . . . . . . . . . . . . . . . . . . . . . . . . . . . . . . . . . . . . . . . . . . . . . . . . . . . . . . . . . . . . . . X . . . . . . . . . . . . . . . . . . . . . . . . . . . . . . . . . . . . . . . . . . . . . . . X . . . . . . . . . . . . . . . . . . . . . . . . . . . . . . . X . . . . . . . . . . . . . . . . . . . . . . . . . . . . . . . X . . . . . . . . . . . . . . . . . . . . . . . . . . . . . . . . ",
"@.o.o.o.o.o.o.o.o.o.o.o.o.o.o.o.o.o.o.@.o.@.o.o.o.o.o.o.o.o.o.@.o.o.o.o.o.@.o.o.o.o.o.@.o.@.o.o.@.o.o.o.o.o.o.o.o.o.o.o.o.o.o.o.@.o.o.o.o.o.o.o.o.o.o.o.o.o.o.o.o.o.o.@.o.@.o.o.o.o.o.o.o.o.o.@.o.o.o.o.o.@.o.o.o.o.o.@.o.@.o.o.@.o.o.o.o.o.o.o.o.o.o.o.o.o.o.o.o.o.o.o.o.o.o.@.o.o.o.o.o.@.o.o.o.o.o.o.o.o.o.@.o.o.o.o.o.@.o.o.o.o.o.o.o.o.o.@.o.o.o.o.o.@.o.o.o.o.o.o.o.o.o.@.o.o.o.o.o.@.o.o.o.o.o.o.o.@.o.o.o.o.o.o.o.o.o.@.o.o.o.o.o.@.o.o.o.o.o.@.o.@.o.o.@.o.o.o.o.o.o.o.o.o.o.o.o.o.o.o.o.o.o.@.o.@.o.o.o.o.o.o.o.o.o.@.",
"} } ..} ....} ....} ..} ..} ....} } ..} } } ..} } ....} ..} ..} ..} ..} ..} ..} ..} ..} } } ..} } } ..} ....} ....} ..} ..} ....} } ..} ....} ....} ..} ..} ....} } ..} } } ..} } ....} ..} ..} ..} ..} ..} ..} ..} ..} } } ..} } } ..} ....} ....} ..} ..} ....} } ..} ..} ..} ..} ..} ..} ..} } ....} ..} ..} ..} ..} ..} ..} } } ..} ..} ..} ..} ..} ..} ..} } ....} ..} ..} ..} ..} ..} ..} } } } ..} } ..} } ....} ..} ..} ..} ..} ..} ..} ..} ..} } } ..} } } ..} ....} ....} ..} ..} ....} } ..} } } ..} } ....} ..} ..} ",
"B v v v v v v v v B v v v B v v v v v B v v B v B v v v v v v B v v v v v v v v v v v B v v B v B v v v v v v v v B v v v B v v B v v v v v v v v B v v v B v v v v v B v v B v B v v v v v v B v v v v v v v v v v v B v v B v B v v v v v v v v B v v v B v v B v v v v v v B v v v v v v v v B v v v v v v B v v v v v v v v B v v v v v v B v v v v v v v v B v v v v v v B v v v v v v v v v v B v v v B v B v v v v v v B v v v v v v v v v v v B v v B v B v v v v v v v v B v v v B v v v v v B v v B v B v v v v v v B ",
"G G G G G K G G G G G G G G G G G G G G G G G G G G G G G G G G G G K G K G G G G G G G G G G G G G G G G K G G G G G G G G G G G G G G G K G G G G G G G G G G G G G G G G G G G G G G G G G G G G K G K G G G G G G G G G G G G G G G G K G G G G G G G G G G G G G G G G G G G G K G K G G G G G G G G G G G G G K G K G G G G G G G G G G G G G K G K G G G G G G G G G G G G G K G K G G G K G G G G G G G G G G G G G G G G G K G K G G G G G G G G G G G G G G G G K G G G G G G G G G G G G G G G G G G G G G G G G G G ",
"# $ # # $ # # # # # # # # # # # # # # # # # # # # # # $ # $ # # # # # # # # # # # # # # # # # # # $ # # $ # # # # # # # # # # # # $ # # $ # # # # # # # # # # # # # # # # # # # # # # $ # $ # # # # # # # # # # # # # # # # # # # $ # # $ # # # # # # # # # # # # # # $ # $ # # $ # # # # # # # # # # $ # $ # # $ # # # # # # # # # # $ # $ # # $ # # # # # # # # # # $ # $ # # $ # # # # # # # # # # # # # # # # # # $ # $ # # # # # # # # # # # # # # # # # # # $ # # $ # # # # # # # # # # # # # # # # # # # # # # $ # $ # # ",
"l l v l l v l v l l v l v l l v l l v l v l v l l v l l l l v l v l l v l v l l l l v l v l v l l l v l l v l v l l v l v l l v l l v l l v l v l l v l v l l v l l v l v l v l l v l l l l v l v l l v l v l l l l v l v l v l l l v l l v l v l l v l v l l v l v l l l l v l l v l v l v l l l v l l l l v l l v l v l v l l l v l l l l v l l v l v l v l l l v l l l l v l l v l v l v l l l l v l v l v l l v l l l l v l v l l v l v l l l l v l v l v l l l v l l v l v l l v l v l l v l l v l v l v l l v l l l l v l ",
"P P P P P P P P P P P P P P P P P P P P P P P P P P P P P P P P P P P P P P P P P P P P P P P P P P P P P P P P P P P P P P P P P P P P P P P P P P P P P P P P P P P P P P P P P P P P P P P P P P P P P P P P P P P P P P P P P P P P P P P P P P P P P P P P P P P P P P P P P P P P P P P P P P P P P P P P P P P P P P P P P P P P P P P P P P P P P P P P P P P P P P P P P P P P P P P P P P P P P P P P P P P P P P P P P P P P P P P P P P P P P P P P P P P P P P P P P P P P P P P P P P P P P P P P P P P P P P P P ",
"& & = & & & = & & = & & & & & & = & & = & & = & & = = & & = & & = & & = & = & & = & & = & & = & & & = & & & = & & = & & & & & & & & = & & & = & & = & & & & & & = & & = & & = & & = = & & = & & = & & = & = & & = & & = & & = & & & = & & & = & & = & & & & & & & = = & & = & & & & = & & = & & & = = & & = & & & & = & & = & & & = = & & = & & & & = & & = & & & = = & & = & & & & = & & = & & = & & = & & = & & = = & & = & & = & & = & = & & = & & = & & = & & & = & & & = & & = & & & & & & = & & = & & = & & = = & & = & & ",
"$ # # # # # # # # # # # # # # # # # # # # # # # # # # # # # # # # # # # # # # # # # # # # # # # $ # # # # # # # # # # # # # # # $ # # # # # # # # # # # # # # # # # # # # # # # # # # # # # # # # # # # # # # # # # # # # # # # $ # # # # # # # # # # # # # # # # # # # # # # # # # # # # # # # # # # # # # # # # # # # # # # # # # # # # # # # # # # # # # # # # # # # # # # # # # # # # # # # # # # # # # # # # # # # # # # # # # # # # # # # # # # # # # # # $ # # # # # # # # # # # # # # # # # # # # # # # # # # # # # # # ",
"K K K K G K G G G K G K G G G K K G K K K G K K K K G K G K G G G K G K G G G K K G K K K G K K K K K K G K G G K K G K G G G K K K K K G K G G G K G K G G G K K G K K K G K K K K G K G K G G G K G K G G G K K G K K K G K K K K K K G K G G G K G K G G G K K K K G G K K G G K G G G K G K K K K G G K K G G K G G G K G K K K K G G K K G G K G G G K G K K K K G G K K G G K G G G K G K K G K K K G K K K K G K G K G G G K G K G G G K K G K K K G K K K K K K G K G G G K G K G G G K K G K K K G K K K K G K G K G G ",
"o + + + + + + + + + + o + + + + o + + + o + o + o + + + + + + + + + + o + + + + o + + + o + o + o + + + + + + + + + + o + + + + o + + + + + + + + + + o + + + + o + + + o + o + o + + + + + + + + + + o + + + + o + + + o + o + o + + + + + + + + + + o + + + + + + o + + + + + + + + + + + + + + + o + + + + + + + + + + + + + + + o + + + + + + + + + + + + + + + o + + + + + + + + + + + + + o + + + o + o + o + + + + + + + + + + o + + + + o + + + o + o + o + + + + + + + + + + o + + + + o + + + o + o + o + + + + + + + ",
"B B B B B B B B B B Z B B B B B B B B B B B B B Z B B B B B B B B B Z B B B B B B B B B B B B B B B B B B B B B B B B B B B B B B B B B B B B B B B Z B B B B B B B B B B B B B Z B B B B B B B B B Z B B B B B B B B B B B B B B B B B B B B B B B Z B B B B B B B B B B B B B B B B B B B B B B B B B B B B B B B B B B B B B B B B B B B B B B B B B B B B B B B B B B B B B B B B B B B B B B B B B B B B B Z B B B B B B B B B Z B B B B B B B B B B B B B B B B B B B B B B B Z B B B B B B B B B B B B B Z B B B B B B B ",
"B Z B Z Z Z B Z Z B Z Z B Z B Z Z Z B Z Z B Z Z B Z B Z Z Z B Z Z B Z Z B Z B Z Z Z B Z Z B Z Z B Z B Z Z Z B Z Z B Z Z B Z B Z B Z B Z Z Z B Z Z B Z Z B Z B Z Z Z B Z Z B Z Z B Z B Z Z Z B Z Z B Z Z B Z B Z Z Z B Z Z B Z Z B Z B Z Z Z B Z Z B Z Z B Z Z Z Z Z Z B Z B Z B Z B Z B Z B Z B Z Z Z B Z B Z B Z B Z B Z B Z B Z Z Z B Z B Z B Z B Z B Z B Z B Z Z Z B Z B Z B Z B Z B Z B Z B Z Z B Z Z B Z Z B Z B Z Z Z B Z Z B Z Z B Z B Z Z Z B Z Z B Z Z B Z B Z Z Z B Z Z B Z Z B Z B Z Z Z B Z Z B Z Z B Z B Z Z Z B Z ",
"l l l j j l l j l j j l l l l j l l l j l j j l l l l j j l l j l j j l l l l j l l l j l j j l l l l j j l l j l j j l l l l j l l l j j l l j l j j l l l l j l l l j l j j l l l l j j l l j l j j l l l l j l l l j l j j l l l l j j l l j l j j l l l j l l j l j l l l j l l l l l l l l l j l j l l l j l l l l l l l l l j l j l l l j l l l l l l l l l j l j l l l j l l l l l l l l l l l j l j j l l l l j j l l j l j j l l l l j l l l j l j j l l l l j j l l j l j j l l l l j l l l j l j j l l l l j j l l j ",
"8 8 8 8 8 8 8 8 8 8 8 8 8 8 8 8 8 8 8 8 8 8 8 8 8 8 8 8 8 8 8 8 8 8 8 8 8 8 8 8 8 8 8 8 8 8 8 8 8 8 8 8 8 8 8 8 8 8 8 8 8 8 8 8 8 8 8 8 8 8 8 8 8 8 8 8 8 8 8 8 8 8 8 8 8 8 8 8 8 8 8 8 8 8 8 8 8 8 8 8 8 8 8 8 8 8 8 8 8 8 8 8 8 8 8 8 8 8 8 8 8 8 8 8 8 8 8 8 8 8 8 8 8 8 8 8 8 8 8 8 8 8 8 8 8 8 8 8 8 8 8 8 8 8 8 8 8 8 8 8 8 8 8 8 8 8 8 8 8 8 8 8 8 8 8 8 8 8 8 8 8 8 8 8 8 8 8 8 8 8 8 8 8 8 8 8 8 8 8 8 8 8 8 8 8 8 8 8 8 8 8 8 8 8 8 8 8 8 8 8 8 8 8 8 8 8 8 8 8 8 8 8 8 8 8 8 8 8 8 8 8 8 8 8 8 8 8 8 8 8 8 8 8 8 8 8 ",
"P K P P K P P K P P K P P K P P K P P K P P K P P K P P K P P K P P K P P K P P K P P K P P K P P K P P K P P K P P K P P K P P P K P P K P P K P P K P P K P P K P P K P P K P P K P P K P P K P P K P P K P P K P P K P P K P P K P P K P P K P P K P P K P P P P K P P P K P K P K P K P K P P P K P P P K P K P K P K P K P P P K P P P K P K P K P K P K P P P K P P P K P K P K P K P K P K P P K P P K P P K P P K P P K P P K P P K P P K P P K P P K P P K P P K P P K P P K P P K P P K P P K P P K P P K P P K P P K ",
"v v v B v v v v B v v v v v B v v v v v B v v v v v B v v v v v B v v v v v B v v v v v B v v v v v B v v v v v B v v v v v B v v v v v B v v v v v B v v v v v B v v v v v B v v v v v B v v v v v B v v v v v B v v v v v B v v v v v B v v v v v B v v v v v v v v v v v v v v v v v v v v v v v v v v v v v v v v v v v v v v v v v v v v v v v v v v v v v v v v v v v v v v v v v v v v v v v v B v v v v B v v v v v B v v v v v B v v v v v B v v v v v B v v v v v B v v v v v B v v v v v B v v v v v B v v v v v B v ",
"s a a a a a s s s s a a s s a s a a s s a s a a s s a s a a s s s s a a s s a s a a s s a s a a s s a s a a s s s s a a s s a s a a s s a s a a s s a s a a s s s s a a s s a s a a s s a s a a s s a s a a s s s s a a s s a s a a s s a s a a s s a s a a s s s a s a s s s a s a a a s a a a s a s a s s s a s a a a s a a a s a s a s s s a s a a a s a a a s a s a s s s a s a a a s a a a s s a a a a s s s s a a s s a s a a s s a s a a s s a s a a s s s s a a s s a s a a s s a s a a s s a s a a s s s s a a s s a s ",
"2 2 2 2 2 > 2 2 2 2 > 2 2 2 2 2 2 > > 2 2 2 > 2 2 2 2 2 2 > 2 2 2 2 > 2 2 2 2 2 2 > > 2 2 2 > 2 2 2 2 2 2 > 2 2 2 2 > 2 2 2 2 2 2 > > 2 2 2 > 2 2 2 2 2 2 > 2 2 2 2 > 2 2 2 2 2 2 > > 2 2 2 > 2 2 2 2 2 2 > 2 2 2 2 > 2 2 2 2 2 2 > > 2 2 2 > 2 2 2 2 2 2 > 2 2 2 2 2 > 2 2 2 > 2 2 2 2 2 2 2 2 2 2 2 > 2 2 2 > 2 2 2 2 2 2 2 2 2 2 2 > 2 2 2 > 2 2 2 2 2 2 2 2 2 2 2 > 2 2 2 > 2 2 2 2 2 2 2 2 2 2 2 2 2 > 2 2 2 2 > 2 2 2 2 2 2 > > 2 2 2 > 2 2 2 2 2 2 > 2 2 2 2 > 2 2 2 2 2 2 > > 2 2 2 > 2 2 2 2 2 2 > 2 2 2 2 > 2 2 2 2 2 ",
"G G G G G G G K G K G G G G G G K G G K G K G G G G G G G G G K G K G G G G G G K G G K G K G G G G G G G G G K G K G G G G G G K G G K G K G G G G G G G G G K G K G G G G G G K G G K G K G G G G G G G G G K G K G G G G G G K G G K G K G G G G G G G G G K G K K G G K G K K G G G K G G K G K K G G K G K K G G G K G G K G K K G G K G K K G G G K G G K G K K G G K G K K G G G K G G K G G G G G G G K G K G G G G G G K G G K G K G G G G G G G G G K G K G G G G G G K G G K G K G G G G G G G G G K G K G G G G G G ",
"~ ~ ~ ~ ~ ~ ~ ~ ~ ~ ~ ~ ~ ~ ~ ~ ( ~ ~ ( ~ ~ ~ ~ ~ ~ ~ ~ ~ ~ ~ ~ ~ ~ ~ ~ ~ ~ ~ ~ ( ~ ~ ( ~ ( ~ ~ ~ ~ ~ ~ ~ ~ ~ ~ ~ ~ ~ ~ ~ ~ ~ ~ ( ~ ~ ( ~ ~ ~ ~ ~ ~ ~ ~ ~ ~ ~ ~ ~ ~ ~ ~ ~ ~ ~ ~ ( ~ ~ ( ~ ( ~ ~ ~ ~ ~ ~ ~ ~ ~ ~ ~ ~ ~ ~ ~ ~ ~ ~ ( ~ ~ ( ~ ~ ~ ~ ~ ~ ~ ~ ~ ~ ~ ~ ~ ~ ~ ~ ( ~ ~ ( ~ ~ ~ ~ ( ~ ~ ( ~ ~ ~ ~ ( ~ ~ ( ~ ~ ~ ~ ( ~ ~ ( ~ ~ ~ ~ ( ~ ~ ( ~ ~ ~ ~ ( ~ ~ ( ~ ~ ~ ~ ( ~ ~ ( ~ ~ ~ ~ ( ~ ~ ( ~ ~ ~ ~ ~ ~ ~ ~ ~ ~ ~ ~ ~ ~ ~ ~ ( ~ ~ ( ~ ~ ~ ~ ~ ~ ~ ~ ~ ~ ~ ~ ~ ~ ~ ~ ~ ~ ~ ~ ( ~ ~ ( ~ ( ~ ~ ~ ~ ~ ~ ~ ~ ~ ~ ~ ~ ~ ~ ~ ~ ~ ~ ",
"s s s s j s s s s j s s s s s s s s s s s j s s s s s s j s s s s j s s s s s s s s s s s s s s s s s s j s s s s j s s s s s s s s s s s j s s s s s s j s s s s j s s s s s s s s s s s s s s s s s s j s s s s j s s s s s s s s s s s j s s s s s s j s s s s s j s s s s s s s j s s s s s s s j s s s s s s s j s s s s s s s j s s s s s s s j s s s s s s s j s s s s s s s j s s s s s s s s s j s s s s j s s s s s s s s s s s j s s s s s s j s s s s j s s s s s s s s s s s s s s s s s s j s s s s j s s s s s s ",
"( ( ~ ( ( ( ~ ( ( ( ( ~ ~ ( ( ( ( ~ ~ ( ( ( ( ~ ( ( ~ ( ( ( ~ ( ( ( ( ~ ~ ( ( ( ( ~ ~ ( ( ( ( ( ( ( ~ ( ( ( ~ ( ( ( ( ~ ~ ( ( ( ( ~ ~ ( ( ( ( ~ ( ( ~ ( ( ( ~ ( ( ( ( ~ ~ ( ( ( ( ~ ~ ( ( ( ( ( ( ( ~ ( ( ( ~ ( ( ( ( ~ ~ ( ( ( ( ~ ~ ( ( ( ( ~ ( ( ~ ( ( ( ~ ( ~ ( ( ~ ( ~ ~ ( ~ ( ( ~ ( ~ ~ ( ~ ( ( ~ ( ~ ~ ( ~ ( ( ~ ( ~ ~ ( ~ ( ( ~ ( ~ ~ ( ~ ( ( ~ ( ~ ~ ( ~ ( ( ~ ( ~ ~ ( ~ ( ( ~ ( ~ ~ ( ( ( ~ ( ( ( ~ ( ( ( ( ~ ~ ( ( ( ( ~ ~ ( ( ( ( ~ ( ( ~ ( ( ( ~ ( ( ( ( ~ ~ ( ( ( ( ~ ~ ( ( ( ( ( ( ( ~ ( ( ( ~ ( ( ( ( ~ ~ ( ( ( ",
"a s s s a a s s s a s s s s s s s s s s s a s s a s s s a a s s s a s s s s s s s s s s a a s s a s s s a a s s s a s s s s s s s s s s s a s s a s s s a a s s s a s s s s s s s s s s a a s s a s s s a a s s s a s s s s s s s s s s s a s s a s s s a a s s s s s s s s s s s s s s s s s s s s s s s s s s s s s s s s s s s s s s s s s s s s s s s s s s s s s s s s s s s s s s s s s s a s s s a a s s s a s s s s s s s s s s s a s s a s s s a a s s s a s s s s s s s s s s a a s s a s s s a a s s s a s s s s s s ",
"q q q q q q q q q q q q q q q q q q q q q q q q q q q q q q q q q q q q q q q q q q q q q q q q q q q q q q q q q q q q q q q q q q q q q q q q q q q q q q q q q q q q q q q q q q q q q q q q q q q q q q q q q q q q q q q q q q q q q q q q q q q q q q q q q q q q q q q q q q q q q q q q q q q q q q q q q q q q q q q q q q q q q q q q q q q q q q q q q q q q q q q q q q q q q q q q q q q q q q q q q q q q q q q q q q q q q q q q q q q q q q q q q q q q q q q q q q q q q q q q q q q q q q q q q q q q q q q q ",
"B B B B B B B B B B B B B B B B B B B B B B B B B B B B B B B B B B B B B B B B B B B B B B B B B B B B B B B B B B B B B B B B B B B B B B B B B B B B B B B B B B B B B B B B B B B B B B B B B B B B B B B B B B B B B B B B B B B B B B B B B B B B B B B B B B B B B B B B B B B B B B B B B B B B B B B B B B B B B B B B B B B B B B B B B B B B B B B B B B B B B B B B B B B B B B B B B B B B B B B B B B B B B B B B B B B B B B B B B B B B B B B B B B B B B B B B B B B B B B B B B B B B B B B B B B B B B B B B ",
"Z Z Z Z Z Z G Z Z Z Z Z Z Z Z Z Z Z Z G Z Z Z Z Z Z Z Z Z Z G Z Z Z Z Z Z Z Z Z Z Z Z Z Z Z Z Z Z Z Z Z Z Z G Z Z Z Z Z Z Z Z Z Z Z Z G Z Z Z Z Z Z Z Z Z Z G Z Z Z Z Z Z Z Z Z Z Z Z Z Z Z Z Z Z Z Z Z Z Z G Z Z Z Z Z Z Z Z Z Z Z Z G Z Z Z Z Z Z Z Z Z Z G Z Z Z Z Z Z Z Z Z Z Z Z G Z Z Z Z Z Z Z Z Z Z Z Z Z Z Z G Z Z Z Z Z Z Z Z Z Z Z Z Z Z Z G Z Z Z Z Z Z Z Z Z Z Z Z Z Z Z G Z Z Z Z Z Z Z Z Z Z G Z Z Z Z Z Z Z Z Z Z Z Z G Z Z Z Z Z Z Z Z Z Z G Z Z Z Z Z Z Z Z Z Z Z Z Z Z Z Z Z Z Z Z Z Z Z G Z Z Z Z Z Z Z Z Z ",
"e e e e e q e e e e e e e e e e e e q e e e e e e e e e e e e e e e e e e e e e e e e e e e e e e e e e e q e e e e e e e e e e e e q e e e e e e e e e e e e e e e e e e e e e e e e e e e e e e e e e e q e e e e e e e e e e e e q e e e e e e e e e e e e e e e e e e e e e e e q e e e e e e e e e e e e e e e q e e e e e e e e e e e e e e e q e e e e e e e e e e e e e e e q e e e e e e e e e e q e e e e e e e e e e e e q e e e e e e e e e e e e e e e e e e e e e e e e e e e e e e e e e e q e e e e e e e e e e ",
"l l v l l l v l l v l l l l v l l l v l l v l l l l v l l l v l l l l l v l l v l v l v l v l v l l v l l l v l l v l l l l v l l l v l l v l l l l v l l l v l l l l l v l l v l v l v l v l v l l v l l l v l l v l l l l v l l l v l l v l l l l v l l l v l l v l l l l v l l l v l l v l l l v l l l l v l l l v l l v l l l v l l l l v l l l v l l v l l l v l l l l v l l l v l l v l l l l v l l l v l l v l l l l v l l l v l l v l l l l v l l l v l l l l l v l l v l v l v l v l v l l v l l l v l l v l l l l v l ",
"s s s s s a s s s s s s s s s s s a s s s s s s s s s s s s s s s s s s s s s s s s s s s s s s s s s s s a s s s s s s s s s s s a s s s s s s s s s s s s s s s s s s s s s s s s s s s s s s s s s s s a s s s s s s s s s s s a s s s s s s s s s s s s s s s s s a s s s s s a s s s s s s s s s a s s s s s a s s s s s s s s s a s s s s s a s s s s s s s s s a s s s s s a s s s s s s s s s s s a s s s s s s s s s s s a s s s s s s s s s s s s s s s s s s s s s s s s s s s s s s s s s s s a s s s s s s s s s s ",
"G G K G K G G G K G G G G G K G K G G G K G G G G G K G G G G G K G G G K G G G G G G G G G G G G G K G K G G G K G G G G G K G K G G G K G G G G G K G G G G K K G G G K G G G G G G G G G G G G G K G K G G G K G G G G G K G K G G G K G G G G G K G G G G G K G K G G G K G K G G G K G G G K G K G G G K G K G G G K G K G K G K G G G K G K G G G K G G G K G K G G G K G K G G G K G K G G G K G K G G G K G G G G G K G K G G G K G G G G G K G G G G G K G G G K G G G G G G G G G G G G G K G K G G G K G G G G G K G ",
"P P P P P P P P P P P P P P P P P P P P P P P P P P P P P P P P P P P P P P P P P P P P P P P P P P P P P P P P P P P P P P P P P P P P P P P P P P P P P P P P P P P P P P P P P P P P P P P P P P P P P P P P P P P P P P P P P P P P P P P P P P P P P P P P P P P P P P P P P P P P P P P P P P P P P P P P P P P P P P P P P P P P P P P P P P P P P P P P P P P P P P P P P P P P P P P P P P P P P P P P P P P P P P P P P P P P P P P P P P P P P P P P P P P P P P P P P P P P P P P P P P P P P P P P P P P P P P P P ",
"v l l v v l v v l v v v l v l v l v l v l v l v l v v v l v l v v l v l v l v l v l v l v l v l v l v v l v v l v v l v v l v v l v v l v v l v v l v v l v v l v l v l v l v l v l v l v l v l v l l v v l v v l v v v l v l v l v l v l v l v l v v v l v l v l v l v l v v v l v l v l v l v l v v l v v l v v l v v l v v l l v l v l v v v l v l v l v l v l v v l v v l v v l v v l v v l v l l v v l v v l v v v l v l v l v l v l v l v l v v v l v l v v l v l v l v l v l v l v l v l v l v v l v v l v v l v v l v v ",
"e e q q q e q e q q e q e e q q e e q q e e e e q q e q e e q q e e q q e e e q e e q q e e e q q e q e q q q e q e q q q e q e q q q e q e q q q e q e q q q e e e q q e e e q e e q q e e e q e e q q q e q e q q e q e e q q e e q q e e e e q q e q e e q q e e e e q q e q e e q q e e e e q q q e q e q q q e q e q q q e e e e e q q e q e e q q e e e e q q q e q e q q q e q e q q q e e e q q q e q e q q e q e e q q e e q q e e e e q q e q e e q q e e q q e e e q e e q q e e e q q e q e q q q e q e q q q e q e ",
"a a a a a a a a a a a a a a a a a a a a a a a a a a a a a a a a a a a a a a a a a a a a a a a a a a a a a a a a a a a a a a a a a a a a a a a a a a a a a a a a a a a a a a a a a a a a a a a a a a a a a a a a a a a a a a a a a a a a a a a a a a a a a a a a a a a a a a a a a a a a a a a a a a a a a a a a a a a a a a a a a a a a a a a a a a a a a a a a a a a a a a a a a a a a a a a a a a a a a a a a a a a a a a a a a a a a a a a a a a a a a a a a a a a a a a a a a a a a a a a a a a a a a a a a a a a a a a a a ",
"~ ~ ~ ~ ~ ~ ~ ~ ~ ~ ~ ~ ~ ~ ~ ~ ~ ~ ~ ~ ~ ~ ~ ~ ~ ~ ~ ~ ~ ~ ~ ~ ~ ~ ~ ~ ~ ~ ~ ~ ~ ~ ~ ~ ~ ~ ~ ~ ~ ~ ~ ~ ~ ~ ~ ~ ~ ~ ~ ~ ~ ~ ~ ~ ~ ~ ~ ~ ~ ~ ~ ~ ~ ~ ~ ~ ~ ~ ~ ~ ~ ~ ~ ~ ~ ~ ~ ~ ~ ~ ~ ~ ~ ~ ~ ~ ~ ~ ~ ~ ~ ~ ~ ~ ~ ~ ~ ~ ~ ~ ~ ~ ~ ~ ~ ~ ~ ~ ~ ~ ~ ~ ~ ~ ~ ~ ~ ~ ~ ~ ~ ~ ~ ~ ~ ~ ~ ~ ~ ~ ~ ~ ~ ~ ~ ~ ~ ~ ~ ~ ~ ~ ~ ~ ~ ~ ~ ~ ~ ~ ~ ~ ~ ~ ~ ~ ~ ~ ~ ~ ~ ~ ~ ~ ~ ~ ~ ~ ~ ~ ~ ~ ~ ~ ~ ~ ~ ~ ~ ~ ~ ~ ~ ~ ~ ~ ~ ~ ~ ~ ~ ~ ~ ~ ~ ~ ~ ~ ~ ~ ~ ~ ~ ~ ~ ~ ~ ~ ~ ~ ~ ~ ~ ~ ~ ~ ~ ~ ~ ~ ~ ~ ~ ~ ~ ~ ~ ~ ~ ~ ~ ~ ~ ~ ~ ~ ~ ~ ~ ~ ~ ~ ~ ~ ~ ~ ",
"j j j j j j j j j j j j j j j j j j j j j j j j j j j j j j j j j j j j j j j j j j j j j j j j j j j j j j j j j j j j j j j j j j j j j j j j j j j j j j j j j j j j j j j j j j j j j j j j j j j j j j j j j j j j j j j j j j j j j j j j j j j j j j j j j j j j j j j j j j j j j j j j j j j j j j j j j j j j j j j j j j j j j j j j j j j j j j j j j j j j j j j j j j j j j j j j j j j j j j j j j j j j j j j j j j j j j j j j j j j j j j j j j j j j j j j j j j j j j j j j j j j j j j j j j j j j j j j j ",
"8 8 8 8 8 8 8 8 8 8 8 8 8 8 8 8 8 8 8 8 8 8 8 8 8 8 8 8 8 8 8 8 8 8 8 8 8 8 8 8 8 8 8 8 8 8 8 8 8 8 8 8 8 8 8 8 8 8 8 8 8 8 8 8 8 8 8 8 8 8 8 8 8 8 8 8 8 8 8 8 8 8 8 8 8 8 8 8 8 8 8 8 8 8 8 8 8 8 8 8 8 8 8 8 8 8 8 8 8 8 8 8 8 8 8 8 8 8 8 8 8 8 8 8 8 8 8 8 8 8 8 8 8 8 8 8 8 8 8 8 8 8 8 8 8 8 8 8 8 8 8 8 8 8 8 8 8 8 8 8 8 8 8 8 8 8 8 8 8 8 8 8 8 8 8 8 8 8 8 8 8 8 8 8 8 8 8 8 8 8 8 8 8 8 8 8 8 8 8 8 8 8 8 8 8 8 8 8 8 8 8 8 8 8 8 8 8 8 8 8 8 8 8 8 8 8 8 8 8 8 8 8 8 8 8 8 8 8 8 8 8 8 8 8 8 8 8 8 8 8 8 8 8 8 8 8 ",
"q q e q q e q q e q q e q q q q q q e q q q q q e q q e q q q q q q q q e q q q q q q q e q q e q q q q q q q q q q e q q e q q e q q e q q q q q q q q q q q q q q q q e q q q q q q q e q q e q q e q q e q q e q q e q q q q q q e q q q q q e q q e q q q q q q q e q q q q q q e q q q q q e q q e q q q q q q q q q q q q q q q e q q q q q q e q q q q q e q q e q q q q q q q q q q q q q q e q q e q q e q q e q q q q q q e q q q q q e q q e q q q q q q q q e q q q q q q q e q q e q q q q q q q q q q e q q e q q ",
"v l l v l l l l l v l l v l l l v l l v l l l l l v l l v l l l l v l l l v l v l v l l l v l l l l l v l v l v v l l v l l l l l v l l v l v l l l l v l v l v l v l l l v l v l v l l l v l l v l l v l l l l l v l l v l l l v l l v l l l l l v l l v l l l l l l l l v l v v l l v l l l l l v l l v l v l l l l v l v l v l l l l l v l v v l l v l l l l l v l l v l v l l l l v l v l v v l l v l l l l l v l l v l l l v l l v l l l l l v l l v l l l l v l l l v l v l v l l l v l l l l l v l v l v v l l v l l l l ",
"a e a a e a e a e a a e e a e a a a e a e a e a e a a e e a e a a a e a e a a e e a e a a e a e e a a e a e a e a e e a a e a e e a e a a e a e e a a e a e a e a a e a e a a e e a e a a e a e a e a a e a e a e a a e e a e a a a e a e a e a e a a e e a e a e a a e a e a e a a a e a e a a e a e a a e a e e a a e a e a e e a a e a e a e a a a e a e a a e a e a a e a e e a a e a e a e a e a a e a e a e a a e e a e a a a e a e a e a e a a e e a e a a a e a e a a e e a e a a e a e e a a e a e a e a e e a a e a e ",
"B B B B B B B B B B B B B B B B B B B B B B B B B B B B B B B B B B B B B B B B B B B B B B B B B B B B B B B B B B B B B B B B B B B B B B B B B B B B B B B B B B B B B B B B B B B B B B B B B B B B B B B B B B B B B B B B B B B B B B B B B B B B B B B B B B B B B B B B B B B B B B B B B B B B B B B B B B B B B B B B B B B B B B B B B B B B B B B B B B B B B B B B B B B B B B B B B B B B B B B B B B B B B B B B B B B B B B B B B B B B B B B B B B B B B B B B B B B B B B B B B B B B B B B B B B B B B B B B ",
"2 2 > > > 2 > 2 2 2 2 > > 2 > 2 2 > > > > 2 > 2 2 2 2 > > 2 > 2 > 2 2 2 2 2 2 > 2 2 2 2 2 2 > 2 2 > 2 2 > 2 > 2 2 2 2 2 2 > 2 > 2 2 2 2 2 2 > 2 2 > 2 2 > 2 > 2 > 2 2 2 2 2 2 > 2 2 2 2 2 2 > 2 2 2 > > > 2 > 2 2 2 2 > > 2 > 2 2 > > > > 2 > 2 2 2 2 > > 2 > 2 2 > 2 2 > 2 > 2 > 2 > 2 2 2 > > 2 2 2 2 2 2 > 2 2 > 2 2 > 2 > 2 2 > 2 2 > 2 > 2 > 2 > 2 2 2 > > 2 2 2 2 2 2 > 2 2 > 2 2 > 2 > 2 2 2 > > > 2 > 2 2 2 2 > > 2 > 2 2 > > > > 2 > 2 2 2 2 > > 2 > 2 > 2 2 2 2 2 2 > 2 2 2 2 2 2 > 2 2 > 2 2 > 2 > 2 2 2 2 2 2 > 2 > ",
"P P P P W P P P P P P P W P P P P W P P W P P P P P P P W P P P P P P P P P P P P P P P P P P P P P P P P P W P P P P P P W P P P P P P P P P P P P P P P P W P P P P P P P P P P P P P P P P P P P P P W P P P P P P P W P P P P W P P W P P P P P P P W P P P P P P P P P W P P P P P P P P P P P P P P P P P P P P P P P W P P P P P P P W P P P P P P P P P P P P P P P P P P P P P P P W P P P P P W P P P P P P P W P P P P W P P W P P P P P P P W P P P P P P P P P P P P P P P P P P P P P P P P P W P P P P P P W P P ",
"K G K G K G K K K G K G K G K K G K K K K G K K K G K G K G K K G K K K K K G K K G K K K K K K K K K G K K K K K K G K G K K G K G K K K K K K K K K G K G K K G K K K K K G K K G K K G K K K K G K G K G K K K G K G K G K K G K K K K G K K K G K G K G K K K K K G K G K K G K K K K K G K K G K K K K K K K K K G K K K K K K K G K G K K G K K K K K G K K G K K K K K K K K K G K G K K K G K G K G K K K G K G K G K K G K K K K G K K K G K G K G K K G K K K K K G K K G K K K K K K K K K G K K K K K K G K G K K G ",
"v l v v v l l v v l v v v l l v l l l v v l l v v l v v v l l v l v l v l v l l v l l l l l l l l v v l l l l l l v l l l v v l v l l l l l l l l v v l v l l l l v l v l v l l v l l l l v l l v l v v v l l v v l v v v l l v l l l v v l l v v l v v v l l v l v v l v l l l l v l v l v l l v l l l l l l l l v v l l l l l l v v l v l l l l v l v l v l l v l l l l l l l l v v l v l l l v l v v v l l v v l v v v l l v l l l v v l l v v l v v v l l v l v l v l v l l v l l l l l l l l v v l l l l l l v l l l v v l ",
"W P P P P P W P W P P P P P W P W P W P P P W P W P P P P P W P W P P P W P W P P W P P W P P W W P W P P W W P P W P W W P P W P W P P W P P W W P W P P W P P W P P P W P W P P W P P W P P W W P P P P P W P W P P P P P W P W P W P P P W P W P P P P P W P W P W P P W P P W P P P W P W P P W P P W P P W W P W P P W W P W P W P P W P P W P P P W P W P P W P P W P P W W P W P P W W P W P P P P P W P W P P P P P W P W P W P P P W P W P P P P P W P W P P P W P W P P W P P W P P W W P W P P W W P P W P W W P P W ",
"> > 2 > 2 > > > > > 2 > 2 > > > > > > > 2 > > > > > 2 > 2 > > > > 2 > > > > > 2 > > 2 > > 2 > > > > > > > > > > > > > > > > > > > > 2 > > 2 > > > > > > > > 2 > > 2 > > > > > 2 > > 2 > > 2 > > > > 2 > 2 > > > > > 2 > 2 > > > > > > > 2 > > > > > 2 > 2 > > > > > > > > > 2 > > 2 > > > > > 2 > > 2 > > 2 > > > > > > > > > > > > > > > > 2 > > 2 > > > > > 2 > > 2 > > 2 > > > > > > > > > > > > 2 > 2 > > > > > 2 > 2 > > > > > > > 2 > > > > > 2 > 2 > > > > 2 > > > > > 2 > > 2 > > 2 > > > > > > > > > > > > > > > > > > ",
"j j j j j j j j j j j j j j j j j j j j j j j j j j j j j j j j j j j j j j j j j j j j j j j j j j j j j j j j j j j j j j j j j j j j j j j j j j j j j j j j j j j j j j j j j j j j j j j j j j j j j j j j j j j j j j j j j j j j j j j j j j j j j j j j j j j j j j j j j j j j j j j j j j j j j j j j j j j j j j j j j j j j j j j j j j j j j j j j j j j j j j j j j j j j j j j j j j j j j j j j j j j j j j j j j j j j j j j j j j j j j j j j j j j j j j j j j j j j j j j j j j j j j j j j j j j j j j j j ",
"q 8 8 8 q 8 8 8 q 8 8 8 q 8 8 8 q 8 8 8 q 8 8 8 q 8 8 8 q 8 8 8 8 8 8 8 q 8 8 8 q 8 8 8 q 8 8 8 8 q 8 8 q 8 8 8 q 8 8 8 8 q 8 8 q 8 8 8 q 8 8 8 8 q 8 8 q 8 8 8 q 8 8 8 8 q 8 8 q 8 8 8 q 8 8 8 q 8 8 8 q 8 8 8 q 8 8 8 q 8 8 8 q 8 8 8 q 8 8 8 q 8 8 8 q 8 8 8 8 8 8 8 8 8 8 q q 8 8 8 q 8 8 8 8 q 8 8 q 8 8 8 q 8 8 8 8 q 8 8 q 8 8 8 q 8 8 8 8 q 8 8 q 8 8 8 q 8 8 8 8 q 8 8 q 8 8 8 q 8 8 8 q 8 8 8 q 8 8 8 q 8 8 8 q 8 8 8 q 8 8 8 q 8 8 8 q 8 8 8 q 8 8 8 8 8 8 8 q 8 8 8 q 8 8 8 q 8 8 8 8 q 8 8 q 8 8 8 q 8 8 8 8 q 8 8 ",
"8 q q q 8 q q q 8 q q q 8 q q q 8 q q q 8 q q q 8 q q q 8 q q q q q 8 q 8 q q q q 8 q q 8 q q q q q q 8 q 8 q q 8 q q q q q q 8 q 8 q q 8 q q q q q q 8 q 8 q q 8 q q q q q q 8 q 8 q q 8 q q q 8 q q q 8 q q q 8 q q q 8 q q q 8 q q q 8 q q q 8 q q q 8 q q q q q q q q q q 8 q 8 q q 8 q q q q q q 8 q 8 q q 8 q q q q q q 8 q 8 q q 8 q q q q q q 8 q 8 q q 8 q q q q q q 8 q 8 q q 8 q q q 8 q q q 8 q q q 8 q q q 8 q q q 8 q q q 8 q q q 8 q q q 8 q q q q q 8 q 8 q q q q 8 q q 8 q q q q q q 8 q 8 q q 8 q q q q q q 8 ",
"& & & & & & & & & & & & & & & & & & & & & & & & & & & & & & & & & & & & & & & & & & & & & & & & & & & & & & & & & & & & & & & & & & & & & & & & & & & & & & & & & & & & & & & & & & & & & & & & & & & & & & & & & & & & & & & & & & & & & & & & & & & & & & & & & & & & & & & & & & & & & & & & & & & & & & & & & & & & & & & & & & & & & & & & & & & & & & & & & & & & & & & & & & & & & & & & & & & & & & & & & & & & & & & & & & & & & & & & & & & & & & & & & & & & & & & & & & & & & & & & & & & & & & & & & & & & & & & & ",
"j j j l j l j j j j j l l l j j j j j l j l j j j j j l l l j j j j l l l j j j l l j j j j l l j l j l j l j l j j j l j j j l l l j j j j l l j l j l j l j l j j j l j j j l l l j j j j l l j j j l j l j j j j j l l l j j j j j l j l j j j j j l l l j j j j l l j j j j l l j j j j l l j l j l j l j l j j j l j j j l l l j j j j l l j l j l j l j l j j j l j j j l l l j j j j l l j j j l j l j j j j j l l l j j j j j l j l j j j j j l l l j j j j l l l j j j j l j j j j j l j l j l j l j l j j j l j j j l ",
"{ { { { { { { { { { { { { { { { { { { { { { { { { { { { { { { { { { { { { { { { { { { { { { { { { { { { { { { { { { { { { { { { { { { { { { { { { { { { { { { { { { { { { { { { { { { { { { { { { { { { { { { { { { { { { { { { { { { { { { { { { { { { { { { { { { { { { { { { { { { { { { { { { { { { { { { { { { { { { { { { { { { { { { { { { { { { { { { { { { { { { { { { { { { { { { { { { { { { { { { { { { { { { { { { { { { { { { { { { { { { { { { { { { { { { { { { { } { { { { { } { { { { { { { { { { { { { { { { ",
"v l l l l v v l v l l l v l l l v l l l l v v l v l l l v l l l l l v l l v l l v l l v l l l l l l l v l l l v l l l v v l l l v l l v l l l l l l l v l l l v l l l v v l l l v l l v l l l l v l l l l v v l v l l l v l l l v l l l l v v l v l l l v l l l l l v l l v l l v l l v l l l l l l l v l l l v l l l v v l l l v l l v l l l l l l l v l l l v l l l v v l l l v l l v l l l l v l l l l v v l v l l l v l l l v l l l l v v l v l l l v l l l l l v l l v l l v l l v l l l l l l l v l l l v l l l v v l l l ",
"l l l l l l l l l l l l l l l j l l l l l l l l l l l l l l l j l l l l l l l l l l l l l l l j l l l l l l l l l l l l l l l l l l l l l l l j l l l l l l l l l l l l l l l l l l l l l l l j l l l l l l l l l l l l l l l j l l l l l l l l l l l l l l l j l l l l l l l l l l l l l l l j l l l l l l l l l l l l l l l l l l l l l l l j l l l l l l l l l l l l l l l l l l l l l l l j l l l l l l l l l l l l l l l j l l l l l l l l l l l l l l l j l l l l l l l l l l l l l l l j l l l l l l l l l l l l l l l l ",
"q q 8 q 8 8 8 q 8 q 8 8 8 q 8 q q q 8 q 8 8 8 q 8 q 8 8 8 q 8 q q 8 q 8 8 q 8 8 8 8 8 q 8 q 8 8 8 8 8 q 8 q q q q q 8 8 q q q 8 8 q 8 8 8 q 8 q 8 8 8 q 8 q q q q 8 q 8 8 q 8 8 8 8 8 q 8 q 8 8 q q 8 q 8 8 8 q 8 q 8 8 8 q 8 q q q 8 q 8 8 8 q 8 q 8 8 8 q 8 q q 8 q 8 8 q 8 8 8 8 8 q 8 q 8 8 8 8 8 q 8 q q q q q 8 8 q q q 8 8 q 8 8 8 q 8 q 8 8 8 q 8 q q q q 8 q 8 8 q 8 8 8 8 8 q 8 q 8 8 q q 8 q 8 8 8 q 8 q 8 8 8 q 8 q q q 8 q 8 8 8 q 8 q 8 8 8 q 8 q q 8 q 8 8 q 8 8 8 8 8 q 8 q 8 8 8 8 8 q 8 q q q q q 8 8 q q q 8 ",
"= > > > > > = > > > > > = > > > = > > > > > = > > > > > = > > > > > > > > > > > > > = > > > > > > > > > > = > > > > > > > = > > > > > > = > > > > > > > > = > > > > > > > > > > > > = > > > > > = > > > > > = > > > > > = > > > = > > > > > = > > > > > = > > > > > > > > > > > > > = > > > > > > > > > > = > > > > > > > = > > > > > > = > > > > > > > > = > > > > > > > > > > > > = > > > > > = > > > > > = > > > > > = > > > = > > > > > = > > > > > = > > > > > > > > > > > > > = > > > > > > > > > > = > > > > > > > = > > ",
"s s s s s s s j s s s s s s s s s s s s s s s j s s s s s s s s s s s s s s s s s s s j s s s s s s s s s s s s s s s s s s s s s s s s s s s s s s s s s s s s s s s s s s s s s s s j s s s s s s s s s s s j s s s s s s s s s s s s s s s j s s s s s s s s s s s s s s s s s s s j s s s s s s s s s s s s s s s s s s s s s s s s s s s s s s s s s s s s s s s s s s s s s s s j s s s s s s s s s s s j s s s s s s s s s s s s s s s j s s s s s s s s s s s s s s s s s s s j s s s s s s s s s s s s s s s s s s s s ",
"~ W W W W W W W W W ~ W ~ W W W ~ W W W W W W W W W ~ W ~ W W W W W W W W W ~ W W W W W W W ~ W W W W W W W W W W W W W W W W W W W ~ W ~ W W W W W W W W W W W W W W W W W ~ W W W W W W W ~ W ~ W W W W W W W W W ~ W ~ W W W ~ W W W W W W W W W ~ W ~ W W W W W W W W W ~ W W W W W W W ~ W W W W W W W W W W W W W W W W W W W ~ W ~ W W W W W W W W W W W W W W W W W ~ W W W W W W W ~ W ~ W W W W W W W W W ~ W ~ W W W ~ W W W W W W W W W ~ W ~ W W W W W W W W W ~ W W W W W W W ~ W W W W W W W W W W W W W W W W W ",
"= = = = = = = = & = = & = = = = = = = = = = = = & = = & = = = = = = & = = = & = = = & = = = & = = = = = = = = & = = = = = = = = & = = & = = = = = = = = = = = & = = = = = = & = = = & = = = & = = = = = = = = = & = = & = = = = = = = = = = = = & = = & = = = = = = & = = = & = = = & = = = & = = = = = = = = & = = = = = = = = & = = & = = = = = = = = = = = & = = = = = = & = = = & = = = & = = = = = = = = = & = = & = = = = = = = = = = = = & = = & = = = = = = & = = = & = = = & = = = & = = = = = = = = & = = = = = = = = ",
"W P P P P P P W W P P W W P P W W P P P P P P W W P P W W P P W P P W P W P W P P P W P W P W P P P P W P W P W W P P P P P P W W P P W W P P W P P P W P W P W P P W P P P W P P P W P W P W P W P P P P P P W W P P W W P P W W P P P P P P W W P P W W P P W P P W P W P W P P P W P W P W P P P P W P W P W W P P P P P P W W P P W W P P W P P P W P W P W P P W P P P W P P P W P W P W P W P P P P P P W W P P W W P P W W P P P P P P W W P P W W P P W P P W P W P W P P P W P W P W P P P P W P W P W W P P P P P P W ",
"e e e a e e e e e e a e e e e e e e e a e e e e e e a e e e e e a e e e e e a e a e e e e e a e e e e a e e e e e e e a e e e e e e a e e e e e e e e a e e e e a e e e a e e e a e e e e e a e e e e a e e e e e e a e e e e e e e e a e e e e e e a e e e e e a e e e e e a e a e e e e e a e e e e a e e e e e e e a e e e e e e a e e e e e e e e a e e e e a e e e a e e e a e e e e e a e e e e a e e e e e e a e e e e e e e e a e e e e e e a e e e e e a e e e e e a e a e e e e e a e e e e a e e e e e e e a e e e e ",
"{ { _ { { { { { { { _ _ { { _ { { { _ { { { { { { { _ _ { { _ { _ { { { { _ _ { _ { { { { _ _ { { { { _ _ { { { { { _ { { { { { { { _ _ { { _ { { { { _ _ { { { { _ { { _ { { { _ { { { { _ _ { { { _ { { { { { { { _ _ { { _ { { { _ { { { { { { { _ _ { { _ { _ { { { { _ _ { _ { { { { _ _ { { { { _ _ { { { { { _ { { { { { { { _ _ { { _ { { { { _ _ { { { { _ { { _ { { { _ { { { { _ _ { { { _ { { { { { { { _ _ { { _ { { { _ { { { { { { { _ _ { { _ { _ { { { { _ _ { _ { { { { _ _ { { { { _ _ { { { { { _ { { { { { ",
"P K P P K K P P P P P P P K P P K P P K P P K K P P P P K K P P P K P K P K P K P K P K P K P K P K P P K K P P P P P P P K P P K P P K P P K K P P P P K K P P P K P K P K P K P K P K P K P K P K P P K K P P P P P P P K P P K P P K P P K K P P P P K K P P P K P K P K P K P K P K P K P K P K P P K K P P P P P P P K P P K P P K P P K K P P P P K K P P P K P K P K P K P K P K P K P K P K P P K K P P P P P P P K P P K P P K P P K K P P P P K K P P P K P K P K P K P K P K P K P K P K P P K K P P P P P P P K P P ",
"G Z Z G G Z G Z Z G Z G G Z Z G G Z G Z Z G G G G Z Z G G Z G Z G Z G G G Z G G G Z G G G Z G G G Z Z G G Z G Z Z G Z G G Z Z G G Z G Z Z G G G G Z Z G G Z G Z G Z G G G Z G G G Z G G G Z G G G Z Z G G Z G Z Z G Z G G Z Z G G Z G Z Z G G G G Z Z G G Z G Z G Z G G G Z G G G Z G G G Z G G G Z Z G G Z G Z Z G Z G G Z Z G G Z G Z Z G G G G Z Z G G Z G Z G Z G G G Z G G G Z G G G Z G G G Z Z G G Z G Z Z G Z G G Z Z G G Z G Z Z G G G G Z Z G G Z G Z G Z G G G Z G G G Z G G G Z G G G Z Z G G Z G Z Z G Z G G Z Z G ",
"j s j s j j j s s s j s j s j s s j s j j j s s j j s j j j j s s j s j s j s j s j s j s j s j j s j s j j j s s s j s j s j s s j s j j j s s j j s j j j j s s j s j s j s j s j s j s j s j j s j s j j j s s s j s j s j s s j s j j j s s j j s j j j j s s j s j s j s j s j s j s j s j j s j s j j j s s s j s j s j s s j s j j j s s j j s j j j j s s j s j s j s j s j s j s j s j j s j s j j j s s s j s j s j s s j s j j j s s j j s j j j j s s j s j s j s j s j s j s j s j j s j s j j j s s s j s j s j s ",
"W W W W P W W W W W W W W W W W W W W W W P W W W P W W P W W W W W W P W W W W W W W P W W W W W W W W P W W W W W W W W W W W W W W W W P W W W P W W P W W W W W W P W W W W W W W P W W W W W W W W P W W W W W W W W W W W W W W W W P W W W P W W P W W W W W W P W W W W W W W P W W W W W W W W P W W W W W W W W W W W W W W W W P W W W P W W P W W W W W W P W W W W W W W P W W W W W W W W P W W W W W W W W W W W W W W W W P W W W P W W P W W W W W W P W W W W W W W P W W W W W W W W P W W W W W W W W W W W ",
"@.@.@.@.%.@.@.@.%.@.@.@.@.@.%.@.@.@.@.@.@.@.@.@.@.@.@.@.%.@.@.@.@.@.%.@.@.@.@.@.@.@.%.@.@.@.@.@.@.@.@.@.%.@.@.@.%.@.@.@.@.@.%.@.@.@.@.@.@.@.@.@.@.@.@.@.%.@.@.@.@.@.%.@.@.@.@.@.@.@.%.@.@.@.@.@.@.@.@.@.%.@.@.@.%.@.@.@.@.@.%.@.@.@.@.@.@.@.@.@.@.@.@.@.%.@.@.@.@.@.%.@.@.@.@.@.@.@.%.@.@.@.@.@.@.@.@.@.%.@.@.@.%.@.@.@.@.@.%.@.@.@.@.@.@.@.@.@.@.@.@.@.%.@.@.@.@.@.%.@.@.@.@.@.@.@.%.@.@.@.@.@.@.@.@.@.%.@.@.@.%.@.@.@.@.@.%.@.@.@.@.@.@.@.@.@.@.@.@.@.%.@.@.@.@.@.%.@.@.@.@.@.@.@.%.@.@.@.@.@.@.@.@.@.%.@.@.@.%.@.@.@.@.@.%.@.",
"j j j j j j j j j j j j j s j j j j j j j j j j j j j j j j j j j s j j j j j j j s j j j j j j j j j j j j j j j j j j j s j j j j j j j j j j j j j j j j j j j s j j j j j j j s j j j j j j j j j j j j j j j j j j j s j j j j j j j j j j j j j j j j j j j s j j j j j j j s j j j j j j j j j j j j j j j j j j j s j j j j j j j j j j j j j j j j j j j s j j j j j j j s j j j j j j j j j j j j j j j j j j j s j j j j j j j j j j j j j j j j j j j s j j j j j j j s j j j j j j j j j j j j j j j j j j j s j j ",
"G G G G G G G G G G G G G G G G G G G G K G K G G G G G G G G G G G G G G G G G G G G G G G G K G G G G G G G G G G G G G G G G G G G G K G K G G G G G G G G G G G G G G G G G G G G G G G G K G G G G G G G G G G G G G G G G G G G G K G K G G G G G G G G G G G G G G G G G G G G G G G G K G G G G G G G G G G G G G G G G G G G G K G K G G G G G G G G G G G G G G G G G G G G G G G G K G G G G G G G G G G G G G G G G G G G G K G K G G G G G G G G G G G G G G G G G G G G G G G G K G G G G G G G G G G G G G G G G ",
"o.@.o.@.o.@.@.@.@.o.@.@.o.@.@.o.@.@.@.@.@.o.@.@.o.@.o.@.o.@.@.@.o.@.@.o.@.@.@.@.o.@.@.o.@.@.@.@.o.@.o.@.o.@.@.@.@.o.@.@.o.@.@.o.@.@.@.@.@.o.@.@.o.@.o.@.o.@.@.@.o.@.@.o.@.@.@.@.o.@.@.o.@.@.@.@.o.@.o.@.o.@.@.@.@.o.@.@.o.@.@.o.@.@.@.@.@.o.@.@.o.@.o.@.o.@.@.@.o.@.@.o.@.@.@.@.o.@.@.o.@.@.@.@.o.@.o.@.o.@.@.@.@.o.@.@.o.@.@.o.@.@.@.@.@.o.@.@.o.@.o.@.o.@.@.@.o.@.@.o.@.@.@.@.o.@.@.o.@.@.@.@.o.@.o.@.o.@.@.@.@.o.@.@.o.@.@.o.@.@.@.@.@.o.@.@.o.@.o.@.o.@.@.@.o.@.@.o.@.@.@.@.o.@.@.o.@.@.@.@.o.@.o.@.o.@.@.@.@.o.@.@.o.@.@.o.",
"P P P P P P P P P P P P P P P P P P P P P P P P P P P P P P P P P P P P P P P P P P P P P P P P P P P P P P P P P P P P P P P P P P P P P P P P P P P P P P P P P P P P P P P P P P P P P P P P P P P P P P P P P P P P P P P P P P P P P P P P P P P P P P P P P P P P P P P P P P P P P P P P P P P P P P P P P P P P P P P P P P P P P P P P P P P P P P P P P P P P P P P P P P P P P P P P P P P P P P P P P P P P P P P P P P P P P P P P P P P P P P P P P P P P P P P P P P P P P P P P P P P P P P P P P P P P P P P P ",
"l v l l l v l l l l l v l l l v v l l l v l l l v l l l v l l l l l v l l l v l l v l l l v l l l v l l l v l l l l l v l l l v v l l l v l l l v l l l v l l l l l v l l l v l l v l l l v l l l v l l l v l l l l l v l l l v v l l l v l l l v l l l v l l l l l v l l l v l l v l l l v l l l v l l l v l l l l l v l l l v v l l l v l l l v l l l v l l l l l v l l l v l l v l l l v l l l v l l l v l l l l l v l l l v v l l l v l l l v l l l v l l l l l v l l l v l l v l l l v l l l v l l l v l l l l l l l v l l ",
"$ $ $ $ $ $ $ $ $ $ $ $ $ $ $ $ $ $ $ $ $ $ $ $ $ $ $ $ $ $ $ $ $ $ $ $ $ $ $ $ $ $ $ $ $ $ $ $ $ $ $ $ $ $ $ $ $ $ $ $ $ $ $ $ $ $ $ $ $ $ $ $ $ $ $ $ $ $ $ $ $ $ $ $ $ $ $ $ $ $ $ $ $ $ $ $ $ $ $ $ $ $ $ $ $ $ $ $ $ $ $ $ $ $ $ $ $ $ $ $ $ $ $ $ $ $ $ $ $ $ $ $ $ $ $ $ $ $ $ $ $ $ $ $ $ $ $ $ $ $ $ $ $ $ $ $ $ $ $ $ $ $ $ $ $ $ $ $ $ $ $ $ $ $ $ $ $ $ $ $ $ $ $ $ $ $ $ $ $ $ $ $ $ $ $ $ $ $ $ $ $ $ $ $ $ $ $ $ $ $ $ $ $ $ $ $ $ $ $ $ $ $ $ $ $ $ $ $ $ $ $ $ $ $ $ $ $ $ $ $ $ $ $ $ $ $ $ $ $ $ $ $ $ $ $ $ ",
"l l l v l l l l l l l l l v l l l l l l l l l v l l v l l l l l l v l l v l l l l l l l l l v l l l l v l l l l l l l l l v l l l l l l l l l v l l v l l l l l l v l l v l l l l l l l l l v l l l l v l l l l l l l l l v l l l l l l l l l v l l v l l l l l l v l l v l l l l l l l l l v l l l l v l l l l l l l l l v l l l l l l l l l v l l v l l l l l l v l l v l l l l l l l l l v l l l l v l l l l l l l l l v l l l l l l l l l v l l v l l l l l l v l l v l l l l l l l l l v l l l l v l l l l l l l v l l v l ",
"} { { { { { { { { { { { } { { { { { { { { { { { } { { { { { { { { { { { { { { { { { { { { { { { } { { { { { { { { { { { } { { { { { { { { { { { } { { { { { { { { { { { { { { { { { { { { { { { } { { { { { { { { { { { } { { { { { { { { { { { } { { { { { { { { { { { { { { { { { { { { { { { } { { { { { { { { { { { } { { { { { { { { { { { } { { { { { { { { { { { { { { { { { { { { { { { } { { { { { { { { { { { } { { { { { { { { { { { } { { { { { { { { { { { { { { { { { { { { { { { } { { { { { { { { { { { } { { { ",
"l l j l j j j j j j j j l j j l l j j l l j l j l l l j l j j l l j l j l l l j j j j j j j j j l l j l j j j j j j j j l j j l l j j l l j l j l l l j l j j l l j l j l l l j j j j j j j j j l l j l j j j j j j j j l j j l l j j l l j l j l l l j l j j l l j l j l l l j j j j j j j j j l l j l j j j j j j j j l j j l l j j l l j l j l l l j l j j l l j l j l l l j j j j j j j j j l l j l j j j j j j j j l j j l l j j l l j l j l l l j l j j l l j l j l l l j j j j j j j j j l l j l j j j j j j j j l j j l ",
"~ ( ( ( ( ( ~ ( ( ( ( ( ~ ( ( ( ( ~ ( ( ( ~ ( ~ ( ( ( ~ ( ~ ( ( ( ~ ( ~ ( ( ( ~ ( ( ~ ( ( ( ( ( ~ ( ( ( ( ( ~ ( ( ( ( ( ~ ( ( ( ( ~ ( ( ( ~ ( ~ ( ( ( ~ ( ~ ( ( ( ~ ( ~ ( ( ( ~ ( ( ~ ( ( ( ( ( ~ ( ( ( ( ( ~ ( ( ( ( ( ~ ( ( ( ( ~ ( ( ( ~ ( ~ ( ( ( ~ ( ~ ( ( ( ~ ( ~ ( ( ( ~ ( ( ~ ( ( ( ( ( ~ ( ( ( ( ( ~ ( ( ( ( ( ~ ( ( ( ( ~ ( ( ( ~ ( ~ ( ( ( ~ ( ~ ( ( ( ~ ( ~ ( ( ( ~ ( ( ~ ( ( ( ( ( ~ ( ( ( ( ( ~ ( ( ( ( ( ~ ( ( ( ( ~ ( ( ( ~ ( ~ ( ( ( ~ ( ~ ( ( ( ~ ( ~ ( ( ( ~ ( ( ~ ( ( ( ( ( ~ ( ( ( ( ( ~ ( ( ( ( ( ~ ( ( ( ",
"q q q q q e q q q q q e q q q q q q q q e q q q q q e q q q q q e q q q q q e q q e q q q q q e q q q q q e q q q q q e q q q q q q q q e q q q q q e q q q q q e q q q q q e q q e q q q q q e q q q q q e q q q q q e q q q q q q q q e q q q q q e q q q q q e q q q q q e q q e q q q q q e q q q q q e q q q q q e q q q q q q q q e q q q q q e q q q q q e q q q q q e q q e q q q q q e q q q q q e q q q q q e q q q q q q q q e q q q q q e q q q q q e q q q q q e q q e q q q q q e q q q q q e q q q q q e q q q q "
};
